; generated by PrusaSlicer 2.6.1+MacOS-arm64 on 2023-11-03 at 17:56:19 UTC


;
;
; 

; external perimeters extrusion width = 0.45mm
; perimeters extrusion width = 0.45mm
; infill extrusion width = 0.45mm
; solid infill extrusion width = 0.45mm
; top infill extrusion width = 0.40mm
; first layer extrusion width = 0.42mm

M73 P0 R24
M73 Q0 S24
M201 X1000 Y1000 Z200 E5000 ; sets maximum accelerations, mm/sec^2
M203 X200 Y200 Z12 E120 ; sets maximum feedrates, mm / sec
M204 S1250 T1250 ; sets acceleration (S) and retract acceleration (R), mm/sec^2
M205 X8.00 Y8.00 Z0.40 E4.50 ; sets the jerk limits, mm/sec
M205 S0 T0 ; sets the minimum extruding and travel feed rate, mm/sec
;TYPE:Custom
M862.3 P "MK3S" ; printer model check
M862.1 P0.4 ; nozzle diameter check
M115 U3.13.1 ; tell printer latest fw version
G90 ; use absolute coordinates
M83 ; extruder relative mode
M104 S215 ; set extruder temp
M140 S60 ; set bed temp
M190 S60 ; wait for bed temp
M109 S215 ; wait for extruder temp
G28 W ; home all without mesh bed level
G80 ; mesh bed leveling

G1 Z0.2 F720
G1 Y-3 F1000 ; go outside print area
G92 E0
G1 X60 E9 F1000 ; intro line
G1 X100 E12.5 F1000 ; intro line

G92 E0
M221 S95

; Don't change E values below. Excessive value can damage the printer.
M907 E430 ; set extruder motor current
G21 ; set units to millimeters
G90 ; use absolute coordinates
M83 ; use relative distances for extrusion
M900 K0.05 ; Filament gcode LA 1.5
M900 K30 ; Filament gcode LA 1.0

M107
;LAYER_CHANGE
;Z:0.2
;HEIGHT:0.2
;BEFORE_LAYER_CHANGE
G92 E0.0
;0.2


G1 E-.8 F2100
G1 Z.4 F720
;AFTER_LAYER_CHANGE
;0.2
G1 X115.981 Y98.215 F10800
G1 Z.2 F720
G1 E.8 F2100
M204 S800
;TYPE:Skirt/Brim
;WIDTH:0.42
G1 F1200
G1 X116.989 Y97.207 E.0447
G1 X122.256 Y94.166 E.19069
G1 X123.633 Y93.797 E.0447
G1 X126.367 Y93.797 E.08572
G1 X127.744 Y94.166 E.0447
G1 X133.011 Y97.207 E.19069
G1 X134.019 Y98.215 E.0447
M73 P0 R23
G1 X135.385 Y100.582 E.08569
G1 X135.754 Y101.959 E.0447
G1 X135.754 Y108.041 E.1907
G1 X135.385 Y109.418 E.0447
G1 X134.019 Y111.785 E.08569
G1 X133.011 Y112.793 E.0447
G1 X127.744 Y115.834 E.19069
G1 X126.367 Y116.203 E.0447
G1 X123.633 Y116.203 E.08572
G1 X122.256 Y115.834 E.0447
G1 X116.989 Y112.793 E.19069
G1 X115.981 Y111.785 E.0447
G1 X114.615 Y109.418 E.08569
G1 X114.246 Y108.041 E.0447
G1 X114.246 Y101.959 E.1907
G1 X114.615 Y100.582 E.0447
G1 X115.951 Y98.267 E.08381
M204 S1000
G1 X116.278 Y98.456 F10800
M204 S800
G1 F1200
G1 X116.308 Y98.404 E.00188
G1 X117.178 Y97.534 E.03858
G1 X122.445 Y94.493 E.19069
G1 X123.633 Y94.174 E.03857
G1 X126.367 Y94.174 E.08572
G1 X127.555 Y94.493 E.03857
G1 X132.822 Y97.534 E.19069
G1 X133.692 Y98.404 E.03858
G1 X135.059 Y100.771 E.0857
G1 X135.377 Y101.959 E.03856
G1 X135.377 Y108.041 E.1907
G1 X135.059 Y109.229 E.03856
G1 X133.692 Y111.596 E.0857
G1 X132.822 Y112.466 E.03858
G1 X127.555 Y115.507 E.19069
G1 X126.367 Y115.826 E.03857
G1 X123.633 Y115.826 E.08572
G1 X122.445 Y115.507 E.03857
G1 X117.178 Y112.466 E.19069
G1 X116.308 Y111.596 E.03858
G1 X114.941 Y109.229 E.0857
M73 Q0 S23
G1 X114.623 Y108.041 E.03856
G1 X114.623 Y101.959 E.1907
G1 X114.941 Y100.771 E.03856
G1 X116.248 Y98.508 E.08194
M204 S1000
;WIPE_START
G1 F8640
G1 X116.308 Y98.404 E-.02772
G1 X117.178 Y97.534 E-.28409
G1 X119.009 Y96.477 E-.48819
;WIPE_END
G1 Z.6 F720
M73 Q1 S23
G1 X118.306 Y100.468 F10800
G1 Z.2 F720
G1 E.8 F2100
M204 S800
G1 F1200
M73 P1 R23
G1 X119.386 Y99.334 E.0491
G1 X123.127 Y97.213 E.13484
G1 X124.36 Y96.875 E.04009
G1 X125.648 Y96.876 E.04038
G1 X127.13 Y97.323 E.04853
G1 X130.618 Y99.337 E.12629
G1 X131.938 Y100.692 E.05931
G1 X132.446 Y101.722 E.03601
G1 X132.694 Y102.838 E.03584
G1 X132.714 Y106.965 E.1294
G1 X132.494 Y108.133 E.03727
G1 X132.013 Y109.198 E.03664
G1 X130.702 Y110.597 E.06011
G1 X126.975 Y112.744 E.13486
G1 X125.931 Y113.078 E.03437
G1 X124.864 Y113.172 E.03358
G1 X122.905 Y112.697 E.0632
G1 X119.387 Y110.666 E.12737
G1 X118.187 Y109.485 E.05279
G1 X117.586 Y108.361 E.03996
G1 X117.313 Y107.217 E.03688
G1 X117.286 Y103.037 E.13106
G1 X117.506 Y101.868 E.0373
G1 X117.987 Y100.802 E.03667
G1 X118.264 Y100.512 E.01257
M204 S1000
G1 X118.529 Y100.765 F10800
M204 S800
G1 F1200
G1 X119.596 Y99.648 E.04843
G1 X123.251 Y97.569 E.13184
G1 X124.386 Y97.252 E.03695
G1 X125.62 Y97.253 E.03869
G1 X126.96 Y97.66 E.04391
G1 X130.406 Y99.65 E.12477
G1 X131.645 Y100.931 E.05588
G1 X132.096 Y101.865 E.03252
G1 X132.321 Y102.898 E.03315
G1 X132.336 Y106.948 E.12699
G1 X132.141 Y107.998 E.03348
G1 X131.682 Y109.014 E.03496
G1 X130.447 Y110.318 E.05631
G1 X126.84 Y112.391 E.13044
G1 X125.877 Y112.704 E.03175
G1 X124.862 Y112.794 E.03195
G1 X123.07 Y112.357 E.05783
G1 X119.596 Y110.352 E.12576
G1 X118.474 Y109.238 E.04957
G1 X117.931 Y108.208 E.03651
G1 X117.685 Y107.152 E.034
G1 X117.664 Y103.053 E.12852
G1 X117.859 Y102.002 E.03352
G1 X118.318 Y100.987 E.03493
G1 X118.488 Y100.808 E.00774
M204 S1000
G1 X118.753 Y101.062 F10800
M204 S800
G1 F1200
G1 X119.807 Y99.962 E.04777
G1 X123.377 Y97.925 E.12887
G1 X124.415 Y97.629 E.03384
G1 X125.539 Y97.622 E.03524
G1 X126.791 Y97.998 E.04099
G1 X130.195 Y99.964 E.12325
G1 X131.319 Y101.123 E.05062
G1 X131.746 Y102.008 E.03081
G1 X131.948 Y102.957 E.03042
G1 X131.959 Y106.931 E.1246
G1 X131.775 Y107.905 E.03108
G1 X131.353 Y108.827 E.03179
G1 X130.194 Y110.037 E.05253
G1 X126.705 Y112.039 E.12613
G1 X125.781 Y112.339 E.03046
G1 X124.861 Y112.416 E.02895
G1 X123.235 Y112.017 E.05249
G1 X119.807 Y110.038 E.12411
G1 X118.762 Y108.993 E.04634
G1 X118.277 Y108.057 E.03305
G1 X118.057 Y107.09 E.03109
G1 X118.041 Y103.07 E.12605
G1 X118.225 Y102.095 E.03111
G1 X118.647 Y101.173 E.03179
G1 X118.711 Y101.106 E.00291
M204 S1000
G1 X118.976 Y101.36 F10800
M204 S800
G1 F1200
G1 X120.017 Y100.276 E.04712
G1 X123.503 Y98.282 E.12592
G1 X124.493 Y97.999 E.03228
G1 X125.511 Y97.999 E.03192
G1 X126.621 Y98.335 E.03636
G1 X129.983 Y100.277 E.12174
G1 X131.025 Y101.361 E.04714
G1 X131.395 Y102.147 E.02724
G1 X131.575 Y103.014 E.02776
G1 X131.582 Y106.913 E.12225
G1 X131.409 Y107.81 E.02864
G1 X131.024 Y108.64 E.02869
G1 X129.983 Y109.723 E.0471
G1 X126.568 Y111.687 E.12352
G1 X125.727 Y111.965 E.02777
G1 X124.861 Y112.037 E.02725
G1 X123.401 Y111.677 E.04715
G1 X120.017 Y109.724 E.12251
G1 X119.051 Y108.749 E.04303
G1 X118.625 Y107.909 E.02953
G1 X118.43 Y107.028 E.02829
G1 X118.418 Y103.087 E.12357
G1 X118.591 Y102.19 E.02864
G1 X118.951 Y101.414 E.02682
M204 S1000
G1 X119.291 Y101.575 F10800
M204 S800
G1 F1200
G1 X120.228 Y100.59 E.04263
G1 X123.631 Y98.637 E.12302
G1 X124.521 Y98.376 E.02908
G1 X125.482 Y98.376 E.03013
G1 X126.45 Y98.672 E.03174
G1 X129.772 Y100.59 E.12027
G1 X130.697 Y101.549 E.04178
G1 X131.044 Y102.287 E.02557
G1 X131.202 Y103.07 E.02505
G1 X131.205 Y106.895 E.11993
G1 X131.044 Y107.714 E.02617
G1 X130.697 Y108.451 E.02554
G1 X129.772 Y109.41 E.04178
G1 X126.429 Y111.336 E.12097
G1 X125.672 Y111.591 E.02505
G1 X124.86 Y111.659 E.02555
G1 X123.567 Y111.338 E.04177
G1 X120.227 Y109.41 E.12092
G1 X119.374 Y108.552 E.03793
G1 X118.972 Y107.76 E.02785
G1 X118.802 Y106.969 E.02537
G1 X118.795 Y103.105 E.12115
G1 X118.956 Y102.286 E.02617
G1 X119.266 Y101.629 E.02278
M204 S1000
G1 X119.607 Y101.79 F10800
M204 S800
G1 F1200
G1 X119.631 Y101.738 E.0018
G1 X120.439 Y100.904 E.03641
G1 X123.761 Y98.991 E.12019
G1 X124.552 Y98.753 E.0259
G1 X125.402 Y98.746 E.02665
G1 X126.281 Y99.01 E.02878
G1 X129.561 Y100.904 E.11876
G1 X130.369 Y101.738 E.03641
G1 X130.693 Y102.426 E.02384
G1 X130.828 Y103.123 E.02226
G1 X130.828 Y106.877 E.1177
G1 X130.693 Y107.574 E.02226
G1 X130.369 Y108.262 E.02384
G1 X129.561 Y109.096 E.03641
G1 X126.289 Y110.986 E.11848
G1 X125.617 Y111.217 E.02228
G1 X124.86 Y111.281 E.02382
G1 X123.733 Y110.998 E.03643
G1 X120.438 Y109.096 E.11929
G1 X119.664 Y108.31 E.03459
G1 X119.321 Y107.616 E.02427
G1 X119.176 Y106.912 E.02254
G1 X119.172 Y103.123 E.1188
G1 X119.307 Y102.426 E.02226
G1 X119.581 Y101.844 E.02017
M204 S1000
G1 X119.92 Y102.007 F10800
M204 S800
G1 F1200
G1 X119.957 Y101.93 E.00268
G1 X120.65 Y101.217 E.03118
G1 X123.891 Y99.346 E.11734
G1 X124.634 Y99.122 E.02433
G1 X125.373 Y99.123 E.02317
G1 X126.111 Y99.347 E.02418
G1 X129.35 Y101.217 E.11727
G1 X130.043 Y101.93 E.03118
G1 X130.328 Y102.524 E.02066
G1 X130.451 Y103.142 E.01976
G1 X130.451 Y106.858 E.11651
G1 X130.328 Y107.476 E.01976
M73 Q2 S23
G1 X130.043 Y108.07 E.02066
G1 X129.35 Y108.783 E.03118
G1 X126.117 Y110.65 E.11706
G1 X125.519 Y110.852 E.01979
M73 P2 R23
G1 X124.863 Y110.902 E.02063
G1 X123.899 Y110.659 E.03117
G1 X120.65 Y108.783 E.11763
G1 X119.957 Y108.07 E.03118
G1 X119.672 Y107.476 E.02066
G1 X119.549 Y106.858 E.01976
G1 X119.549 Y103.142 E.11651
G1 X119.672 Y102.524 E.01976
G1 X119.894 Y102.061 E.0161
M204 S1000
G1 X120.231 Y102.226 F10800
M204 S800
G1 F1200
G1 X120.282 Y102.124 E.00358
G1 X120.861 Y101.531 E.02599
G1 X124.061 Y99.683 E.11586
G1 X124.666 Y99.498 E.01984
G1 X125.294 Y99.492 E.01969
G1 X125.942 Y99.685 E.0212
G1 X129.139 Y101.531 E.11575
G1 X129.718 Y102.124 E.02599
G1 X129.964 Y102.624 E.01747
G1 X130.074 Y103.162 E.01722
G1 X130.074 Y106.838 E.11526
G1 X129.964 Y107.376 E.01722
G1 X129.718 Y107.876 E.01747
G1 X129.139 Y108.469 E.02599
G1 X125.945 Y110.313 E.11564
G1 X125.424 Y110.487 E.01722
G1 X124.868 Y110.524 E.01747
G1 X124.065 Y110.319 E.02599
G1 X120.861 Y108.469 E.116
G1 X120.282 Y107.876 E.02599
G1 X120.036 Y107.376 E.01747
G1 X119.926 Y106.838 E.01722
G1 X119.926 Y103.162 E.11526
G1 X120.036 Y102.624 E.01722
G1 X120.205 Y102.28 E.01202
M204 S1000
G1 X120.54 Y102.448 F10800
M204 S800
G1 F1200
G1 X120.605 Y102.32 E.0045
G1 X121.071 Y101.845 E.02086
G1 X124.23 Y100.021 E.11437
G1 X124.745 Y99.868 E.01684
G1 X125.264 Y99.869 E.01627
G1 X125.772 Y100.022 E.01663
G1 X128.929 Y101.845 E.1143
G1 X129.395 Y102.32 E.02086
G1 X129.6 Y102.728 E.01432
G1 X129.697 Y103.182 E.01456
G1 X129.697 Y106.818 E.114
G1 X129.6 Y107.272 E.01456
G1 X129.395 Y107.68 E.01432
G1 X128.929 Y108.155 E.02086
G1 X125.774 Y109.977 E.11423
G1 X125.332 Y110.12 E.01457
G1 X124.877 Y110.146 E.01429
G1 X124.232 Y109.98 E.02088
G1 X121.071 Y108.155 E.11444
G1 X120.605 Y107.68 E.02086
G1 X120.4 Y107.272 E.01432
G1 X120.303 Y106.818 E.01456
G1 X120.303 Y103.182 E.114
G1 X120.4 Y102.728 E.01456
G1 X120.513 Y102.502 E.00792
M204 S1000
G1 X120.845 Y102.674 F10800
M204 S800
G1 F1200
G1 X120.925 Y102.52 E.00544
G1 X121.282 Y102.159 E.01592
G1 X124.4 Y100.358 E.1129
G1 X124.778 Y100.244 E.01238
G1 X125.188 Y100.239 E.01286
G1 X125.604 Y100.361 E.01359
G1 X128.718 Y102.159 E.11274
G1 X129.075 Y102.52 E.01592
G1 X129.238 Y102.835 E.01112
G1 X129.32 Y103.204 E.01185
G1 X129.32 Y106.796 E.11262
G1 X129.238 Y107.165 E.01185
G1 X129.075 Y107.48 E.01112
G1 X128.718 Y107.841 E.01592
G1 X125.604 Y109.639 E.11274
G1 X125.244 Y109.753 E.01184
G1 X124.89 Y109.769 E.01111
G1 X124.399 Y109.641 E.01591
G1 X121.282 Y107.841 E.11286
G1 X120.925 Y107.48 E.01592
G1 X120.762 Y107.165 E.01112
G1 X120.68 Y106.796 E.01185
G1 X120.68 Y103.204 E.11262
G1 X120.762 Y102.835 E.01185
G1 X120.818 Y102.728 E.00379
M204 S1000
G1 X121.152 Y102.901 F10800
M204 S800
G1 F1200
G1 X121.247 Y102.719 E.00644
G1 X121.491 Y102.473 E.01086
G1 X124.568 Y100.697 E.11139
G1 X124.854 Y100.615 E.00933
G1 X125.157 Y100.616 E.0095
G1 X125.434 Y100.698 E.00906
G1 X128.509 Y102.473 E.11132
G1 X128.753 Y102.719 E.01086
G1 X128.892 Y102.986 E.00944
G1 X128.943 Y103.223 E.0076
G1 X128.943 Y106.777 E.11143
G1 X128.892 Y107.014 E.0076
G1 X128.753 Y107.281 E.00944
G1 X128.509 Y107.527 E.01086
G1 X125.432 Y109.303 E.11139
G1 X125.202 Y109.377 E.00758
G1 X124.902 Y109.391 E.00942
G1 X124.566 Y109.302 E.0109
G1 X121.491 Y107.527 E.11132
G1 X121.247 Y107.281 E.01086
G1 X121.108 Y107.014 E.00944
G1 X121.057 Y106.777 E.0076
G1 X121.057 Y103.223 E.11143
G1 X121.125 Y102.955 E.00867
M204 S1000
G1 X121.469 Y103.1 F10800
M204 S800
G1 F1200
G1 X121.563 Y102.925 E.00623
G1 X121.701 Y102.787 E.00612
G1 X124.733 Y101.037 E.10976
G1 X124.921 Y100.986 E.00611
G1 X125.12 Y100.991 E.00624
G1 X125.264 Y101.035 E.00472
G1 X128.299 Y102.787 E.10988
G1 X128.437 Y102.925 E.00612
G1 X128.531 Y103.1 E.00623
G1 X128.566 Y103.246 E.00471
G1 X128.566 Y106.754 E.10999
G1 X128.531 Y106.9 E.00471
G1 X128.437 Y107.075 E.00623
G1 X128.299 Y107.213 E.00612
G1 X125.264 Y108.965 E.10988
G1 X125.12 Y109.009 E.00472
G1 X124.921 Y109.014 E.00624
G1 X124.733 Y108.963 E.00611
G1 X121.701 Y107.213 E.10976
G1 X121.563 Y107.075 E.00612
G1 X121.469 Y106.9 E.00623
G1 X121.434 Y106.754 E.00471
G1 X121.434 Y103.246 E.10999
G1 X121.455 Y103.158 E.00284
M204 S1000
G1 X121.817 Y103.255 F10800
M204 S800
G1 F1200
G1 X121.911 Y103.102 E.00563
G1 X124.9 Y101.376 E.10822
G1 X124.948 Y101.363 E.00156
G1 X125.1 Y101.376 E.00478
G1 X128.089 Y103.102 E.10822
G1 X128.176 Y103.226 E.00475
G1 X128.189 Y103.274 E.00156
G1 X128.189 Y106.726 E.10824
G1 X128.176 Y106.774 E.00156
G1 X128.089 Y106.898 E.00475
G1 X125.1 Y108.624 E.10822
G1 X125.052 Y108.637 E.00156
G1 X124.9 Y108.624 E.00478
G1 X121.911 Y106.898 E.10822
G1 X121.876 Y106.863 E.00155
G1 X121.811 Y106.726 E.00475
G1 X121.811 Y103.314 E.10698
M204 S1000
; printing object knob-tightner-3.stl id:0 copy 0
G1 X122.31 Y103.447 F10800
M204 S800
;TYPE:External perimeter
;WIDTH:0.419999
G1 F1200
G1 X123.031 Y103.031 E.0261
;WIDTH:0.429082
G1 X124.279 Y102.31 E.04628
;WIDTH:0.419999
G1 X125 Y101.894 E.0261
G1 X125.538 Y102.205 E.01948
;WIDTH:0.441515
G1 X125.999 Y102.483 E.01784
;WIDTH:0.451883
G1 X127.256 Y103.196 E.04914
;WIDTH:0.419999
G1 X127.69 Y103.447 E.01572
G1 X127.69 Y103.664 E.0068
G1 X127.69 Y103.849 E.0058
;WIDTH:0.445377
G1 X127.687 Y104.933 E.03628
;WIDTH:0.426461
G1 X127.69 Y105.841 E.02896
;WIDTH:0.419999
G1 X127.69 Y106.553 E.02232
G1 X126.969 Y106.969 E.0261
;WIDTH:0.429083
G1 X125.721 Y107.69 E.04628
;WIDTH:0.419999
G1 X125 Y108.106 E.0261
G1 X124.462 Y107.795 E.01948
;WIDTH:0.441514
G1 X124.001 Y107.517 E.01784
;WIDTH:0.451884
G1 X122.744 Y106.804 E.04914
;WIDTH:0.419999
G1 X122.31 Y106.553 E.01572
G1 X122.31 Y106.052 E.01571
;WIDTH:0.427696
G1 X122.314 Y105.142 E.02912
;WIDTH:0.441516
G1 X122.31 Y104.069 E.03556
;WIDTH:0.419999
G1 X122.31 Y103.507 E.01762
M204 S1000
;WIPE_START
G1 F8640
G1 X123.031 Y103.031 E-.19949
G1 X124.279 Y102.31 E-.3328
G1 X125 Y101.894 E-.1922
G1 X125.283 Y102.058 E-.07551
;WIPE_END
G1 Z.6 F720
G1 X125.877 Y107.126 F10800
G1 Z.2 F720
G1 E.8 F2100
M204 S800
;WIDTH:0.432829
G1 F1200
G1 X125.482 Y107.251 E.01343
;WIDTH:0.419999
G1 X125.025 Y107.297 E.0144
G1 X124.584 Y107.264 E.01387
;WIDTH:0.441514
G1 X124.188 Y107.165 E.01353
G1 X123.747 Y106.936 E.01647
;WIDTH:0.445377
G1 X123.42 Y106.691 E.01367
G1 X123.013 Y106.147 E.02274
;WIDTH:0.447897
G1 X122.744 Y105.523 E.02288
;WIDTH:0.451882
G1 X122.733 Y105.485 E.00135
G1 X122.696 Y105.079 E.01386
;WIDTH:0.447992
G1 X122.722 Y104.581 E.0168
G1 X122.844 Y104.193 E.0137
;WIDTH:0.419999
G1 X123.067 Y103.749 E.01558
G1 X123.317 Y103.43 E.01271
;WIDTH:0.429084
G1 X123.691 Y103.101 E.01599
;WIDTH:0.432829
G1 X124.044 Y102.899 E.01319
G1 X124.518 Y102.749 E.01612
;WIDTH:0.419999
G1 X124.975 Y102.703 E.0144
G1 X125.416 Y102.736 E.01387
;WIDTH:0.441515
G1 X125.812 Y102.835 E.01353
G1 X126.253 Y103.064 E.01647
;WIDTH:0.445376
G1 X126.58 Y103.309 E.01367
G1 X126.987 Y103.853 E.02274
G1 X127.255 Y104.477 E.02273
G1 X127.304 Y104.921 E.01495
;WIDTH:0.441952
G1 X127.275 Y105.419 E.01655
G1 X127.156 Y105.807 E.01347
;WIDTH:0.419999
G1 X126.933 Y106.251 E.01558
G1 X126.683 Y106.57 E.01271
;WIDTH:0.429083
G1 X126.309 Y106.899 E.01599
;WIDTH:0.432829
G1 X125.934 Y107.108 E.01392
M204 S1000
;WIPE_START
G1 F8640
G1 X125.482 Y107.251 E-.10947
G1 X125.025 Y107.297 E-.10606
G1 X124.584 Y107.264 E-.10211
G1 X124.188 Y107.165 E-.09425
G1 X123.747 Y106.936 E-.11474
G1 X123.42 Y106.691 E-.09435
G1 X123.013 Y106.147 E-.15688
G1 X122.975 Y106.059 E-.02214
;WIPE_END
G1 Z.6 F720
G1 X122.71 Y106.295 F10800
G1 Z.2 F720
G1 E.8 F2100
M204 S800
;TYPE:Perimeter
;WIDTH:0.418978
G1 F1200
G1 X122.64 Y106.336 E.00254
G1 X122.71 Y106.376 E.00252
G1 X122.734 Y106.336 E.00146
M204 S1000
;WIPE_START
