; generated by PrusaSlicer 2.6.1+MacOS-arm64 on 2023-11-01 at 16:35:04 UTC


;
;
; 

; external perimeters extrusion width = 0.45mm
; perimeters extrusion width = 0.45mm
; infill extrusion width = 0.45mm
; solid infill extrusion width = 0.45mm
; top infill extrusion width = 0.40mm
; first layer extrusion width = 0.42mm

M73 P0 R34
M73 Q0 S34
M201 X1000 Y1000 Z200 E5000 ; sets maximum accelerations, mm/sec^2
M203 X200 Y200 Z12 E120 ; sets maximum feedrates, mm / sec
M204 S1250 T1250 ; sets acceleration (S) and retract acceleration (R), mm/sec^2
M205 X8.00 Y8.00 Z0.40 E4.50 ; sets the jerk limits, mm/sec
M205 S0 T0 ; sets the minimum extruding and travel feed rate, mm/sec
;TYPE:Custom
M862.3 P "MK3S" ; printer model check
M862.1 P0.4 ; nozzle diameter check
M115 U3.13.1 ; tell printer latest fw version
G90 ; use absolute coordinates
M83 ; extruder relative mode
M104 S215 ; set extruder temp
M140 S60 ; set bed temp
M190 S60 ; wait for bed temp
M109 S215 ; wait for extruder temp
G28 W ; home all without mesh bed level
G80 ; mesh bed leveling

G1 Z0.2 F720
G1 Y-3 F1000 ; go outside print area
G92 E0
G1 X60 E9 F1000 ; intro line
G1 X100 E12.5 F1000 ; intro line

G92 E0
M221 S95

; Don't change E values below. Excessive value can damage the printer.
M907 E430 ; set extruder motor current
G21 ; set units to millimeters
G90 ; use absolute coordinates
M83 ; use relative distances for extrusion
M900 K0.05 ; Filament gcode LA 1.5
M900 K30 ; Filament gcode LA 1.0

M107
;LAYER_CHANGE
;Z:0.2
;HEIGHT:0.2
;BEFORE_LAYER_CHANGE
G92 E0.0
;0.2


G1 E-.8 F2100
G1 Z.4 F720
;AFTER_LAYER_CHANGE
;0.2
G1 X105.544 Y94.737 F10800
G1 Z.2 F720
G1 E.8 F2100
M204 S800
;TYPE:Skirt/Brim
;WIDTH:0.42
G1 F1200
G1 X106.409 Y93.774 E.04059
G1 X108.284 Y92.24 E.07596
G1 X109.22 Y91.635 E.03494
G1 X110.714 Y90.854 E.05286
G1 X112.932 Y90.037 E.07411
G1 X115.255 Y89.566 E.07432
G1 X117.499 Y89.451 E.07045
G1 X119.801 Y89.671 E.07251
G1 X138.67 Y92.76 E.5995
G1 X139.92 Y93.115 E.04074
G1 X141.442 Y93.745 E.05165
G1 X142.855 Y94.563 E.05119
G1 X143.915 Y95.353 E.04145
G1 X144.771 Y96.137 E.0364
G1 X145.705 Y97.185 E.04402
G1 X146.383 Y98.12 E.03621
G1 X146.953 Y99.081 E.03503
G1 X147.437 Y100.094 E.0352
G1 X147.928 Y101.468 E.04575
G1 X148.209 Y102.621 E.03721
G1 X148.381 Y103.834 E.03841
G1 X148.433 Y105.233 E.04389
G1 X148.36 Y106.381 E.03607
G1 X148.158 Y107.626 E.03955
G1 X147.822 Y108.875 E.04055
G1 X147.363 Y110.079 E.0404
G1 X146.839 Y111.13 E.03682
G1 X146.297 Y112.01 E.03241
G1 X145.4 Y113.186 E.04637
G1 X144.001 Y114.576 E.06183
G1 X142.483 Y115.679 E.05883
G1 X140.793 Y116.554 E.05967
G1 X139.025 Y117.154 E.05854
G1 X137.87 Y117.397 E.03701
G1 X118.499 Y120.496 E.61509
G1 X117.02 Y120.553 E.04641
G1 X115.168 Y120.422 E.05821
G1 X113.804 Y120.185 E.04341
G1 X112.452 Y119.819 E.04392
G1 X110.762 Y119.169 E.05677
G1 X109.499 Y118.529 E.04439
G1 X108.3 Y117.773 E.04444
G1 X106.929 Y116.7 E.05459
G1 X105.966 Y115.785 E.04165
G1 X105.183 Y114.908 E.03686
G1 X103.827 Y112.988 E.0737
G1 X102.801 Y110.947 E.07162
G1 X102.068 Y108.708 E.07387
G1 X101.689 Y106.473 E.07108
G1 X101.649 Y104.041 E.07626
G1 X101.951 Y101.806 E.07071
G1 X102.612 Y99.532 E.07425
G1 X103.562 Y97.473 E.0711
G1 X104.853 Y95.507 E.07374
G1 X105.504 Y94.782 E.03055
M204 S1000
G1 X105.786 Y95.031 F10800
M204 S800
G1 F1200
G1 X106.584 Y94.128 E.03778
G1 X107.496 Y93.309 E.03843
G1 X108.475 Y92.566 E.03854
G1 X109.406 Y91.963 E.03478
G1 X110.876 Y91.194 E.05202
G1 X113.042 Y90.398 E.07235
G1 X115.302 Y89.94 E.0723
G1 X117.494 Y89.828 E.06882
G1 X119.74 Y90.043 E.07074
G1 X138.541 Y93.118 E.59732
G1 X139.793 Y93.469 E.04077
G1 X141.279 Y94.084 E.05043
G1 X142.65 Y94.879 E.04969
G1 X143.67 Y95.639 E.03988
G1 X144.502 Y96.401 E.03537
G1 X145.414 Y97.425 E.04299
G1 X146.619 Y99.255 E.0687
G1 X147.087 Y100.235 E.03405
G1 X147.567 Y101.576 E.04466
G1 X147.838 Y102.689 E.03592
G1 X148.005 Y103.863 E.03718
G1 X148.056 Y105.228 E.04283
G1 X147.985 Y106.344 E.03506
G1 X147.79 Y107.544 E.03812
G1 X147.462 Y108.761 E.03952
G1 X147.016 Y109.932 E.03929
G1 X146.509 Y110.948 E.0356
G1 X145.988 Y111.794 E.03115
G1 X145.109 Y112.946 E.04543
G1 X143.759 Y114.287 E.05966
G1 X142.286 Y115.357 E.05708
G1 X140.643 Y116.208 E.05802
G1 X138.925 Y116.791 E.05688
G1 X137.809 Y117.025 E.03575
G1 X118.554 Y120.112 E.61144
G1 X117.249 Y120.177 E.04097
G1 X115.796 Y120.113 E.0456
G1 X114.111 Y119.862 E.05341
G1 X112.827 Y119.542 E.04149
G1 X111.495 Y119.073 E.04428
G1 X109.923 Y118.331 E.0545
G1 X108.714 Y117.601 E.04428
G1 X107.627 Y116.797 E.04239
G1 X106.066 Y115.343 E.06689
G1 X104.59 Y113.483 E.07445
G1 X103.453 Y111.482 E.07216
G1 X102.832 Y109.96 E.05154
G1 X102.503 Y108.878 E.03546
G1 X102.07 Y106.49 E.07609
G1 X102.017 Y104.211 E.07148
G1 X102.308 Y101.942 E.07173
G1 X102.919 Y99.79 E.07014
G1 X103.867 Y97.702 E.0719
G1 X105.078 Y95.832 E.06985
G1 X105.747 Y95.076 E.03165
M204 S1000
;WIPE_START
G1 F8640
G1 X106.584 Y94.128 E-.29201
G1 X107.496 Y93.309 E-.28303
G1 X108.272 Y92.72 E-.22496
;WIPE_END
G1 Z.6 F720
G1 X107.731 Y96.789 F10800
G1 Z.2 F720
G1 E.8 F2100
M204 S800
G1 F1200
G1 X108.417 Y96.061 E.03136
G1 X109.13 Y95.414 E.03019
G1 X109.84 Y94.861 E.02822
G1 X110.599 Y94.354 E.02862
G1 X111.444 Y93.875 E.03046
G1 X112.205 Y93.515 E.0264
G1 X112.997 Y93.204 E.02668
G1 X113.913 Y92.92 E.03007
G1 X114.881 Y92.699 E.03113
M73 Q1 S34
G1 X115.885 Y92.554 E.03181
G1 X116.744 Y92.494 E.027
G1 X117.602 Y92.495 E.0269
G1 X118.578 Y92.566 E.03068
G1 X119.539 Y92.713 E.03048
M73 P1 R34
G1 X120.347 Y92.896 E.02598
G1 X121.146 Y93.134 E.02614
G1 X122.148 Y93.518 E.03365
G1 X123.047 Y93.952 E.0313
G1 X123.757 Y94.359 E.02566
G1 X124.433 Y94.809 E.02546
G1 X125.234 Y95.429 E.03176
G1 X125.995 Y96.126 E.03236
G1 X126.565 Y96.731 E.02606
G1 X127.112 Y97.398 E.02705
G1 X127.679 Y98.202 E.03085
G1 X128.308 Y99.268 E.03881
G1 X128.606 Y98.875 E.01546
G1 X129.17 Y98.259 E.02619
G1 X129.795 Y97.689 E.02652
G1 X130.476 Y97.172 E.02681
G1 X131.016 Y96.826 E.02011
G1 X131.569 Y96.521 E.0198
G1 X132.313 Y96.182 E.02564
G1 X133.145 Y95.89 E.02765
G1 X133.746 Y95.73 E.0195
G1 X134.348 Y95.612 E.01923
G1 X135.167 Y95.514 E.02586
G1 X135.987 Y95.488 E.02572
G1 X136.728 Y95.525 E.02326
G1 X137.329 Y95.598 E.01898
G1 X137.929 Y95.71 E.01914
G1 X138.753 Y95.931 E.02675
G1 X139.55 Y96.222 E.0266
G1 X140.194 Y96.52 E.02225
G1 X140.74 Y96.821 E.01955
G1 X141.257 Y97.151 E.01923
G1 X141.941 Y97.666 E.02685
G1 X142.577 Y98.242 E.0269
G1 X143.062 Y98.759 E.02223
G1 X143.454 Y99.241 E.01948
G1 X143.811 Y99.743 E.01931
G1 X144.239 Y100.454 E.02602
G1 X144.598 Y101.187 E.02559
G1 X144.878 Y101.904 E.02413
G1 X145.058 Y102.49 E.01922
G1 X145.203 Y103.094 E.01948
G1 X145.336 Y103.937 E.02676
G1 X145.393 Y104.785 E.02665
G1 X145.383 Y105.496 E.0223
G1 X145.332 Y106.1 E.01901
G1 X145.242 Y106.7 E.01902
G1 X145.03 Y107.609 E.02927
G1 X144.734 Y108.484 E.02896
G1 X144.335 Y109.361 E.03021
G1 X143.852 Y110.195 E.03022
G1 X143.259 Y111.003 E.03142
G1 X142.598 Y111.738 E.03099
G1 X141.922 Y112.35 E.02859
G1 X141.19 Y112.894 E.0286
G1 X140.346 Y113.401 E.03087
G1 X139.482 Y113.806 E.02992
G1 X138.613 Y114.113 E.0289
G1 X137.65 Y114.346 E.03107
G1 X136.765 Y114.473 E.02803
G1 X135.885 Y114.514 E.02762
G1 X134.897 Y114.462 E.03102
G1 X133.907 Y114.306 E.03142
G1 X133.114 Y114.102 E.02567
G1 X132.357 Y113.837 E.02515
G1 X131.46 Y113.423 E.03098
G1 X130.635 Y112.934 E.03007
G1 X129.94 Y112.43 E.02692
G1 X129.283 Y111.853 E.02742
G1 X128.64 Y111.168 E.02946
G1 X128.299 Y110.724 E.01755
G1 X127.905 Y111.435 E.02549
G1 X127.457 Y112.129 E.0259
G1 X126.856 Y112.926 E.0313
G1 X126.234 Y113.628 E.02941
G1 X125.613 Y114.239 E.02732
G1 X124.908 Y114.836 E.02897
G1 X124.156 Y115.384 E.02917
G1 X123.257 Y115.934 E.03304
G1 X122.531 Y116.308 E.02561
G1 X121.775 Y116.636 E.02584
G1 X120.776 Y116.983 E.03316
G1 X119.831 Y117.227 E.0306
G1 X119.03 Y117.375 E.02554
G1 X118.175 Y117.472 E.02698
G1 X117.075 Y117.513 E.03451
G1 X116.109 Y117.467 E.03032
G1 X115.305 Y117.373 E.02538
G1 X114.503 Y117.224 E.02558
G1 X113.51 Y116.965 E.03218
G1 X112.545 Y116.625 E.03208
G1 X111.827 Y116.314 E.02453
G1 X111.128 Y115.955 E.02464
G1 X110.19 Y115.383 E.03445
G1 X109.361 Y114.775 E.03223
G1 X108.757 Y114.26 E.02489
G1 X108.192 Y113.711 E.0247
G1 X107.512 Y112.952 E.03195
G1 X106.882 Y112.117 E.0328
G1 X106.428 Y111.412 E.02629
G1 X106.022 Y110.673 E.02644
G1 X105.605 Y109.77 E.03119
G1 X105.26 Y108.826 E.03151
G1 X105.024 Y107.994 E.02712
G1 X104.848 Y107.154 E.02691
G1 X104.712 Y106.133 E.0323
G1 X104.661 Y105.107 E.03221
G1 X104.681 Y104.272 E.02619
G1 X104.759 Y103.43 E.02651
G1 X104.926 Y102.434 E.03166
G1 X105.171 Y101.462 E.03143
G1 X105.424 Y100.696 E.02529
G1 X105.722 Y99.954 E.02507
G1 X106.164 Y99.053 E.03147
G1 X106.678 Y98.186 E.0316
G1 X107.162 Y97.493 E.0265
G1 X107.694 Y96.836 E.02651
M204 S1000
G1 X107.986 Y97.073 F10800
M204 S800
G1 F1200
G1 X108.686 Y96.325 E.03212
G1 X109.378 Y95.699 E.02926
G1 X110.056 Y95.17 E.02696
G1 X110.791 Y94.678 E.02773
G1 X111.612 Y94.213 E.02958
G1 X112.36 Y93.859 E.02595
G1 X113.128 Y93.558 E.02586
G1 X114.017 Y93.282 E.02919
G1 X114.957 Y93.068 E.03023
G1 X115.932 Y92.929 E.03088
G1 X116.751 Y92.871 E.02574
G1 X117.581 Y92.871 E.02602
G1 X118.528 Y92.94 E.02977
G1 X119.475 Y93.085 E.03004
G1 X120.257 Y93.262 E.02514
G1 X121.031 Y93.494 E.02533
G1 X121.991 Y93.861 E.03222
G1 X122.877 Y94.288 E.03084
G1 X123.564 Y94.683 E.02485
G1 X124.207 Y95.111 E.02422
G1 X124.997 Y95.722 E.03131
G1 X125.725 Y96.39 E.03098
G1 X126.278 Y96.976 E.02526
G1 X126.808 Y97.621 E.02618
G1 X127.366 Y98.413 E.03038
G1 X127.872 Y99.272 E.03126
G1 X128.231 Y99.998 E.02539
G1 X128.89 Y99.123 E.03435
G1 X129.443 Y98.52 E.02565
G1 X130.043 Y97.974 E.02544
G1 X130.698 Y97.477 E.02578
G1 X131.204 Y97.153 E.01884
G1 X131.733 Y96.861 E.01895
G1 X132.446 Y96.535 E.02458
G1 X133.25 Y96.252 E.02672
G1 X133.825 Y96.099 E.01866
G1 X134.4 Y95.985 E.01838
G1 X135.187 Y95.891 E.02485
G1 X135.977 Y95.865 E.02478
G1 X136.69 Y95.9 E.02238
G1 X137.278 Y95.971 E.01857
G1 X137.853 Y96.079 E.01834
G1 X138.631 Y96.288 E.02526
G1 X139.399 Y96.568 E.02563
G1 X140.019 Y96.854 E.02141
G1 X140.542 Y97.142 E.01872
G1 X141.048 Y97.465 E.01882
G1 X141.707 Y97.962 E.02588
G1 X142.308 Y98.505 E.0254
G1 X142.774 Y99.003 E.02138
G1 X143.151 Y99.465 E.0187
G1 X143.499 Y99.956 E.01887
G1 X143.904 Y100.628 E.0246
G1 X144.249 Y101.331 E.02455
G1 X144.52 Y102.022 E.02327
G1 X144.693 Y102.584 E.01844
G1 X144.831 Y103.16 E.01857
G1 X144.96 Y103.971 E.02575
G1 X145.016 Y104.787 E.02565
M73 P1 R33
G1 X145.007 Y105.471 E.02145
G1 X144.958 Y106.051 E.01825
G1 X144.873 Y106.622 E.0181
G1 X144.67 Y107.497 E.02816
G1 X144.387 Y108.337 E.02779
G1 X144.004 Y109.181 E.02906
G1 X143.542 Y109.981 E.02897
G1 X142.972 Y110.758 E.03021
G1 X142.324 Y111.479 E.03039
G1 X141.676 Y112.064 E.02737
G1 X140.987 Y112.576 E.02691
G1 X140.16 Y113.072 E.03024
G1 X139.348 Y113.454 E.02814
G1 X138.515 Y113.749 E.02771
G1 X137.57 Y113.978 E.03049
G1 X136.738 Y114.096 E.02635
G1 X135.895 Y114.137 E.02646
G1 X134.946 Y114.088 E.02979
G1 X133.991 Y113.938 E.03031
G1 X133.231 Y113.743 E.0246
G1 X132.506 Y113.491 E.02407
G1 X131.643 Y113.093 E.0298
G1 X130.835 Y112.614 E.02945
G1 X130.169 Y112.13 E.02581
G1 X129.552 Y111.588 E.02575
G1 X128.922 Y110.917 E.02886
G1 X128.222 Y110 E.03617
G1 X127.978 Y110.523 E.0181
G1 X127.585 Y111.236 E.02553
G1 X127.151 Y111.908 E.02508
G1 X126.56 Y112.693 E.03081
G1 X125.957 Y113.373 E.0285
G1 X125.364 Y113.956 E.02607
G1 X124.67 Y114.544 E.02852
G1 X123.94 Y115.075 E.0283
G1 X123.078 Y115.602 E.03168
G1 X122.375 Y115.965 E.02481
G1 X121.644 Y116.282 E.02498
G1 X120.674 Y116.62 E.03221
G1 X119.744 Y116.86 E.03011
G1 X118.968 Y117.003 E.02474
G1 X118.154 Y117.096 E.02569
G1 X117.085 Y117.136 E.03354
G1 X116.146 Y117.092 E.02947
G1 X115.368 Y117.001 E.02456
G1 X114.591 Y116.857 E.02478
G1 X113.627 Y116.606 E.03123
G1 X112.689 Y116.277 E.03117
G1 X111.994 Y115.975 E.02376
G1 X111.306 Y115.622 E.02425
G1 X110.407 Y115.074 E.03301
G1 X109.6 Y114.484 E.03134
G1 X109.015 Y113.985 E.02411
G1 X108.459 Y113.445 E.0243
G1 X107.798 Y112.707 E.03106
G1 X107.187 Y111.896 E.03184
G1 X106.748 Y111.213 E.02546
G1 X106.361 Y110.509 E.02519
G1 X105.951 Y109.62 E.0307
G1 X105.616 Y108.703 E.03061
G1 X105.391 Y107.91 E.02585
G1 X105.221 Y107.097 E.02604
G1 X105.088 Y106.106 E.03135
G1 X105.038 Y105.109 E.0313
G1 X105.058 Y104.3 E.02537
G1 X105.132 Y103.485 E.02566
G1 X105.294 Y102.518 E.03074
G1 X105.531 Y101.574 E.03052
G1 X105.776 Y100.831 E.02453
G1 X106.07 Y100.102 E.02465
G1 X106.499 Y99.226 E.03058
G1 X106.999 Y98.384 E.0307
G1 X107.468 Y97.714 E.02564
G1 X107.949 Y97.119 E.02399
M204 S1000
G1 X108.242 Y97.356 F10800
M204 S800
G1 F1200
G1 X108.955 Y96.59 E.03281
G1 X109.626 Y95.983 E.02837
G1 X110.271 Y95.48 E.02565
G1 X110.983 Y95.003 E.02687
G1 X111.78 Y94.551 E.02873
G1 X112.504 Y94.208 E.02512
G1 X113.26 Y93.912 E.02546
G1 X114.122 Y93.644 E.0283
G1 X115.033 Y93.438 E.02928
G1 X115.978 Y93.303 E.02993
G1 X116.771 Y93.248 E.02492
G1 X117.561 Y93.248 E.02477
G1 X118.493 Y93.315 E.0293
G1 X119.411 Y93.456 E.02912
G1 X120.167 Y93.629 E.02432
G1 X120.917 Y93.853 E.02454
G1 X121.835 Y94.204 E.03082
G1 X122.707 Y94.625 E.03036
G1 X123.36 Y95 E.02361
G1 X123.982 Y95.413 E.02341
G1 X124.748 Y96.006 E.03037
G1 X125.465 Y96.663 E.03049
G1 X125.999 Y97.23 E.02442
G1 X126.504 Y97.844 E.02493
G1 X127.053 Y98.624 E.02991
G1 X127.544 Y99.457 E.03032
G1 X127.884 Y100.147 E.02412
G1 X128.173 Y100.842 E.0236
G1 X128.591 Y100.147 E.02543
G1 X129.175 Y99.37 E.03048
G1 X129.703 Y98.792 E.02455
G1 X130.277 Y98.269 E.02435
G1 X130.92 Y97.782 E.02529
G1 X131.402 Y97.474 E.01793
G1 X131.896 Y97.201 E.0177
G1 X132.58 Y96.888 E.02359
G1 X133.354 Y96.614 E.02574
G1 X133.916 Y96.465 E.01823
G1 X134.466 Y96.357 E.01757
G1 X135.224 Y96.266 E.02394
G1 X135.966 Y96.242 E.02328
G1 X136.651 Y96.275 E.0215
G1 X137.215 Y96.343 E.01781
G1 X137.776 Y96.449 E.0179
G1 X138.526 Y96.65 E.02435
G1 X139.248 Y96.914 E.0241
G1 X139.843 Y97.188 E.02054
G1 X140.355 Y97.469 E.01831
G1 X140.838 Y97.779 E.01799
G1 X141.461 Y98.247 E.02443
G1 X142.038 Y98.769 E.0244
G1 X142.486 Y99.246 E.02052
G1 X142.854 Y99.698 E.01828
G1 X143.188 Y100.168 E.01808
G1 X143.569 Y100.801 E.02317
G1 X143.901 Y101.476 E.02359
G1 X144.161 Y102.14 E.02236
G1 X144.328 Y102.678 E.01766
G1 X144.463 Y103.241 E.01815
G1 X144.585 Y104.006 E.02429
G1 X144.639 Y104.79 E.02464
G1 X144.63 Y105.446 E.02057
G1 X144.584 Y106.002 E.01749
G1 X144.501 Y106.559 E.01766
G1 X144.31 Y107.386 E.02661
G1 X144.039 Y108.19 E.0266
G1 X143.672 Y109.001 E.02791
G1 X143.231 Y109.766 E.02769
G1 X142.685 Y110.513 E.02901
G1 X142.063 Y111.206 E.0292
G1 X141.444 Y111.767 E.02619
G1 X140.77 Y112.267 E.02631
G1 X139.975 Y112.744 E.02907
G1 X139.213 Y113.102 E.0264
G1 X138.416 Y113.385 E.02652
G1 X137.507 Y113.606 E.02933
G1 X136.694 Y113.722 E.02575
G1 X135.887 Y113.76 E.02533
G1 X134.975 Y113.712 E.02863
G1 X134.076 Y113.571 E.02853
G1 X133.332 Y113.38 E.02408
G1 X132.64 Y113.138 E.02299
G1 X131.81 Y112.755 E.02866
G1 X131.049 Y112.304 E.02774
G1 X130.411 Y111.841 E.02472
G1 X129.807 Y111.311 E.0252
G1 X129.204 Y110.666 E.02768
G1 X128.646 Y109.934 E.02886
G1 X128.182 Y109.188 E.02755
G1 X127.645 Y110.347 E.04005
G1 X127.264 Y111.037 E.02471
G1 X126.846 Y111.687 E.02423
G1 X126.263 Y112.46 E.03036
G1 X125.679 Y113.118 E.02759
G1 X125.105 Y113.682 E.02523
G1 X124.442 Y114.244 E.02725
G1 X123.737 Y114.757 E.02734
G1 X122.887 Y115.276 E.03123
G1 X122.208 Y115.627 E.02397
G1 X121.501 Y115.933 E.02415
G1 X120.572 Y116.257 E.03085
G1 X119.656 Y116.493 E.02966
G1 X118.907 Y116.631 E.02388
G1 X118.132 Y116.719 E.02446
G1 X117.094 Y116.759 E.03257
G1 X116.183 Y116.717 E.02859
G1 X115.43 Y116.629 E.02377
G1 X114.679 Y116.49 E.02395
G1 X113.744 Y116.248 E.03028
G1 X112.832 Y115.928 E.0303
G1 X112.15 Y115.632 E.02331
G1 X111.484 Y115.29 E.02347
G1 X110.61 Y114.757 E.0321
G1 X109.84 Y114.192 E.02994
G1 X109.265 Y113.702 E.02369
G1 X108.726 Y113.179 E.02355
G1 X108.085 Y112.461 E.03018
G1 X107.492 Y111.674 E.0309
