; generated by PrusaSlicer 2.4.1+arm64 on 2023-03-07 at 22:29:13 UTC


;
;
; 

; external perimeters extrusion width = 0.45mm
; perimeters extrusion width = 0.45mm
; infill extrusion width = 0.45mm
; solid infill extrusion width = 0.45mm
; top infill extrusion width = 0.40mm
; first layer extrusion width = 0.42mm

M73 P0 R14
M73 Q0 S14
M201 X1000 Y1000 Z200 E5000 ; sets maximum accelerations, mm/sec^2
M203 X200 Y200 Z12 E120 ; sets maximum feedrates, mm / sec
M204 P1250 R1250 T1250 ; sets acceleration (P, T) and retract acceleration (R), mm/sec^2
M205 X8.00 Y8.00 Z0.40 E4.50 ; sets the jerk limits, mm/sec
M205 S0 T0 ; sets the minimum extruding and travel feed rate, mm/sec
M107
;TYPE:Custom
M862.3 P "MK3S" ; printer model check
M862.1 P0.4 ; nozzle diameter check
M115 U3.11.0 ; tell printer latest fw version
G90 ; use absolute coordinates
M83 ; extruder relative mode
M104 S210 ; set extruder temp
M140 S60 ; set bed temp
M190 S60 ; wait for bed temp
M109 S210 ; wait for extruder temp
G28 W ; home all without mesh bed level
G80 ; mesh bed leveling

G1 Z0.2 F720
G1 Y-3 F1000 ; go outside print area
G92 E0
G1 X60 E9 F1000 ; intro line
G1 X100 E12.5 F1000 ; intro line

G92 E0
M221 S95

; Don't change E values below. Excessive value can damage the printer.

G21 ; set units to millimeters
G90 ; use absolute coordinates
M83 ; use relative distances for extrusion
; Filament gcode
M107
;LAYER_CHANGE
;Z:0.35
;HEIGHT:0.35
;BEFORE_LAYER_CHANGE
G92 E0.0
;0.35


G1 Z.35 F1200
;AFTER_LAYER_CHANGE
;0.35
G1 E-5 F2700
G1 Z.55 F1200
G1 X102.753 Y83.601 F9000
G1 Z.35 F1200
G1 E5 F2700
;TYPE:Skirt/Brim
;WIDTH:0.42
G1 F1800
G1 X103.816 Y82.61 E.07293
G1 X105.05 Y82.31 E.06374
G1 X144.95 Y82.31 E2.00242
G1 X146.349 Y82.703 E.07293
M73 P1 R14
M73 Q1 S14
G1 X147.34 Y83.766 E.07293
G1 X147.64 Y85 E.06374
G1 X147.64 Y125 E2.00744
G1 X147.247 Y126.399 E.07293
G1 X146.184 Y127.39 E.07293
G1 X144.95 Y127.69 E.06374
G1 X105.05 Y127.69 E2.00242
G1 X103.651 Y127.297 E.07293
G1 X102.66 Y126.234 E.07293
G1 X102.36 Y125 E.06374
G1 X102.36 Y85 E2.00744
G1 X102.737 Y83.659 E.06992
G1 X103.079 Y83.762 F9000
G1 F1800
G1 X103.097 Y83.703 E.00309
G1 X104.14 Y82.839 E.068
G1 X105.05 Y82.655 E.04658
G1 X144.95 Y82.655 E2.00242
G1 X146.247 Y83.047 E.068
G1 X147.111 Y84.09 E.068
G1 X147.295 Y85 E.04658
G1 X147.295 Y125 E2.00744
G1 X146.903 Y126.297 E.068
G1 X145.86 Y127.161 E.068
G1 X144.95 Y127.345 E.04658
G1 X105.05 Y127.345 E2.00242
G1 X103.753 Y126.953 E.068
M73 P2 R14
M73 Q2 S14
G1 X102.889 Y125.91 E.068
G1 X102.705 Y125 E.04658
G1 X102.705 Y85 E2.00744
G1 X103.061 Y83.819 E.06189
;WIPE_START
G1 F7200
G1 X103.097 Y83.703 E-.04334
G1 X104.14 Y82.839 E-.4827
G1 X105.05 Y82.655 E-.33062
G1 X115.979 Y82.655 E-3.89333
;WIPE_END
G1 E-.25 F2700
G1 Z.55 F1200
G1 X105.95 Y85.9 F9000
G1 Z.35 F1200
G1 E5 F2700
;TYPE:Perimeter
G1 F1800
G1 X144.05 Y85.9 E1.91211
G1 X144.05 Y124.1 E1.91712
G1 X105.95 Y124.1 E1.91211
G1 X105.95 Y85.96 E1.91411
G1 X105.605 Y85.555 F9000
M73 P2 R13
G1 F1800
G1 X144.395 Y85.555 E1.94672
G1 X144.395 Y124.445 E1.95174
M73 P3 R13
M73 Q3 S13
G1 X105.605 Y124.445 E1.94672
G1 X105.605 Y85.615 E1.94873
G1 X105.26 Y85.21 F9000
;TYPE:External perimeter
G1 F1800
G1 X144.74 Y85.21 E1.98134
G1 X144.74 Y124.79 E1.98636
G1 X105.26 Y124.79 E1.98134
G1 X105.26 Y85.27 E1.98335
M73 Q4 S13
G1 X105.646 Y85.314 F9000
;WIPE_START
M73 P4 R13
G1 F7200
G1 X118.593 Y85.25 E-4.75
;WIPE_END
G1 E-.25 F2700
G1 Z.55 F1200
G1 X143.246 Y86.003 F9000
G1 Z.35 F1200
G1 E5 F2700
;TYPE:Solid infill
;WIDTH:0.42162
G1 F1800
G1 X143.792 Y86.549 E.03889
G1 X143.792 Y87.039 E.02471
G1 X142.911 Y86.158 E.06277
G1 X142.421 Y86.158 E.02471
G1 X143.792 Y87.529 E.09771
G1 X143.792 Y88.019 E.02471
G1 X141.931 Y86.158 E.13266
G1 X141.441 Y86.158 E.02471
G1 X143.792 Y88.509 E.1676
G1 X143.792 Y88.999 E.02471
G1 X140.951 Y86.158 E.20254
G1 X140.461 Y86.158 E.02471
G1 X143.792 Y89.489 E.23749
G1 X143.792 Y89.979 E.02471
G1 X139.971 Y86.158 E.27243
G1 X139.481 Y86.158 E.02471
G1 X143.792 Y90.469 E.30737
G1 X143.792 Y90.959 E.02471
G1 X138.991 Y86.158 E.34231
G1 X138.501 Y86.158 E.02471
G1 X143.792 Y91.449 E.37726
G1 X143.792 Y91.939 E.02471
G1 X138.011 Y86.158 E.4122
G1 X137.521 Y86.158 E.02471
G1 X143.792 Y92.429 E.44714
G1 X143.792 Y92.919 E.02471
G1 X137.031 Y86.158 E.48209
G1 X136.541 Y86.158 E.02471
G1 X143.792 Y93.409 E.51703
G1 X143.792 Y93.899 E.02471
G1 X136.051 Y86.158 E.55197
G1 X135.561 Y86.158 E.02471
G1 X143.792 Y94.389 E.58692
G1 X143.792 Y94.879 E.02471
G1 X135.071 Y86.158 E.62186
G1 X134.581 Y86.158 E.02471
G1 X143.792 Y95.369 E.6568
G1 X143.792 Y95.859 E.02471
G1 X134.091 Y86.158 E.69175
G1 X133.601 Y86.158 E.02471
G1 X143.792 Y96.349 E.72669
G1 X143.792 Y96.839 E.02471
G1 X133.111 Y86.158 E.76163
G1 X132.62 Y86.158 E.02471
M73 P5 R13
M73 Q5 S13
G1 X143.792 Y97.329 E.79657
G1 X143.792 Y97.82 E.02471
G1 X132.13 Y86.158 E.83152
G1 X131.64 Y86.158 E.02471
G1 X143.792 Y98.31 E.86646
G1 X143.792 Y98.8 E.02471
G1 X131.15 Y86.158 E.9014
G1 X130.66 Y86.158 E.02471
G1 X143.792 Y99.29 E.93635
G1 X143.792 Y99.78 E.02471
G1 X130.17 Y86.158 E.97129
G1 X129.68 Y86.158 E.02471
G1 X143.792 Y100.27 E1.00623
G1 X143.792 Y100.76 E.02471
G1 X129.19 Y86.158 E1.04118
G1 X128.7 Y86.158 E.02471
G1 X143.792 Y101.25 E1.07612
G1 X143.792 Y101.74 E.02471
G1 X128.21 Y86.158 E1.11106
G1 X127.72 Y86.158 E.02471
G1 X143.792 Y102.23 E1.14601
G1 X143.792 Y102.72 E.02471
G1 X127.23 Y86.158 E1.18095
G1 X126.74 Y86.158 E.02471
G1 X143.792 Y103.21 E1.21589
G1 X143.792 Y103.7 E.02471
M73 P6 R13
M73 Q6 S13
G1 X126.25 Y86.158 E1.25083
G1 X125.76 Y86.158 E.02471
G1 X143.792 Y104.19 E1.28578
G1 X143.792 Y104.68 E.02471
G1 X125.27 Y86.158 E1.32072
G1 X124.78 Y86.158 E.02471
G1 X143.792 Y105.17 E1.35566
G1 X143.792 Y105.66 E.02471
G1 X124.29 Y86.158 E1.39061
G1 X123.8 Y86.158 E.02471
G1 X143.792 Y106.15 E1.42555
G1 X143.792 Y106.64 E.02471
G1 X123.31 Y86.158 E1.46049
G1 X122.82 Y86.158 E.02471
G1 X143.792 Y107.13 E1.49544
G1 X143.792 Y107.62 E.02471
G1 X122.33 Y86.158 E1.53038
G1 X121.84 Y86.158 E.02471
M73 P7 R13
M73 Q7 S13
G1 X143.792 Y108.11 E1.56532
G1 X143.792 Y108.6 E.02471
G1 X121.35 Y86.158 E1.60027
G1 X120.86 Y86.158 E.02471
G1 X143.792 Y109.09 E1.63521
G1 X143.792 Y109.58 E.02471
G1 X120.37 Y86.158 E1.67015
G1 X119.88 Y86.158 E.02471
G1 X143.792 Y110.07 E1.70509
G1 X143.792 Y110.561 E.02471
G1 X119.389 Y86.158 E1.74004
G1 X118.899 Y86.158 E.02471
G1 X143.792 Y111.051 E1.77498
G1 X143.792 Y111.541 E.02471
M73 Q8 S13
G1 X118.409 Y86.158 E1.80992
G1 X117.919 Y86.158 E.02471
M73 P8 R13
G1 X143.792 Y112.031 E1.84487
G1 X143.792 Y112.521 E.02471
G1 X117.429 Y86.158 E1.87981
G1 X116.939 Y86.158 E.02471
G1 X143.792 Y113.011 E1.91475
G1 X143.792 Y113.501 E.02471
G1 X116.449 Y86.158 E1.9497
G1 X115.959 Y86.158 E.02471
G1 X143.792 Y113.991 E1.98464
G1 X143.792 Y114.481 E.02471
G1 X115.469 Y86.158 E2.01958
G1 X114.979 Y86.158 E.02471
M73 P9 R13
M73 Q9 S13
G1 X143.792 Y114.971 E2.05452
G1 X143.792 Y115.461 E.02471
G1 X114.489 Y86.158 E2.08947
G1 X113.999 Y86.158 E.02471
G1 X143.792 Y115.951 E2.12441
G1 X143.792 Y116.441 E.02471
G1 X113.509 Y86.158 E2.15935
G1 X113.019 Y86.158 E.02471
G1 X143.792 Y116.931 E2.1943
G1 X143.792 Y117.421 E.02471
M73 P9 R12
G1 X112.529 Y86.158 E2.22924
G1 X112.039 Y86.158 E.02471
M73 P10 R12
M73 Q10 S12
G1 X143.792 Y117.911 E2.26418
G1 X143.792 Y118.401 E.02471
G1 X111.549 Y86.158 E2.29913
G1 X111.059 Y86.158 E.02471
G1 X143.792 Y118.891 E2.33407
G1 X143.792 Y119.381 E.02471
G1 X110.569 Y86.158 E2.36901
G1 X110.079 Y86.158 E.02471
G1 X143.792 Y119.871 E2.40396
G1 X143.792 Y120.361 E.02471
G1 X109.589 Y86.158 E2.4389
G1 X109.099 Y86.158 E.02471
M73 P11 R12
M73 Q11 S12
G1 X143.792 Y120.851 E2.47384
G1 X143.792 Y121.341 E.02471
G1 X108.609 Y86.158 E2.50878
G1 X108.119 Y86.158 E.02471
G1 X143.792 Y121.831 E2.54373
G1 X143.792 Y122.321 E.02471
G1 X107.629 Y86.158 E2.57867
G1 X107.139 Y86.158 E.02471
G1 X143.792 Y122.811 E2.61361
G1 X143.792 Y123.301 E.02471
M73 P12 R12
M73 Q12 S12
G1 X106.649 Y86.158 E2.64856
G1 X106.208 Y86.158 E.02219
G1 X106.208 Y86.208 E.00252
G1 X143.792 Y123.792 E2.67994
G1 X143.792 Y123.842 E.00252
G1 X143.352 Y123.842 E.02219
G1 X106.208 Y86.698 E2.64856
G1 X106.208 Y87.188 E.02471
G1 X142.862 Y123.842 E2.61362
G1 X142.371 Y123.842 E.02471
G1 X106.208 Y87.679 E2.57868
M73 Q13 S12
G1 X106.208 Y88.169 E.02471
M73 P13 R12
G1 X141.881 Y123.842 E2.54373
G1 X141.391 Y123.842 E.02471
G1 X106.208 Y88.659 E2.50879
G1 X106.208 Y89.149 E.02471
G1 X140.901 Y123.842 E2.47385
G1 X140.411 Y123.842 E.02471
G1 X106.208 Y89.639 E2.4389
G1 X106.208 Y90.129 E.02471
G1 X139.921 Y123.842 E2.40396
G1 X139.431 Y123.842 E.02471
M73 P14 R12
M73 Q14 S12
G1 X106.208 Y90.619 E2.36902
G1 X106.208 Y91.109 E.02471
G1 X138.941 Y123.842 E2.33407
G1 X138.451 Y123.842 E.02471
G1 X106.208 Y91.599 E2.29913
G1 X106.208 Y92.089 E.02471
G1 X137.961 Y123.842 E2.26419
G1 X137.471 Y123.842 E.02471
G1 X106.208 Y92.579 E2.22925
G1 X106.208 Y93.069 E.02471
M73 P15 R12
M73 Q15 S12
G1 X136.981 Y123.842 E2.1943
G1 X136.491 Y123.842 E.02471
G1 X106.208 Y93.559 E2.15936
G1 X106.208 Y94.049 E.02471
G1 X136.001 Y123.842 E2.12442
G1 X135.511 Y123.842 E.02471
G1 X106.208 Y94.539 E2.08947
G1 X106.208 Y95.029 E.02471
G1 X135.021 Y123.842 E2.05453
G1 X134.531 Y123.842 E.02471
G1 X106.208 Y95.519 E2.01959
G1 X106.208 Y96.009 E.02471
M73 P16 R12
M73 Q16 S12
G1 X134.041 Y123.842 E1.98464
G1 X133.551 Y123.842 E.02471
G1 X106.208 Y96.499 E1.9497
G1 X106.208 Y96.989 E.02471
G1 X133.061 Y123.842 E1.91476
G1 X132.571 Y123.842 E.02471
G1 X106.208 Y97.479 E1.87981
G1 X106.208 Y97.969 E.02471
G1 X132.081 Y123.842 E1.84487
G1 X131.591 Y123.842 E.02471
M73 P16 R11
G1 X106.208 Y98.459 E1.80993
G1 X106.208 Y98.949 E.02471
M73 Q16 S11
G1 X131.101 Y123.842 E1.77499
G1 X130.611 Y123.842 E.02471
M73 P17 R11
M73 Q17 S11
G1 X106.208 Y99.439 E1.74004
G1 X106.208 Y99.929 E.02471
G1 X130.121 Y123.842 E1.7051
G1 X129.631 Y123.842 E.02471
G1 X106.208 Y100.419 E1.67016
G1 X106.208 Y100.91 E.02471
G1 X129.14 Y123.842 E1.63521
G1 X128.65 Y123.842 E.02471
G1 X106.208 Y101.4 E1.60027
G1 X106.208 Y101.89 E.02471
G1 X128.16 Y123.842 E1.56533
G1 X127.67 Y123.842 E.02471
G1 X106.208 Y102.38 E1.53038
G1 X106.208 Y102.87 E.02471
M73 P18 R11
M73 Q18 S11
G1 X127.18 Y123.842 E1.49544
G1 X126.69 Y123.842 E.02471
G1 X106.208 Y103.36 E1.4605
G1 X106.208 Y103.85 E.02471
G1 X126.2 Y123.842 E1.42555
G1 X125.71 Y123.842 E.02471
G1 X106.208 Y104.34 E1.39061
G1 X106.208 Y104.83 E.02471
G1 X125.22 Y123.842 E1.35567
G1 X124.73 Y123.842 E.02471
G1 X106.208 Y105.32 E1.32073
G1 X106.208 Y105.81 E.02471
G1 X124.24 Y123.842 E1.28578
G1 X123.75 Y123.842 E.02471
G1 X106.208 Y106.3 E1.25084
G1 X106.208 Y106.79 E.02471
G1 X123.26 Y123.842 E1.2159
G1 X122.77 Y123.842 E.02471
G1 X106.208 Y107.28 E1.18095
G1 X106.208 Y107.77 E.02471
M73 P19 R11
M73 Q19 S11
G1 X122.28 Y123.842 E1.14601
G1 X121.79 Y123.842 E.02471
G1 X106.208 Y108.26 E1.11107
G1 X106.208 Y108.75 E.02471
G1 X121.3 Y123.842 E1.07612
G1 X120.81 Y123.842 E.02471
G1 X106.208 Y109.24 E1.04118
G1 X106.208 Y109.73 E.02471
G1 X120.32 Y123.842 E1.00624
G1 X119.83 Y123.842 E.02471
G1 X106.208 Y110.22 E.97129
G1 X106.208 Y110.71 E.02471
G1 X119.34 Y123.842 E.93635
G1 X118.85 Y123.842 E.02471
G1 X106.208 Y111.2 E.90141
G1 X106.208 Y111.69 E.02471
G1 X118.36 Y123.842 E.86647
G1 X117.87 Y123.842 E.02471
G1 X106.208 Y112.18 E.83152
G1 X106.208 Y112.67 E.02471
G1 X117.38 Y123.842 E.79658
G1 X116.89 Y123.842 E.02471
G1 X106.208 Y113.16 E.76164
G1 X106.208 Y113.651 E.02471
M73 P20 R11
M73 Q20 S11
G1 X116.399 Y123.842 E.72669
G1 X115.909 Y123.842 E.02471
G1 X106.208 Y114.141 E.69175
G1 X106.208 Y114.631 E.02471
G1 X115.419 Y123.842 E.65681
G1 X114.929 Y123.842 E.02471
G1 X106.208 Y115.121 E.62186
G1 X106.208 Y115.611 E.02471
G1 X114.439 Y123.842 E.58692
G1 X113.949 Y123.842 E.02471
G1 X106.208 Y116.101 E.55198
G1 X106.208 Y116.591 E.02471
G1 X113.459 Y123.842 E.51703
G1 X112.969 Y123.842 E.02471
G1 X106.208 Y117.081 E.48209
G1 X106.208 Y117.571 E.02471
G1 X112.479 Y123.842 E.44715
G1 X111.989 Y123.842 E.02471
G1 X106.208 Y118.061 E.41221
G1 X106.208 Y118.551 E.02471
G1 X111.499 Y123.842 E.37726
G1 X111.009 Y123.842 E.02471
G1 X106.208 Y119.041 E.34232
G1 X106.208 Y119.531 E.02471
G1 X110.519 Y123.842 E.30738
G1 X110.029 Y123.842 E.02471
G1 X106.208 Y120.021 E.27243
G1 X106.208 Y120.511 E.02471
G1 X109.539 Y123.842 E.23749
G1 X109.049 Y123.842 E.02471
G1 X106.208 Y121.001 E.20255
G1 X106.208 Y121.491 E.02471
G1 X108.559 Y123.842 E.1676
G1 X108.069 Y123.842 E.02471
G1 X106.208 Y121.981 E.13266
G1 X106.208 Y122.471 E.02471
G1 X107.579 Y123.842 E.09772
G1 X107.089 Y123.842 E.02471
G1 X106.208 Y122.961 E.06277
G1 X106.208 Y123.451 E.02471
G1 X106.754 Y123.997 E.0389
;LAYER_CHANGE
;Z:0.65
;HEIGHT:0.3
;BEFORE_LAYER_CHANGE
G92 E0.0
;0.65


G1 Z.65 F1200
;AFTER_LAYER_CHANGE
;0.65
G1 E-5 F2700
G1 Z.85 F1200
G1 X106.046 Y85.996 F9000
G1 Z.65 F1200
G1 E5 F2700
;TYPE:Perimeter
;WIDTH:0.45
G1 F3600
G1 X143.954 Y85.996 E1.82322
G1 X143.954 Y124.004 E1.82803
G1 X106.046 Y124.004 E1.82322
G1 X106.046 Y86.056 E1.82515
M73 P21 R11
M73 Q21 S11
G1 X105.661 Y85.611 F9000
G1 F3600
G1 X144.339 Y85.611 E1.86032
G1 X144.339 Y124.389 E1.86513
G1 X105.661 Y124.389 E1.86032
G1 X105.661 Y85.671 E1.86224
G1 X105.275 Y85.225 F9000
;TYPE:External perimeter
G1 F1800
G1 X144.725 Y85.225 E1.89741
G1 X144.725 Y124.775 E1.90222
G1 X105.275 Y124.775 E1.89741
G1 X105.275 Y85.285 E1.89933
G1 X105.661 Y85.329 F9000
;WIPE_START
M73 P22 R11
M73 Q22 S11
G1 F7200
G1 X118.608 Y85.265 E-4.75
;WIPE_END
G1 E-.25 F2700
G1 Z.85 F1200
G1 X143.056 Y123.888 F9000
G1 Z.65 F1200
G1 E5 F2700
;TYPE:Solid infill
;WIDTH:0.451391
G1 F3000
G1 X143.665 Y123.279 E.04157
G1 X143.665 Y122.732 E.02642
G1 X142.682 Y123.715 E.06709
G1 X142.135 Y123.715 E.02642
G1 X143.665 Y122.185 E.10445
G1 X143.665 Y121.637 E.02642
G1 X141.587 Y123.715 E.14181
G1 X141.04 Y123.715 E.02642
G1 X143.665 Y121.09 E.17917
G1 X143.665 Y120.543 E.02642
G1 X140.493 Y123.715 E.21653
G1 X139.945 Y123.715 E.02642
G1 X143.665 Y119.995 E.2539
G1 X143.665 Y119.448 E.02642
G1 X139.398 Y123.715 E.29126
G1 X138.851 Y123.715 E.02642
G1 X143.665 Y118.901 E.32862
G1 X143.665 Y118.353 E.02642
G1 X138.303 Y123.715 E.36598
G1 X137.756 Y123.715 E.02642
G1 X143.665 Y117.806 E.40334
G1 X143.665 Y117.259 E.02642
G1 X137.209 Y123.715 E.44071
G1 X136.661 Y123.715 E.02642
G1 X143.665 Y116.711 E.47807
G1 X143.665 Y116.164 E.02642
G1 X136.114 Y123.715 E.51543
G1 X135.567 Y123.715 E.02642
G1 X143.665 Y115.617 E.55279
G1 X143.665 Y115.069 E.02642
G1 X135.019 Y123.715 E.59015
G1 X134.472 Y123.715 E.02642
G1 X143.665 Y114.522 E.62752
G1 X143.665 Y113.975 E.02642
G1 X133.925 Y123.715 E.66488
G1 X133.377 Y123.715 E.02642
G1 X143.665 Y113.427 E.70224
G1 X143.665 Y112.88 E.02642
G1 X132.83 Y123.715 E.7396
G1 X132.283 Y123.715 E.02642
G1 X143.665 Y112.333 E.77696
G1 X143.665 Y111.786 E.02642
G1 X131.736 Y123.715 E.81433
G1 X131.188 Y123.715 E.02642
G1 X143.665 Y111.238 E.85169
G1 X143.665 Y110.691 E.02642
G1 X130.641 Y123.715 E.88905
G1 X130.094 Y123.715 E.02642
G1 X143.665 Y110.144 E.92641
G1 X143.665 Y109.596 E.02642
G1 X129.546 Y123.715 E.96377
G1 X128.999 Y123.715 E.02642
G1 X143.665 Y109.049 E1.00113
G1 X143.665 Y108.502 E.02642
M73 P23 R11
M73 Q23 S11
G1 X128.452 Y123.715 E1.0385
G1 X127.904 Y123.715 E.02642
G1 X143.665 Y107.954 E1.07586
G1 X143.665 Y107.407 E.02642
G1 X127.357 Y123.715 E1.11322
G1 X126.81 Y123.715 E.02642
G1 X143.665 Y106.86 E1.15058
G1 X143.665 Y106.312 E.02642
G1 X126.262 Y123.715 E1.18794
G1 X125.715 Y123.715 E.02642
G1 X143.665 Y105.765 E1.22531
G1 X143.665 Y105.218 E.02642
G1 X125.168 Y123.715 E1.26267
G1 X124.62 Y123.715 E.02642
G1 X143.665 Y104.67 E1.30003
G1 X143.665 Y104.123 E.02642
G1 X124.073 Y123.715 E1.33739
G1 X123.526 Y123.715 E.02642
G1 X143.665 Y103.576 E1.37475
G1 X143.665 Y103.028 E.02642
M73 P23 R10
G1 X122.978 Y123.715 E1.41212
G1 X122.431 Y123.715 E.02642
G1 X143.665 Y102.481 E1.44948
G1 X143.665 Y101.934 E.02642
G1 X121.884 Y123.715 E1.48684
G1 X121.337 Y123.715 E.02642
M73 Q23 S10
