; generated by PrusaSlicer 2.6.1+MacOS-arm64 on 2023-11-01 at 15:33:09 UTC


;
;
; 

; external perimeters extrusion width = 0.45mm
; perimeters extrusion width = 0.45mm
; infill extrusion width = 0.45mm
; solid infill extrusion width = 0.45mm
; top infill extrusion width = 0.40mm
; first layer extrusion width = 0.42mm

; external perimeters extrusion width = 0.45mm
; perimeters extrusion width = 0.45mm
; infill extrusion width = 0.45mm
; solid infill extrusion width = 0.45mm
; top infill extrusion width = 0.40mm
; first layer extrusion width = 0.42mm

M73 P0 R18
M73 Q0 S18
M201 X1000 Y1000 Z200 E5000 ; sets maximum accelerations, mm/sec^2
M203 X200 Y200 Z12 E120 ; sets maximum feedrates, mm / sec
M204 S1250 T1250 ; sets acceleration (S) and retract acceleration (R), mm/sec^2
M205 X8.00 Y8.00 Z0.40 E4.50 ; sets the jerk limits, mm/sec
M205 S0 T0 ; sets the minimum extruding and travel feed rate, mm/sec
;TYPE:Custom
M862.3 P "MK3S" ; printer model check
M862.1 P0.4 ; nozzle diameter check
M115 U3.13.1 ; tell printer latest fw version
G90 ; use absolute coordinates
M83 ; extruder relative mode
M104 S215 ; set extruder temp
M140 S60 ; set bed temp
M190 S60 ; wait for bed temp
M109 S215 ; wait for extruder temp
G28 W ; home all without mesh bed level
G80 ; mesh bed leveling

G1 Z0.2 F720
G1 Y-3 F1000 ; go outside print area
G92 E0
G1 X60 E9 F1000 ; intro line
G1 X100 E12.5 F1000 ; intro line

G92 E0
M221 S95

; Don't change E values below. Excessive value can damage the printer.
M907 E430 ; set extruder motor current
G21 ; set units to millimeters
G90 ; use absolute coordinates
M83 ; use relative distances for extrusion
M900 K0.05 ; Filament gcode LA 1.5
M900 K30 ; Filament gcode LA 1.0

M107
;LAYER_CHANGE
;Z:0.2
;HEIGHT:0.2
;BEFORE_LAYER_CHANGE
G92 E0.0
;0.2


M73 P0 R17
G1 E-.8 F2100
G1 Z.4 F720
;AFTER_LAYER_CHANGE
;0.2
G1 X93.72 Y93.904 F10800
G1 Z.2 F720
G1 E.8 F2100
M204 S800
;TYPE:Skirt/Brim
;WIDTH:0.42
G1 F1200
G1 X94.952 Y92.851 E.05082
G1 X96.53 Y91.965 E.05674
G1 X97.88 Y91.509 E.04468
G1 X99.644 Y91.254 E.05588
G1 X120.248 Y91.25 E.64602
G1 X121.857 Y91.446 E.05082
G1 X123.017 Y91.783 E.03787
G1 X124.286 Y92.367 E.0438
G1 X125.62 Y93.288 E.05083
G1 X126.616 Y94.267 E.04379
G1 X127.56 Y95.585 E.05083
G1 X128.166 Y96.844 E.04381
G1 X128.608 Y98.403 E.05081
G1 X128.752 Y99.793 E.04382
G1 X128.698 Y100.999 E.03785
G1 X128.364 Y102.585 E.05082
G1 X127.846 Y103.883 E.04382
G1 X126.996 Y105.263 E.05082
G1 X126.069 Y106.309 E.04382
G1 X124.802 Y107.319 E.0508
G1 X123.576 Y107.99 E.04382
G1 X121.857 Y108.554 E.05672
G1 X120.248 Y108.75 E.05082
G1 X100.105 Y108.753 E.63157
G1 X98.852 Y108.677 E.03936
M73 P1 R17
M73 Q1 S18
G1 X97.853 Y108.485 E.0319
G1 X96.705 Y108.109 E.03788
G1 X95.62 Y107.578 E.03787
G1 X94.619 Y106.902 E.03787
G1 X94.016 Y106.386 E.02488
G1 X93.193 Y105.501 E.03789
G1 X92.501 Y104.512 E.03785
G1 X91.951 Y103.436 E.03789
G1 X91.456 Y101.893 E.05081
G1 X91.249 Y100.095 E.05675
G1 X91.417 Y98.293 E.05675
G1 X91.798 Y96.949 E.0438
G1 X92.601 Y95.327 E.05675
G1 X93.683 Y93.952 E.05486
M204 S1000
G1 X93.977 Y94.183 F10800
M204 S800
G1 F1200
G1 X95.311 Y93.06 E.05467
G1 X96.839 Y92.244 E.05431
G1 X98.34 Y91.79 E.04917
G1 X99.65 Y91.631 E.04138
G1 X120.228 Y91.627 E.64521
G1 X121.379 Y91.738 E.03626
M73 Q1 S17
G1 X122.895 Y92.14 E.04918
G1 X124.093 Y92.691 E.04134
G1 X125.384 Y93.582 E.04918
G1 X126.325 Y94.507 E.04137
G1 X127.239 Y95.783 E.04921
G1 X127.811 Y96.971 E.04134
G1 X128.239 Y98.481 E.04921
G1 X128.375 Y99.793 E.04136
G1 X128.267 Y101.358 E.04919
G1 X127.951 Y102.639 E.04137
G1 X127.32 Y104.075 E.04918
G1 X126.589 Y105.173 E.04136
G1 X125.509 Y106.311 E.04919
G1 X124.45 Y107.097 E.04135
G1 X123.049 Y107.802 E.04918
G1 X121.786 Y108.184 E.04137
G1 X120.105 Y108.376 E.05305
G1 X100.105 Y108.376 E.62709
G1 X98.911 Y108.305 E.0375
G1 X97.937 Y108.117 E.0311
G1 X96.839 Y107.756 E.03624
G1 X95.801 Y107.247 E.03625
G1 X94.844 Y106.6 E.03622
G1 X94.28 Y106.117 E.02328
G1 X93.492 Y105.271 E.03625
G1 X92.829 Y104.325 E.03622
G1 X92.302 Y103.296 E.03625
G1 X91.822 Y101.803 E.04917
G1 X91.626 Y100.082 E.05431
G1 X91.788 Y98.358 E.05429
G1 X92.302 Y96.704 E.05431
G1 X92.93 Y95.512 E.04224
G1 X93.94 Y94.23 E.05117
M204 S1000
; printing object grabber-end.stl id:1 copy 0
;WIPE_START
G1 F8640
G1 X95.311 Y93.06 E-.41617
G1 X96.777 Y92.277 E-.38383
;WIPE_END
G1 Z.6 F720
G1 X118.439 Y95.044 F10800
G1 Z.2 F720
G1 E.8 F2100
M204 S800
;TYPE:Perimeter
;WIDTH:0.419999
G1 F1200
G1 X118.805 Y94.939 E.01194
G1 X119.352 Y94.842 E.01742
G1 X120.082 Y94.788 E.02295
G1 X120.808 Y94.851 E.02285
G1 X121.509 Y95.011 E.02254
G1 X122.095 Y95.233 E.01965
G1 X122.609 Y95.5 E.01816
G1 X123.065 Y95.799 E.0171
G1 X123.587 Y96.234 E.0213
G1 X124.036 Y96.718 E.0207
G1 X124.43 Y97.27 E.02126
G1 X124.743 Y97.853 E.02075
G1 X124.986 Y98.497 E.02158
G1 X125.145 Y99.197 E.02251
G1 X125.207 Y99.912 E.0225
G1 X125.185 Y100.539 E.01967
G1 X125.062 Y101.247 E.02253
G1 X124.842 Y101.932 E.02256
G1 X124.53 Y102.58 E.02255
G1 X124.132 Y103.178 E.02252
G1 X123.655 Y103.717 E.02257
G1 X123.108 Y104.184 E.02255
G1 X122.503 Y104.572 E.02254
G1 X121.85 Y104.873 E.02254
G1 X121.161 Y105.081 E.02257
G1 X120.451 Y105.192 E.02253
G1 X119.732 Y105.204 E.02255
G1 X119.018 Y105.118 E.02255
G1 X118.323 Y104.934 E.02254
G1 X117.66 Y104.656 E.02254
G1 X117.041 Y104.289 E.02256
G1 X116.479 Y103.841 E.02253
G1 X115.984 Y103.319 E.02256
G1 X115.565 Y102.734 E.02256
G1 X115.231 Y102.098 E.02252
G1 X114.988 Y101.421 E.02255
G1 X114.84 Y100.717 E.02256
G1 X114.79 Y100 E.02254
G1 X114.84 Y99.283 E.02254
G1 X114.988 Y98.579 E.02256
G1 X115.231 Y97.902 E.02255
G1 X115.565 Y97.266 E.02252
G1 X115.984 Y96.681 E.02256
G1 X116.479 Y96.159 E.02256
G1 X117.041 Y95.711 E.02253
G1 X117.66 Y95.344 E.02256
G1 X118.237 Y95.102 E.01962
G1 X118.381 Y95.061 E.00469
M204 S1000
G1 X118.328 Y94.675 F10800
M204 S800
;TYPE:External perimeter
G1 F1200
G1 X118.708 Y94.574 E.01233
G1 X119.307 Y94.467 E.01908
G1 X120.095 Y94.411 E.02477
G1 X120.867 Y94.478 E.0243
G1 X121.619 Y94.65 E.02419
G1 X122.34 Y94.923 E.02417
G1 X123.016 Y95.293 E.02416
G1 X123.635 Y95.753 E.02418
G1 X124.186 Y96.294 E.02421
G1 X124.656 Y96.905 E.02417
G1 X125.038 Y97.575 E.02418
G1 X125.276 Y98.172 E.02015
G1 X125.411 Y98.647 E.01548
G1 X125.52 Y99.158 E.01638
G1 X125.584 Y99.925 E.02413
G1 X125.561 Y100.578 E.02049
G1 X125.429 Y101.338 E.02419
G1 X125.193 Y102.072 E.02417
G1 X124.858 Y102.767 E.02419
G1 X124.431 Y103.409 E.02418
G1 X123.92 Y103.986 E.02417
G1 X123.334 Y104.488 E.02419
G1 X122.684 Y104.904 E.0242
G1 X121.984 Y105.226 E.02416
G1 X121.246 Y105.449 E.02417
G1 X120.484 Y105.569 E.02419
G1 X119.712 Y105.582 E.02421
G1 X118.947 Y105.489 E.02416
G1 X118.201 Y105.291 E.0242
G1 X117.49 Y104.993 E.02417
G1 X116.827 Y104.6 E.02417
G1 X116.224 Y104.119 E.02418
G1 X115.693 Y103.56 E.02417
G1 X115.244 Y102.933 E.02418
G1 X114.885 Y102.25 E.02419
G1 X114.624 Y101.524 E.02419
G1 X114.466 Y100.769 E.02419
G1 X114.412 Y100 E.02417
G1 X114.466 Y99.231 E.02417
G1 X114.624 Y98.476 E.02419
G1 X114.885 Y97.75 E.02419
G1 X115.244 Y97.067 E.02419
G1 X115.693 Y96.44 E.02418
G1 X116.224 Y95.881 E.02417
G1 X116.827 Y95.4 E.02418
G1 X117.49 Y95.007 E.02417
G1 X118.27 Y94.69 E.0264
M204 S1000
G1 X118.623 Y94.936 F10800
;WIPE_START
G1 F8640
G1 X118.708 Y94.574 E-.10462
G1 X119.307 Y94.467 E-.1405
G1 X120.095 Y94.411 E-.18241
G1 X120.867 Y94.478 E-.17893
G1 X121.619 Y94.65 E-.17812
G1 X121.681 Y94.674 E-.01542
;WIPE_END
G1 Z.6 F720
G1 X120.643 Y97.557 F10800
G1 Z.2 F720
G1 E.8 F2100
M204 S800
;TYPE:Perimeter
G1 F1200
G1 X120.717 Y97.569 E.00235
G1 X121.299 Y97.823 E.01991
G1 X121.8 Y98.214 E.01993
G1 X122.136 Y98.647 E.01718
G1 X122.256 Y98.842 E.00718
G1 X122.461 Y99.374 E.01788
G1 X122.535 Y99.929 E.01756
G1 X122.473 Y100.561 E.01991
G1 X122.256 Y101.158 E.01992
G1 X121.897 Y101.682 E.01992
G1 X121.453 Y102.073 E.01855
G1 X121.293 Y102.18 E.00604
G1 X120.812 Y102.399 E.01657
G1 X120.229 Y102.524 E.01869
G1 X119.597 Y102.501 E.01983
G1 X118.987 Y102.322 E.01993
G1 X118.524 Y102.049 E.01685
G1 X118.333 Y101.907 E.00746
G1 X117.947 Y101.488 E.01786
G1 X117.668 Y100.989 E.01793
M73 Q2 S17
G1 X117.498 Y100.388 E.01958
G1 X117.48 Y99.753 E.01992
G1 X117.621 Y99.133 E.01994
G1 X117.884 Y98.617 E.01816
G1 X117.999 Y98.449 E.00638
G1 X118.365 Y98.068 E.01656
G1 X118.861 Y97.737 E.0187
G1 X119.458 Y97.525 E.01986
M73 P2 R17
G1 X120.09 Y97.467 E.0199
G1 X120.584 Y97.547 E.01569
M204 S1000
G1 X120.57 Y97.926 F10800
M204 S800
;TYPE:External perimeter
G1 F1200
G1 X120.646 Y97.939 E.00242
G1 X121.139 Y98.164 E.01699
G1 X121.559 Y98.505 E.01696
G1 X121.882 Y98.939 E.01696
G1 X122.087 Y99.44 E.01697
G1 X122.161 Y99.976 E.01697
G1 X122.099 Y100.514 E.01698
G1 X121.905 Y101.019 E.01696
G1 X121.592 Y101.461 E.01698
G1 X121.179 Y101.81 E.01695
G1 X120.661 Y102.053 E.01794
G1 X120.16 Y102.153 E.01602
G1 X119.62 Y102.125 E.01695
G1 X119.104 Y101.964 E.01695
G1 X118.644 Y101.679 E.01697
G1 X118.27 Y101.289 E.01694
G1 X118.001 Y100.814 E.01712
G1 X117.863 Y100.294 E.01687
G1 X117.857 Y99.753 E.01696
G1 X117.986 Y99.227 E.01698
G1 X118.241 Y98.75 E.01696
G1 X118.626 Y98.341 E.01761
G1 X119.062 Y98.056 E.01633
G1 X119.574 Y97.884 E.01694
G1 X120.114 Y97.844 E.01698
G1 X120.511 Y97.915 E.01265
M204 S1000
G1 X120.618 Y97.865 F10800
;WIPE_START
G1 F8640
G1 X120.646 Y97.939 E-.03166
G1 X121.139 Y98.164 E-.12513
G1 X121.559 Y98.505 E-.12492
G1 X121.882 Y98.939 E-.12492
G1 X122.087 Y99.44 E-.12499
G1 X122.161 Y99.976 E-.12494
G1 X122.099 Y100.514 E-.12505
G1 X122.07 Y100.588 E-.01839
;WIPE_END
G1 Z.6 F720
G1 X124.36 Y97.49 F10800
G1 Z.2 F720
G1 E.8 F2100
M204 S800
;TYPE:Solid infill
;WIDTH:0.431633
G1 F1200
G1 X123.169 Y96.299 E.05444
G1 X122.629 Y95.898 E.02174
G1 X122.039 Y95.575 E.02174
G1 X121.808 Y95.488 E.00798
G1 X124.513 Y98.192 E.12362
G1 X124.64 Y98.511 E.0111
G1 X124.757 Y98.986 E.01581
G1 X121.018 Y95.247 E.17091
G1 X120.756 Y95.187 E.00869
G1 X120.375 Y95.155 E.01236
G1 X124.849 Y99.628 E.20448
G1 X124.87 Y99.832 E.00663
G1 X124.858 Y100.187 E.01148
G1 X119.805 Y95.133 E.23099
G1 X119.31 Y95.189 E.0161
G1 X124.814 Y100.693 E.25159
G1 X124.732 Y101.161 E.01536
G1 X122.746 Y99.175 E.09078
G1 X122.568 Y98.709 E.01612
G1 X122.467 Y98.525 E.00678
G1 X122.078 Y98.007 E.02094
G1 X121.55 Y97.574 E.02207
G1 X120.989 Y97.302 E.02015
G1 X120.818 Y97.247 E.00581
G1 X118.85 Y95.278 E.08998
G1 X118.417 Y95.395 E.0145
G1 X120.155 Y97.133 E.07944
G1 X119.633 Y97.161 E.0169
G1 X118.03 Y95.557 E.0733
G1 X117.813 Y95.648 E.00761
G1 X117.661 Y95.738 E.00571
G1 X119.184 Y97.262 E.06964
G1 X118.775 Y97.402 E.01397
G1 X117.316 Y95.943 E.06669
G1 X117.001 Y96.178 E.0127
G1 X118.435 Y97.612 E.06555
G1 X118.208 Y97.752 E.00862
G1 X118.117 Y97.844 E.00418
G1 X116.697 Y96.423 E.06493
G1 X116.429 Y96.705 E.01257
G1 X117.845 Y98.121 E.06472
G1 X117.742 Y98.227 E.00478
G1 X117.601 Y98.427 E.00791
G1 X116.173 Y96.999 E.06527
G1 X115.944 Y97.32 E.01274
G1 X117.407 Y98.783 E.06687
G1 X117.353 Y98.882 E.00364
G1 X117.258 Y99.184 E.01023
G1 X115.739 Y97.665 E.06943
G1 X115.55 Y98.025 E.01314
G1 X117.149 Y99.624 E.07309
G1 X117.142 Y100.167 E.01755
G1 X115.27 Y98.295 E.08557
M204 S1000
;WIPE_START
G1 F8640
G1 X117.142 Y100.167 E-.61129
G1 X117.149 Y99.624 E-.12539
G1 X116.955 Y99.43 E-.06332
;WIPE_END
G1 Z.6 F720
G1 X122.662 Y99.64 F10800
G1 Z.2 F720
G1 E.8 F2100
M204 S800
G1 F1200
G1 X124.594 Y101.572 E.08831
G1 X124.445 Y101.973 E.01383
G1 X122.836 Y100.364 E.07355
G1 X122.793 Y100.7 E.01095
G1 X122.746 Y100.824 E.00429
G1 X124.267 Y102.344 E.0695
G1 X124.234 Y102.411 E.00241
G1 X124.055 Y102.682 E.0105
G1 X122.595 Y101.222 E.06674
G1 X122.486 Y101.448 E.00811
G1 X122.395 Y101.572 E.00497
G1 X123.83 Y103.007 E.06559
G1 X123.572 Y103.299 E.01259
G1 X122.162 Y101.889 E.06445
G1 X122.115 Y101.953 E.00257
G1 X121.879 Y102.155 E.01004
G1 X123.299 Y103.575 E.06491
G1 X123.002 Y103.828 E.01261
G1 X121.575 Y102.401 E.06523
G1 X121.446 Y102.483 E.00494
G1 X121.211 Y102.587 E.00831
G1 X122.68 Y104.056 E.06715
G1 X122.345 Y104.27 E.01285
G1 X120.828 Y102.753 E.06934
G1 X120.361 Y102.836 E.01533
G1 X121.969 Y104.444 E.0735
G1 X121.729 Y104.555 E.00855
G1 X121.576 Y104.601 E.00516
G1 X119.644 Y102.669 E.08831
M204 S1000
;WIPE_START
G1 F8640
G1 X121.576 Y104.601 E-.63089
G1 X121.729 Y104.555 E-.03689
G1 X121.969 Y104.444 E-.06106
G1 X121.751 Y104.226 E-.07116
;WIPE_END
G1 Z.6 F720
G1 X121.29 Y104.865 F10800
G1 Z.2 F720
G1 E.8 F2100
M204 S800
G1 F1200
G1 X119.156 Y102.731 E.09754
G1 X118.875 Y102.643 E.00952
G1 X118.705 Y102.566 E.00603
G1 X118.177 Y102.226 E.0203
G1 X117.671 Y101.688 E.02387
G1 X117.364 Y101.141 E.02027
G1 X117.263 Y100.837 E.01035
G1 X115.277 Y98.852 E.09076
G1 X115.182 Y99.306 E.01499
G1 X120.687 Y104.812 E.25165
G1 X120.422 Y104.853 E.00867
G1 X120.183 Y104.857 E.00773
G1 X115.143 Y99.817 E.23038
G1 X115.131 Y100 E.00593
G1 X115.157 Y100.381 E.01234
G1 X119.626 Y104.85 E.20428
G1 X118.984 Y104.758 E.02096
G1 X115.251 Y101.025 E.17063
G1 X115.315 Y101.328 E.01001
G1 X115.489 Y101.813 E.01665
G1 X118.184 Y104.507 E.12316
G1 X117.813 Y104.352 E.013
G1 X117.235 Y104.009 E.02172
G1 X116.748 Y103.621 E.02013
G1 X115.642 Y102.515 E.05055
M204 S1000
; stop printing object grabber-end.stl id:1 copy 0
; printing object grabber-end.stl id:0 copy 0
;WIPE_START
G1 F8640
G1 X116.748 Y103.621 E-.36116
G1 X117.235 Y104.009 E-.14378
G1 X117.813 Y104.352 E-.15519
G1 X118.184 Y104.507 E-.09284
G1 X118.04 Y104.363 E-.04703
;WIPE_END
G1 Z.6 F720
G1 X98.439 Y95.044 F10800
G1 Z.2 F720
G1 E.8 F2100
M204 S800
;TYPE:Perimeter
;WIDTH:0.419999
M73 Q3 S17
G1 F1200
G1 X98.805 Y94.939 E.01194
G1 X99.352 Y94.842 E.01742
G1 X100.082 Y94.788 E.02295
G1 X100.808 Y94.851 E.02285
M73 P3 R17
G1 X101.509 Y95.011 E.02254
G1 X102.095 Y95.233 E.01965
G1 X102.609 Y95.5 E.01816
G1 X103.065 Y95.799 E.0171
G1 X103.587 Y96.234 E.0213
G1 X104.036 Y96.718 E.0207
G1 X104.43 Y97.27 E.02126
G1 X104.743 Y97.853 E.02075
G1 X104.986 Y98.497 E.02158
G1 X105.145 Y99.197 E.02251
G1 X105.207 Y99.912 E.0225
G1 X105.185 Y100.539 E.01967
G1 X105.062 Y101.247 E.02253
G1 X104.842 Y101.932 E.02256
G1 X104.53 Y102.58 E.02255
G1 X104.132 Y103.178 E.02252
G1 X103.655 Y103.717 E.02257
G1 X103.108 Y104.184 E.02255
G1 X102.503 Y104.572 E.02254
G1 X101.85 Y104.873 E.02254
G1 X101.161 Y105.081 E.02257
G1 X100.451 Y105.192 E.02253
G1 X99.732 Y105.204 E.02255
G1 X99.018 Y105.118 E.02255
G1 X98.323 Y104.934 E.02254
G1 X97.66 Y104.656 E.02254
G1 X97.041 Y104.289 E.02256
G1 X96.479 Y103.841 E.02253
G1 X95.984 Y103.319 E.02256
G1 X95.565 Y102.734 E.02256
G1 X95.231 Y102.098 E.02252
G1 X94.988 Y101.421 E.02255
G1 X94.84 Y100.717 E.02256
G1 X94.79 Y100 E.02254
G1 X94.84 Y99.283 E.02254
G1 X94.988 Y98.579 E.02256
G1 X95.231 Y97.902 E.02255
G1 X95.565 Y97.266 E.02252
G1 X95.984 Y96.681 E.02256
G1 X96.479 Y96.159 E.02256
G1 X97.041 Y95.711 E.02253
G1 X97.66 Y95.344 E.02256
G1 X98.237 Y95.102 E.01962
G1 X98.381 Y95.061 E.00469
M204 S1000
G1 X98.328 Y94.675 F10800
M204 S800
;TYPE:External perimeter
G1 F1200
G1 X98.708 Y94.574 E.01233
G1 X99.307 Y94.467 E.01908
G1 X100.095 Y94.411 E.02477
G1 X100.867 Y94.478 E.0243
G1 X101.619 Y94.65 E.02419
G1 X102.34 Y94.923 E.02417
G1 X103.016 Y95.293 E.02416
G1 X103.635 Y95.753 E.02418
G1 X104.186 Y96.294 E.02421
G1 X104.656 Y96.905 E.02417
G1 X105.038 Y97.575 E.02418
G1 X105.276 Y98.172 E.02015
G1 X105.411 Y98.647 E.01548
G1 X105.52 Y99.158 E.01638
G1 X105.584 Y99.925 E.02413
G1 X105.561 Y100.578 E.02049
G1 X105.429 Y101.338 E.02419
G1 X105.193 Y102.072 E.02417
G1 X104.858 Y102.767 E.02419
G1 X104.431 Y103.409 E.02418
G1 X103.92 Y103.986 E.02417
G1 X103.334 Y104.488 E.02419
G1 X102.684 Y104.904 E.0242
G1 X101.984 Y105.226 E.02416
G1 X101.246 Y105.449 E.02417
G1 X100.484 Y105.569 E.02419
G1 X99.712 Y105.582 E.02421
G1 X98.947 Y105.489 E.02416
G1 X98.201 Y105.291 E.0242
G1 X97.49 Y104.993 E.02417
G1 X96.827 Y104.6 E.02417
G1 X96.224 Y104.119 E.02418
G1 X95.693 Y103.56 E.02417
G1 X95.244 Y102.933 E.02418
G1 X94.885 Y102.25 E.02419
G1 X94.624 Y101.524 E.02419
G1 X94.466 Y100.769 E.02419
