; generated by PrusaSlicer 2.6.1+MacOS-arm64 on 2023-11-27 at 19:13:17 UTC


;
;
; 

; external perimeters extrusion width = 0.45mm
; perimeters extrusion width = 0.45mm
; infill extrusion width = 0.45mm
; solid infill extrusion width = 0.45mm
; top infill extrusion width = 0.40mm
; support material extrusion width = 0.35mm
; first layer extrusion width = 0.42mm

M73 P0 R47
M73 Q0 S48
M201 X1000 Y1000 Z200 E5000 ; sets maximum accelerations, mm/sec^2
M203 X200 Y200 Z12 E120 ; sets maximum feedrates, mm / sec
M204 S1250 T1250 ; sets acceleration (S) and retract acceleration (R), mm/sec^2
M205 X8.00 Y8.00 Z0.40 E4.50 ; sets the jerk limits, mm/sec
M205 S0 T0 ; sets the minimum extruding and travel feed rate, mm/sec
;TYPE:Custom
M862.3 P "MK3S" ; printer model check
M862.1 P0.4 ; nozzle diameter check
M115 U3.13.1 ; tell printer latest fw version
G90 ; use absolute coordinates
M83 ; extruder relative mode
M104 S215 ; set extruder temp
M140 S60 ; set bed temp
M190 S60 ; wait for bed temp
M109 S215 ; wait for extruder temp
G28 W ; home all without mesh bed level
G80 ; mesh bed leveling

G1 Z0.2 F720
G1 Y-3 F1000 ; go outside print area
G92 E0
G1 X60 E9 F1000 ; intro line
G1 X100 E12.5 F1000 ; intro line

G92 E0
M221 S95

; Don't change E values below. Excessive value can damage the printer.
M907 E430 ; set extruder motor current
G21 ; set units to millimeters
G90 ; use absolute coordinates
M83 ; use relative distances for extrusion
M900 K0.05 ; Filament gcode LA 1.5
M900 K30 ; Filament gcode LA 1.0

M107
;LAYER_CHANGE
;Z:0.2
;HEIGHT:0.2
;BEFORE_LAYER_CHANGE
G92 E0.0
;0.2


G1 E-.8 F2100
G1 Z.4 F720
;AFTER_LAYER_CHANGE
;0.2
G1 X110.959 Y86.455 F10800
G1 Z.2 F720
G1 E.8 F2100
M204 S800
;TYPE:Skirt/Brim
;WIDTH:0.42
G1 F1200
G1 X111.334 Y86.116 E.01585
G1 X125.999 Y75.244 E.57239
G1 X127.415 Y74.777 E.04675
G1 X134.239 Y74.777 E.21396
G1 X135.92 Y75.473 E.05705
G1 X138.908 Y78.461 E.13249
G1 X139.604 Y80.142 E.05705
G1 X139.597 Y129.872 E1.55925
M73 Q0 S47
G1 X138.899 Y131.549 E.05695
G1 X135.913 Y134.529 E.13227
G1 X134.234 Y135.223 E.05696
G1 X127.421 Y135.223 E.21362
G1 X125.851 Y134.631 E.05261
G1 X113.487 Y123.76 E.5162
G1 X110.959 Y121.238 E.11196
G1 X110.263 Y119.557 E.05705
G1 X110.263 Y88.136 E.98518
G1 X110.936 Y86.511 E.05515
M204 S1000
;WIPE_START
G1 F8640
G1 X111.334 Y86.116 E-.12948
G1 X113.667 Y84.387 E-.67052
;WIPE_END
G1 Z.6 F720
G1 X115.406 Y89.264 F10800
G1 Z.2 F720
G1 E.8 F2100
M204 S800
G1 F1200
G1 X116.108 Y88.124 E.04198
G1 X116.775 Y87.48 E.02907
G1 X117.497 Y86.993 E.02731
G1 X118.93 Y86.501 E.04751
G1 X124.714 Y86.453 E.18136
G1 X124.718 Y81.861 E.14398
G1 X124.978 Y80.643 E.03905
G1 X125.606 Y79.443 E.04247
G1 X126.688 Y78.348 E.04827
G1 X127.534 Y77.858 E.03065
G1 X128.521 Y77.532 E.03259
G1 X133.061 Y77.511 E.14235
G1 X133.832 Y77.739 E.02521
G1 X134.551 Y78.073 E.02486
G1 X135.639 Y78.949 E.0438
G1 X136.443 Y80.098 E.04397
G1 X136.884 Y81.436 E.04417
G1 X136.884 Y94.669 E.41491
G1 X136.508 Y95.876 E.03964
G1 X135.902 Y96.851 E.03599
G1 X135.148 Y97.614 E.03363
G1 X134.205 Y98.207 E.03493
G1 X133.244 Y98.552 E.03201
G1 X132.972 Y98.585 E.00859
G1 X132.744 Y99.21 E.02086
G1 X132.212 Y100.044 E.03102
G1 X131.401 Y100.843 E.0357
G1 X130.61 Y101.357 E.02958
G1 X129.16 Y101.819 E.04772
G1 X128.39 Y101.848 E.02416
G1 X128.39 Y107.245 E.16922
G1 X129.109 Y107.272 E.02256
G1 X130.739 Y107.806 E.05378
G1 X131.449 Y108.296 E.02705
G1 X132.309 Y109.179 E.03865
G1 X132.772 Y109.947 E.02812
G1 X132.966 Y110.487 E.01799
G1 X134.207 Y110.889 E.0409
G1 X135.067 Y111.424 E.03176
G1 X135.965 Y112.321 E.0398
G1 X136.568 Y113.363 E.03775
G1 X136.941 Y114.821 E.04719
G1 X136.938 Y128.074 E.41554
G1 X136.707 Y129.264 E.03801
G1 X136.172 Y130.377 E.03872
G1 X135.359 Y131.322 E.03909
G1 X134.363 Y132.023 E.03819
G1 X132.882 Y132.511 E.04889
G1 X129.147 Y132.562 E.11712
G1 X127.69 Y132.205 E.04703
G1 X126.406 Y131.416 E.04725
G1 X125.764 Y130.752 E.02896
G1 X125.278 Y130.033 E.02721
G1 X124.784 Y128.6 E.04753
G1 X124.731 Y122.647 E.18666
G1 X118.995 Y122.607 E.17985
G1 X117.759 Y122.227 E.04054
G1 X116.58 Y121.454 E.0442
G1 X115.74 Y120.49 E.04009
G1 X115.199 Y119.374 E.03889
G1 X114.964 Y118.164 E.03865
G1 X114.964 Y90.832 E.85698
G1 X115.32 Y89.403 E.04617
G1 X115.374 Y89.315 E.00324
M204 S1000
G1 X115.687 Y89.511 F10800
M204 S800
G1 F1200
G1 X116.415 Y88.345 E.0431
G1 X117.024 Y87.764 E.02639
G1 X117.646 Y87.34 E.0236
G1 X118.965 Y86.878 E.04382
G1 X125.091 Y86.827 E.19208
G1 X125.095 Y81.881 E.15508
G1 X125.341 Y80.748 E.03635
G1 X125.895 Y79.686 E.03756
G1 X126.901 Y78.661 E.04503
G1 X127.674 Y78.208 E.02809
G1 X128.555 Y77.909 E.02917
G1 X132.981 Y77.881 E.13878
G1 X133.686 Y78.087 E.02303
G1 X134.37 Y78.405 E.02365
G1 X135.38 Y79.225 E.04079
G1 X136.117 Y80.289 E.04058
G1 X136.516 Y81.524 E.04069
G1 X136.516 Y94.586 E.40955
G1 X136.174 Y95.698 E.03648
G1 X135.593 Y96.633 E.03452
G1 X134.896 Y97.332 E.03095
G1 X134.058 Y97.859 E.03104
G1 X133.143 Y98.188 E.03049
G1 X132.699 Y98.224 E.01397
G1 X132.413 Y99.027 E.02673
G1 X131.931 Y99.791 E.02832
G1 X131.15 Y100.561 E.03439
G1 X130.428 Y101.026 E.02693
G1 X129.073 Y101.451 E.04453
G1 X128.013 Y101.479 E.03325
G1 X128.013 Y107.616 E.19242
G1 X129.019 Y107.64 E.03155
G1 X130.595 Y108.155 E.05199
G1 X131.217 Y108.593 E.02385
G1 X131.997 Y109.392 E.03501
G1 X132.438 Y110.124 E.02679
G1 X132.69 Y110.842 E.02386
G1 X132.911 Y110.866 E.00697
G1 X134.069 Y111.241 E.03816
G1 X134.817 Y111.707 E.02763
G1 X135.652 Y112.534 E.03685
G1 X136.21 Y113.484 E.03454
G1 X136.563 Y114.846 E.04412
G1 X136.561 Y128.055 E.41416
G1 X136.342 Y129.166 E.0355
G1 X135.844 Y130.189 E.03567
G1 X135.091 Y131.057 E.03603
G1 X134.17 Y131.698 E.03518
G1 X132.848 Y132.134 E.04365
G1 X129.166 Y132.185 E.11546
G1 X127.811 Y131.847 E.04379
G1 X126.627 Y131.109 E.04374
G1 X126.048 Y130.502 E.0263
G1 X125.625 Y129.883 E.02351
G1 X125.161 Y128.565 E.04381
G1 X125.105 Y122.273 E.19729
G1 X119.027 Y122.23 E.19058
G1 X117.898 Y121.876 E.0371
M73 P1 R47
M73 Q1 S47
G1 X116.846 Y121.186 E.03945
G1 X116.068 Y120.302 E.03692
G1 X115.549 Y119.232 E.03729
G1 X115.341 Y118.146 E.03467
G1 X115.341 Y90.856 E.85566
G1 X115.667 Y89.567 E.04169
M204 S1000
G1 X116.032 Y89.661 F10800
M204 S800
G1 F1200
G1 X116.72 Y88.567 E.04052
G1 X117.271 Y88.049 E.02371
G1 X117.797 Y87.686 E.02004
G1 X119 Y87.255 E.04007
G1 X125.468 Y87.201 E.20281
G1 X125.472 Y81.902 E.16615
G1 X125.704 Y80.854 E.03365
G1 X126.185 Y79.929 E.03269
G1 X127.115 Y78.972 E.04184
G1 X127.818 Y78.557 E.0256
G1 X128.591 Y78.286 E.02568
G1 X132.902 Y78.25 E.13517
G1 X133.566 Y78.445 E.0217
G1 X134.189 Y78.736 E.02156
G1 X135.119 Y79.499 E.03772
G1 X135.79 Y80.479 E.03724
G1 X136.148 Y81.609 E.03717
G1 X136.147 Y94.502 E.40425
G1 X135.821 Y95.564 E.03483
G1 X135.311 Y96.382 E.03022
G1 X134.645 Y97.05 E.02958
G1 X133.877 Y97.527 E.02835
G1 X133.044 Y97.823 E.02772
G1 X132.426 Y97.861 E.01941
G1 X132.082 Y98.845 E.03268
G1 X131.624 Y99.57 E.02689
G1 X130.9 Y100.278 E.03175
G1 X130.29 Y100.674 E.0228
G1 X128.987 Y101.083 E.04282
G1 X127.636 Y101.107 E.04237
G1 X127.636 Y107.989 E.21578
G1 X128.93 Y108.007 E.04058
G1 X130.449 Y108.504 E.05011
G1 X130.983 Y108.889 E.02064
G1 X131.686 Y109.606 E.03148
G1 X132.105 Y110.301 E.02545
G1 X132.416 Y111.209 E.03009
G1 X132.822 Y111.233 E.01275
G1 X133.93 Y111.592 E.03652
G1 X134.598 Y112.015 E.02479
G1 X135.341 Y112.748 E.03272
G1 X135.852 Y113.607 E.03134
G1 X136.186 Y114.87 E.04096
G1 X136.184 Y128.036 E.41281
G1 X135.977 Y129.067 E.03297
G1 X135.518 Y129.999 E.03257
G1 X134.823 Y130.79 E.03301
G1 X133.978 Y131.372 E.03217
G1 X132.814 Y131.758 E.03845
G1 X129.186 Y131.807 E.11376
G1 X127.933 Y131.489 E.04053
G1 X126.849 Y130.804 E.04021
G1 X126.332 Y130.255 E.02364
G1 X125.971 Y129.731 E.01995
G1 X125.537 Y128.529 E.04007
G1 X125.479 Y121.899 E.20789
G1 X119.059 Y121.853 E.2013
G1 X118.038 Y121.525 E.03362
G1 X117.112 Y120.918 E.03472
G1 X116.368 Y120.073 E.0353
G1 X115.9 Y119.092 E.03408
G1 X115.718 Y118.129 E.03073
G1 X115.718 Y90.88 E.85437
G1 X116.017 Y89.719 E.03759
M204 S1000
G1 X116.381 Y89.815 F10800
M204 S800
G1 F1200
G1 X117.023 Y88.792 E.03787
G1 X117.518 Y88.334 E.02114
G1 X117.951 Y88.031 E.01657
G1 X119.037 Y87.632 E.03628
G1 X125.845 Y87.575 E.21347
G1 X125.845 Y81.961 E.17602
G1 X126.05 Y81.005 E.03066
G1 X126.506 Y80.127 E.03102
G1 X127.329 Y79.283 E.03696
G1 X127.965 Y78.905 E.0232
G1 X128.628 Y78.663 E.02213
G1 X132.824 Y78.62 E.13157
G1 X133.42 Y78.793 E.01946
G1 X134.007 Y79.068 E.02032
G1 X134.858 Y79.771 E.03461
G1 X135.461 Y80.665 E.03381
G1 X135.779 Y81.693 E.03374
G1 X135.778 Y94.418 E.39898
G1 X135.468 Y95.429 E.03316
G1 X135.029 Y96.131 E.02596
G1 X134.394 Y96.768 E.0282
G1 X133.698 Y97.195 E.0256
G1 X132.948 Y97.457 E.02491
G1 X132.073 Y97.498 E.02747
G1 X132.044 Y97.81 E.00982
G1 X131.734 Y98.699 E.02952
G1 X131.319 Y99.348 E.02415
G1 X130.677 Y99.974 E.02811
G1 X130.151 Y100.322 E.01978
G1 X128.901 Y100.715 E.04108
G1 X127.259 Y100.732 E.05149
G1 X127.259 Y108.366 E.23936
G1 X128.843 Y108.375 E.04967
G1 X130.254 Y108.828 E.04647
G1 X130.727 Y109.166 E.01823
G1 X131.375 Y109.821 E.02889
G1 X131.771 Y110.478 E.02405
G1 X132.045 Y111.29 E.02687
G1 X132.073 Y111.576 E.00901
G1 X132.732 Y111.601 E.02068
G1 X133.79 Y111.943 E.03486
G1 X134.378 Y112.321 E.02192
G1 X135.031 Y112.964 E.02873
G1 X135.496 Y113.731 E.02812
G1 X135.809 Y114.896 E.03782
G1 X135.807 Y128.018 E.41143
G1 X135.628 Y128.923 E.02893
G1 X135.191 Y129.809 E.03098
G1 X134.558 Y130.521 E.02987
G1 X133.788 Y131.046 E.02922
G1 X132.78 Y131.381 E.0333
G1 X129.207 Y131.43 E.11204
G1 X128.058 Y131.132 E.03722
G1 X127.074 Y130.5 E.03667
G1 X126.617 Y130.008 E.02105
G1 X126.315 Y129.577 E.0165
G1 X125.914 Y128.493 E.03624
G1 X125.852 Y121.523 E.21855
G1 X119.146 Y121.485 E.21027
G1 X118.179 Y121.174 E.03185
G1 X117.343 Y120.618 E.03148
G1 X116.67 Y119.846 E.03211
G1 X116.252 Y118.955 E.03086
G1 X116.095 Y118.111 E.02692
G1 X116.095 Y90.905 E.85303
G1 X116.366 Y89.873 E.03345
M204 S1000
G1 X116.723 Y89.966 F10800
M204 S800
G1 F1200
G1 X117.298 Y89.052 E.03386
G1 X117.764 Y88.62 E.01992
G1 X118.146 Y88.355 E.01458
G1 X119.134 Y87.997 E.03295
G1 X126.222 Y87.95 E.22224
G1 X126.222 Y81.982 E.18712
G1 X126.413 Y81.11 E.02799
G1 X126.797 Y80.369 E.02617
G1 X127.545 Y79.593 E.03379
G1 X128.112 Y79.252 E.02075
G1 X128.727 Y79.028 E.02052
G1 X132.745 Y78.99 E.12599
G1 X133.3 Y79.151 E.01812
G1 X133.823 Y79.398 E.01814
G1 X134.594 Y80.042 E.0315
G1 X135.131 Y80.85 E.03042
G1 X135.41 Y81.775 E.03029
G1 X135.409 Y94.335 E.39381
G1 X135.115 Y95.295 E.03148
G1 X134.747 Y95.879 E.02164
G1 X134.143 Y96.485 E.02683
M73 P1 R46
G1 X133.521 Y96.861 E.02279
G1 X132.853 Y97.091 E.02215
G1 X131.706 Y97.131 E.03599
G1 X131.678 Y97.717 E.01839
G1 X131.403 Y98.517 E.02652
G1 X131.039 Y99.095 E.02142
G1 X130.45 Y99.672 E.02585
G1 X130.01 Y99.971 E.01668
G1 X128.815 Y100.347 E.03928
G1 X126.882 Y100.356 E.06061
G1 X126.882 Y108.744 E.263
G1 X128.759 Y108.744 E.05885
G1 X130.061 Y109.153 E.04279
G1 X130.472 Y109.445 E.01581
G1 X131.065 Y110.037 E.02627
G1 X131.421 Y110.619 E.02139
G1 X131.678 Y111.382 E.02524
G1 X131.706 Y111.948 E.01777
G1 X132.644 Y111.969 E.02942
G1 X133.649 Y112.294 E.03312
G1 X134.155 Y112.626 E.01898
G1 X134.723 Y113.182 E.02492
G1 X135.14 Y113.858 E.0249
G1 X135.432 Y114.922 E.03459
G1 X135.43 Y128 E.41005
G1 X135.279 Y128.779 E.02488
G1 X134.865 Y129.618 E.02933
G1 X134.294 Y130.251 E.02673
G1 X133.599 Y130.719 E.02627
G1 X132.745 Y131.004 E.02823
G1 X129.227 Y131.052 E.11031
G1 X128.234 Y130.797 E.03215
G1 X127.334 Y130.226 E.03342
G1 X126.903 Y129.761 E.01988
G1 X126.639 Y129.382 E.01448
G1 X126.28 Y128.395 E.03293
G1 X126.227 Y121.148 E.22723
G1 X119.232 Y121.117 E.21933
G1 X118.362 Y120.844 E.02859
G1 X117.608 Y120.349 E.02828
G1 X117 Y119.661 E.02879
G1 X116.603 Y118.817 E.02924
G1 X116.472 Y118.095 E.02301
G1 X116.472 Y90.929 E.85177
G1 X116.708 Y90.024 E.02932
M204 S1000
G1 X117.071 Y90.121 F10800
M204 S800
G1 F1200
G1 X117.083 Y90.077 E.00143
G1 X117.572 Y89.312 E.02847
G1 X118.01 Y88.906 E.01873
G1 X118.338 Y88.68 E.01249
G1 X119.23 Y88.363 E.02968
G1 X126.599 Y88.326 E.23105
G1 X126.599 Y82.002 E.19828
G1 X126.761 Y81.258 E.02387
G1 X127.09 Y80.608 E.02284
G1 X127.763 Y79.902 E.03058
G1 X128.259 Y79.6 E.01821
G1 X128.826 Y79.393 E.01893
G1 X132.668 Y79.36 E.12047
G1 X133.153 Y79.499 E.01582
G1 X133.639 Y79.728 E.01685
G1 X134.329 Y80.312 E.02834
G1 X134.8 Y81.032 E.02698
G1 X135.041 Y81.854 E.02686
G1 X135.04 Y94.253 E.38876
G1 X134.781 Y95.118 E.02831
G1 X134.464 Y95.629 E.01885
G1 X133.893 Y96.202 E.02536
G1 X133.347 Y96.527 E.01992
G1 X132.76 Y96.725 E.01942
G1 X131.336 Y96.762 E.04466
G1 X131.311 Y97.625 E.02707
G1 X131.07 Y98.338 E.0236
G1 X130.757 Y98.843 E.01863
G1 X130.219 Y99.374 E.0237
G1 X129.868 Y99.62 E.01344
G1 X128.73 Y99.978 E.03741
G1 X126.505 Y99.978 E.06976
G1 X126.505 Y109.121 E.28667
G1 X128.73 Y109.121 E.06976
G1 X129.868 Y109.479 E.03741
G1 X130.219 Y109.725 E.01344
G1 X130.757 Y110.256 E.0237
G1 X131.07 Y110.761 E.01863
G1 X131.311 Y111.474 E.0236
G1 X131.336 Y112.322 E.0266
G1 X132.558 Y112.337 E.03832
G1 X133.466 Y112.624 E.02986
G1 X133.905 Y112.909 E.01641
G1 X134.443 Y113.436 E.02361
G1 X134.784 Y113.987 E.02032
G1 X135.055 Y114.948 E.03131
G1 X135.053 Y127.982 E.40867
G1 X134.928 Y128.638 E.02094
G1 X134.566 Y129.386 E.02606
G1 X134.031 Y129.98 E.02507
G1 X133.411 Y130.391 E.02332
G1 X132.71 Y130.628 E.0232
G1 X129.248 Y130.675 E.10856
G1 X128.36 Y130.441 E.02879
M73 P2 R46
M73 Q2 S47
G1 X127.594 Y129.952 E.02849
G1 X127.189 Y129.515 E.01868
G1 X126.964 Y129.189 E.01242
G1 X126.645 Y128.298 E.02967
G1 X126.602 Y120.772 E.23598
G1 X119.317 Y120.748 E.22842
G1 X118.502 Y120.492 E.02678
G1 X117.839 Y120.05 E.02498
G1 X117.303 Y119.434 E.0256
G1 X116.956 Y118.682 E.02597
G1 X116.849 Y118.079 E.0192
G1 X116.849 Y90.954 E.85049
G1 X117.056 Y90.179 E.02515
M204 S1000
G1 X117.419 Y90.278 F10800
M204 S800
G1 F1200
G1 X117.438 Y90.206 E.00233
G1 X117.845 Y89.573 E.0236
G1 X118.256 Y89.192 E.01757
G1 X118.529 Y89.006 E.01036
G1 X119.324 Y88.73 E.02639
G1 X126.976 Y88.702 E.23992
G1 X126.976 Y82.022 E.20945
G1 X127.109 Y81.403 E.01985
G1 X127.385 Y80.845 E.01952
G1 X127.981 Y80.21 E.02731
G1 X128.438 Y79.933 E.01676
G1 X128.922 Y79.759 E.01613
G1 X132.592 Y79.73 E.11507
G1 X133.007 Y79.846 E.01351
G1 X133.455 Y80.058 E.01554
G1 X134.061 Y80.579 E.02506
G1 X134.467 Y81.21 E.02353
G1 X134.671 Y81.931 E.02349
G1 X134.671 Y94.174 E.38387
G1 X134.445 Y94.945 E.02519
G1 X134.179 Y95.381 E.01601
G1 X133.677 Y95.892 E.02246
G1 X133.206 Y96.176 E.01724
G1 X132.668 Y96.358 E.01781
G1 X130.963 Y96.391 E.05347
G1 X130.944 Y97.536 E.03591
G1 X130.736 Y98.162 E.02068
G1 X130.475 Y98.592 E.01577
G1 X129.966 Y99.094 E.02242
G1 X129.677 Y99.294 E.01102
G1 X128.701 Y99.601 E.03208
G1 X126.128 Y99.601 E.08067
G1 X126.128 Y109.498 E.31031
G1 X128.701 Y109.498 E.08067
G1 X129.677 Y109.805 E.03208
G1 X129.966 Y110.005 E.01102
G1 X130.475 Y110.507 E.02242
G1 X130.736 Y110.937 E.01577
G1 X130.944 Y111.563 E.02068
G1 X130.963 Y112.699 E.03562
G1 X132.475 Y112.706 E.04741
G1 X133.286 Y112.957 E.02662
G1 X133.656 Y113.192 E.01374
G1 X134.162 Y113.688 E.02222
G1 X134.448 Y114.16 E.0173
G1 X134.678 Y114.974 E.02652
G1 X134.676 Y127.965 E.40732
G1 X134.576 Y128.5 E.01707
G1 X134.266 Y129.157 E.02278
G1 X133.799 Y129.682 E.02203
G1 X133.262 Y130.044 E.02031
G1 X132.673 Y130.251 E.01957
G1 X129.27 Y130.298 E.10671
G1 X128.487 Y130.085 E.02544
G1 X127.855 Y129.678 E.02357
G1 X127.475 Y129.269 E.0175
G1 X127.29 Y128.998 E.01029
G1 X127.012 Y128.204 E.02638
G1 X126.978 Y120.395 E.24485
G1 X119.4 Y120.38 E.2376
G1 X118.684 Y120.162 E.02347
G1 X118.106 Y119.782 E.02169
G1 X117.606 Y119.208 E.02387
G1 X117.31 Y118.55 E.02262
G1 X117.226 Y118.063 E.0155
G1 X117.226 Y90.98 E.84917
G1 X117.403 Y90.336 E.02094
M204 S1000
G1 X117.764 Y90.438 F10800
M204 S800
G1 F1200
G1 X117.793 Y90.337 E.00329
G1 X118.118 Y89.834 E.01878
G1 X118.501 Y89.479 E.01637
G1 X118.718 Y89.334 E.00818
G1 X119.415 Y89.097 E.02308
G1 X127.353 Y89.078 E.24889
