; generated by PrusaSlicer 2.6.1+MacOS-arm64 on 2023-11-27 at 19:12:56 UTC


;
;
; 

; external perimeters extrusion width = 0.45mm
; perimeters extrusion width = 0.45mm
; infill extrusion width = 0.45mm
; solid infill extrusion width = 0.45mm
; top infill extrusion width = 0.40mm
; support material extrusion width = 0.35mm
; first layer extrusion width = 0.42mm

M73 P0 R110
M73 Q0 S111
M201 X1000 Y1000 Z200 E5000 ; sets maximum accelerations, mm/sec^2
M203 X200 Y200 Z12 E120 ; sets maximum feedrates, mm / sec
M204 S1250 T1250 ; sets acceleration (S) and retract acceleration (R), mm/sec^2
M205 X8.00 Y8.00 Z0.40 E4.50 ; sets the jerk limits, mm/sec
M205 S0 T0 ; sets the minimum extruding and travel feed rate, mm/sec
;TYPE:Custom
M862.3 P "MK3S" ; printer model check
M862.1 P0.4 ; nozzle diameter check
M115 U3.13.1 ; tell printer latest fw version
G90 ; use absolute coordinates
M83 ; extruder relative mode
M104 S215 ; set extruder temp
M140 S60 ; set bed temp
M190 S60 ; wait for bed temp
M109 S215 ; wait for extruder temp
G28 W ; home all without mesh bed level
G80 ; mesh bed leveling

G1 Z0.2 F720
G1 Y-3 F1000 ; go outside print area
G92 E0
G1 X60 E9 F1000 ; intro line
G1 X100 E12.5 F1000 ; intro line

G92 E0
M221 S95

; Don't change E values below. Excessive value can damage the printer.
M907 E430 ; set extruder motor current
G21 ; set units to millimeters
G90 ; use absolute coordinates
M83 ; use relative distances for extrusion
M900 K0.05 ; Filament gcode LA 1.5
M900 K30 ; Filament gcode LA 1.0

M107
;LAYER_CHANGE
;Z:0.2
;HEIGHT:0.2
;BEFORE_LAYER_CHANGE
G92 E0.0
;0.2


G1 E-.8 F2100
G1 Z.4 F720
;AFTER_LAYER_CHANGE
;0.2
G1 X92.502 Y77.227 F10800
G1 Z.2 F720
G1 E.8 F2100
M204 S800
;TYPE:Skirt/Brim
;WIDTH:0.42
G1 F1200
G1 X92.613 Y77.116 E.00492
G1 X94.293 Y76.42 E.05702
G1 X104.951 Y76.42 E.33417
G1 X105.985 Y76.657 E.03326
G1 X121.325 Y84.083 E.53437
G1 X154.64 Y104.454 E1.22437
G1 X155.191 Y104.912 E.02247
M73 Q0 S110
G1 X155.887 Y106.593 E.05705
G1 X155.887 Y130.958 E.76395
G1 X155.394 Y132.407 E.04799
G1 X155.205 Y132.652 E.0097
G1 X153.91 Y133.506 E.04864
G1 X147.482 Y135.149 E.20802
G1 X146.894 Y135.223 E.01858
G1 X111.264 Y135.223 E1.11715
G1 X94.064 Y133.569 E.54178
G1 X92.502 Y132.773 E.05497
G1 X91.806 Y131.092 E.05705
G1 X91.806 Y78.908 E1.63619
G1 X92.479 Y77.282 E.05518
M204 S1000
;WIPE_START
G1 F8640
G1 X92.613 Y77.116 E-.04926
G1 X94.293 Y76.42 E-.41989
G1 X95.726 Y76.42 E-.33085
;WIPE_END
G1 Z.6 F720
G1 X109.183 Y88.863 F10800
G1 Z.2 F720
G1 E.8 F2100
M204 S800
G1 F1200
G1 X109.808 Y87.962 E.03438
G1 X110.375 Y87.437 E.02423
G1 X110.948 Y87.029 E.02206
G1 X112.285 Y86.502 E.04506
G1 X118.822 Y86.456 E.20497
G1 X119.659 Y86.689 E.02724
G1 X120.433 Y87.048 E.02675
G1 X121.75 Y88.22 E.05528
G1 X122.35 Y89.176 E.03539
G1 X122.636 Y89.952 E.02593
G1 X122.664 Y90.083 E.0042
G1 X135.818 Y106.829 E.66767
G1 X145.551 Y106.853 E.30517
G1 X146.677 Y107.147 E.03649
G1 X147.492 Y107.533 E.02827
G1 X149.108 Y109.187 E.0725
G1 X149.54 Y110.182 E.03401
G1 X149.745 Y111.21 E.03287
G1 X149.751 Y113.839 E.08243
G1 X149.556 Y116.323 E.07812
G1 X149.252 Y117.415 E.03554
G1 X149.577 Y118.582 E.03798
G1 X149.596 Y122.16 E.11219
G1 X149.244 Y123.535 E.0445
G1 X149.578 Y124.796 E.0409
G1 X149.585 Y128.23 E.10767
G1 X149.268 Y129.505 E.04119
G1 X148.896 Y130.285 E.0271
G1 X147.453 Y131.775 E.06504
G1 X146.511 Y132.245 E.03301
G1 X145.199 Y132.559 E.0423
G1 X112.929 Y132.559 E1.0118
G1 X110.957 Y131.935 E.06485
G1 X110.272 Y131.427 E.02674
G1 X109.335 Y130.396 E.04368
G1 X108.877 Y129.476 E.03222
G1 X108.562 Y128.162 E.04237
G1 X108.646 Y90.225 E1.18949
G1 X109.075 Y89.018 E.04016
G1 X109.149 Y88.912 E.00405
M204 S1000
G1 X109.459 Y89.125 F10800
M204 S800
G1 F1200
G1 X110.079 Y88.224 E.03429
G1 X110.622 Y87.722 E.02319
G1 X111.147 Y87.35 E.02017
G1 X112.341 Y86.879 E.04024
G1 X118.747 Y86.826 E.20086
G1 X119.514 Y87.037 E.02494
M73 P0 R109
G1 X120.249 Y87.378 E.0254
G1 X121.477 Y88.482 E.05178
G1 X122.018 Y89.357 E.03226
G1 X122.276 Y90.065 E.02363
G1 X122.309 Y90.242 E.00565
G1 X135.635 Y107.206 E.67638
G1 X145.479 Y107.224 E.30865
G1 X146.564 Y107.507 E.03516
G1 X147.299 Y107.859 E.02555
G1 X148.776 Y109.37 E.06625
G1 X149.175 Y110.278 E.0311
G1 X149.368 Y111.23 E.03046
G1 X149.375 Y113.817 E.08111
G1 X149.182 Y116.276 E.07734
G1 X148.935 Y117.175 E.02923
G1 X148.845 Y117.364 E.00656
G1 X149.2 Y118.61 E.04062
G1 X149.218 Y122.137 E.11059
G1 X148.854 Y123.537 E.04536
G1 X149.201 Y124.822 E.04173
G1 X149.208 Y128.207 E.10613
G1 X148.908 Y129.394 E.03839
G1 X148.57 Y130.094 E.02437
G1 X147.255 Y131.453 E.05929
G1 X146.4 Y131.884 E.03002
G1 X145.176 Y132.182 E.0395
G1 X112.958 Y132.182 E1.01017
G1 X111.155 Y131.612 E.05929
G1 X110.537 Y131.158 E.02404
G1 X109.66 Y130.203 E.04065
G1 X109.238 Y129.365 E.02942
G1 X108.94 Y128.139 E.03956
G1 X109.012 Y90.319 E1.18582
G1 X109.425 Y89.175 E.03814
M204 S1000
G1 X109.748 Y89.359 F10800
M204 S800
G1 F1200
G1 X110.351 Y88.487 E.03324
G1 X110.868 Y88.007 E.02212
G1 X111.345 Y87.672 E.01828
G1 X112.445 Y87.242 E.03703
G1 X118.672 Y87.197 E.19525
G1 X119.399 Y87.397 E.02364
G1 X120.063 Y87.707 E.02298
G1 X121.203 Y88.742 E.04828
G1 X121.686 Y89.536 E.02914
G1 X121.914 Y90.174 E.02124
G1 X121.952 Y90.398 E.00712
G1 X135.451 Y107.583 E.68518
G1 X145.407 Y107.595 E.31216
G1 X146.451 Y107.867 E.03383
G1 X147.105 Y108.184 E.02279
G1 X148.446 Y109.554 E.06011
G1 X148.81 Y110.374 E.02813
G1 X148.991 Y111.251 E.02808
G1 X148.998 Y113.81 E.08024
G1 X148.807 Y116.228 E.07605
G1 X148.578 Y117.053 E.02685
G1 X148.44 Y117.324 E.00954
G1 X148.823 Y118.639 E.04294
G1 X148.841 Y122.113 E.10893
G1 X148.501 Y123.393 E.04153
G1 X148.426 Y123.551 E.00548
G1 X148.529 Y123.761 E.00733
G1 X148.824 Y124.847 E.03528
G1 X148.831 Y128.183 E.1046
G1 X148.548 Y129.28 E.03552
G1 X148.244 Y129.902 E.02171
G1 X147.055 Y131.131 E.05362
G1 X146.288 Y131.523 E.02701
G1 X145.153 Y131.805 E.03667
G1 X112.987 Y131.805 E1.00854
G1 X111.352 Y131.29 E.05375
G1 X110.8 Y130.887 E.02143
G1 X109.983 Y130.007 E.03765
G1 X109.599 Y129.252 E.02656
G1 X109.317 Y128.116 E.0367
G1 X109.379 Y90.414 E1.18212
G1 X109.728 Y89.416 E.03315
M204 S1000
G1 X110.074 Y89.551 F10800
M204 S800
G1 F1200
G1 X110.623 Y88.749 E.03047
G1 X111.115 Y88.293 E.02103
G1 X111.542 Y87.995 E.01633
G1 X112.549 Y87.607 E.03384
G1 X118.598 Y87.567 E.18967
G1 X119.254 Y87.745 E.02131
G1 X119.876 Y88.036 E.02153
G1 X120.927 Y89.001 E.04474
G1 X121.337 Y89.68 E.02487
G1 X121.553 Y90.282 E.02005
G1 X121.593 Y90.551 E.00853
G1 X135.268 Y107.96 E.69411
G1 X145.335 Y107.966 E.31564
G1 X146.337 Y108.227 E.03247
G1 X146.91 Y108.508 E.02001
G1 X148.116 Y109.739 E.05403
G1 X148.445 Y110.473 E.02522
G1 X148.614 Y111.271 E.02558
G1 X148.621 Y113.804 E.07942
G1 X148.433 Y116.179 E.0747
G1 X148.221 Y116.93 E.02447
G1 X147.998 Y117.349 E.01488
G1 X148.133 Y117.593 E.00874
G1 X148.446 Y118.667 E.03508
G1 X148.464 Y122.089 E.1073
G1 X148.145 Y123.268 E.0383
G1 X147.994 Y123.545 E.00989
G1 X148.172 Y123.884 E.01201
G1 X148.447 Y124.874 E.03222
G1 X148.454 Y128.159 E.103
G1 X148.188 Y129.165 E.03263
G1 X147.92 Y129.708 E.01899
G1 X146.854 Y130.811 E.0481
G1 X146.173 Y131.163 E.02404
G1 X145.129 Y131.428 E.03377
G1 X113.015 Y131.428 E1.00691
G1 X111.548 Y130.966 E.04822
G1 X111.062 Y130.615 E.0188
G1 X110.306 Y129.81 E.03463
G1 X109.959 Y129.138 E.02371
G1 X109.694 Y128.093 E.0338
G1 X109.745 Y90.506 E1.17852
G1 X110.055 Y89.607 E.02982
M204 S1000
G1 X110.401 Y89.74 F10800
M204 S800
G1 F1200
G1 X110.895 Y89.011 E.02761
G1 X111.361 Y88.579 E.01992
G1 X111.737 Y88.318 E.01435
G1 X112.65 Y87.971 E.03062
G1 X118.524 Y87.938 E.18418
G1 X119.139 Y88.105 E.01998
G1 X119.689 Y88.365 E.01907
G1 X120.619 Y89.22 E.03961
G1 X120.989 Y89.826 E.02226
G1 X121.19 Y90.389 E.01874
G1 X121.232 Y90.702 E.0099
G1 X135.084 Y108.337 E.70311
G1 X145.263 Y108.337 E.31916
G1 X146.223 Y108.587 E.0311
G1 X146.714 Y108.831 E.01719
G1 X147.787 Y109.926 E.04807
G1 X148.081 Y110.573 E.02228
G1 X148.237 Y111.293 E.0231
G1 X148.243 Y113.797 E.07851
G1 X148.058 Y116.13 E.07338
G1 X147.865 Y116.804 E.02198
G1 X147.562 Y117.358 E.0198
G1 X147.78 Y117.726 E.01341
G1 X148.069 Y118.697 E.03176
G1 X148.087 Y122.065 E.1056
G1 X147.789 Y123.142 E.03504
G1 X147.559 Y123.539 E.01439
G1 X147.816 Y124.009 E.0168
G1 X148.069 Y124.902 E.0291
G1 X148.077 Y128.134 E.10134
G1 X147.83 Y129.047 E.02966
G1 X147.596 Y129.513 E.01635
G1 X146.652 Y130.492 E.04264
G1 X146.057 Y130.804 E.02107
G1 X145.104 Y131.051 E.03087
G1 X113.044 Y131.051 E1.00522
G1 X111.742 Y130.642 E.04279
G1 X111.322 Y130.342 E.01618
G1 X110.627 Y129.611 E.03163
G1 X110.318 Y129.021 E.02088
G1 X110.071 Y128.069 E.03084
G1 X110.113 Y90.597 E1.17491
G1 X110.382 Y89.797 E.02646
M204 S1000
G1 X110.729 Y89.927 F10800
M204 S800
G1 F1200
G1 X111.168 Y89.272 E.02472
G1 X111.607 Y88.865 E.01877
G1 X111.931 Y88.642 E.01233
G1 X112.75 Y88.336 E.02741
G1 X118.452 Y88.309 E.17878
G1 X118.993 Y88.453 E.01755
G1 X119.501 Y88.693 E.01762
G1 X120.342 Y89.477 E.03605
G1 X120.64 Y89.97 E.01806
G1 X120.827 Y90.494 E.01744
G1 X120.869 Y90.849 E.01121
G1 X134.901 Y108.714 E.71227
G1 X145.238 Y108.714 E.32411
G1 X146.105 Y108.946 E.02814
G1 X146.516 Y109.154 E.01444
G1 X147.458 Y110.114 E.04217
G1 X147.718 Y110.676 E.01942
G1 X147.86 Y111.315 E.02052
G1 X147.866 Y113.79 E.0776
G1 X147.684 Y116.08 E.07203
G1 X147.509 Y116.676 E.01948
G1 X147.123 Y117.369 E.02487
G1 X147.427 Y117.862 E.01816
G1 X147.692 Y118.727 E.02837
G1 X147.71 Y122.04 E.10388
G1 X147.433 Y123.012 E.03169
G1 X147.121 Y123.531 E.01899
G1 X147.46 Y124.137 E.02177
G1 X147.692 Y124.93 E.02591
G1 X147.7 Y128.108 E.09964
G1 X147.472 Y128.926 E.02663
G1 X147.273 Y129.317 E.01376
G1 X146.448 Y130.174 E.0373
G1 X145.937 Y130.446 E.01815
G1 X145.079 Y130.674 E.02784
G1 X113.073 Y130.674 E1.00353
G1 X111.935 Y130.316 E.03741
G1 X111.58 Y130.066 E.01361
G1 X110.947 Y129.409 E.02861
G1 X110.676 Y128.902 E.01803
G1 X110.448 Y128.044 E.02784
G1 X110.48 Y90.686 E1.17133
G1 X110.711 Y89.984 E.02317
M204 S1000
G1 X111.059 Y90.112 F10800
M204 S800
G1 F1200
G1 X111.441 Y89.533 E.02175
G1 X111.853 Y89.151 E.01762
G1 X112.123 Y88.967 E.01024
G1 X112.849 Y88.701 E.02424
G1 X118.381 Y88.68 E.17345
G1 X118.849 Y88.802 E.01516
G1 X119.313 Y89.021 E.01609
G1 X120.034 Y89.696 E.03097
G1 X120.291 Y90.116 E.01544
G1 X120.464 Y90.598 E.01606
G1 X120.503 Y90.994 E.01248
G1 X134.718 Y109.091 E.72154
G1 X145.212 Y109.091 E.32903
G1 X145.985 Y109.304 E.02514
G1 X146.316 Y109.474 E.01167
G1 X147.13 Y110.302 E.03641
G1 X147.366 Y110.814 E.01768
G1 X147.487 Y111.374 E.01796
G1 X147.489 Y113.783 E.07553
G1 X147.316 Y115.995 E.06957
M73 P1 R109
G1 X147.166 Y116.519 E.01709
M73 Q1 S110
G1 X146.914 Y116.993 E.01683
G1 X146.58 Y117.341 E.01512
G1 X146.805 Y117.574 E.01016
G1 X147.076 Y118.001 E.01586
G1 X147.315 Y118.758 E.02489
G1 X147.332 Y122.014 E.10209
G1 X147.079 Y122.88 E.02829
G1 X146.827 Y123.288 E.01504
G1 X146.577 Y123.55 E.01135
G1 X146.893 Y123.884 E.01442
G1 X147.106 Y124.267 E.01374
G1 X147.315 Y124.959 E.02267
G1 X147.323 Y128.082 E.09792
G1 X147.115 Y128.802 E.0235
G1 X146.951 Y129.118 E.01116
G1 X146.241 Y129.857 E.03213
G1 X145.816 Y130.088 E.01517
G1 X145.053 Y130.297 E.0248
G1 X113.102 Y130.297 E1.0018
G1 X112.126 Y129.99 E.03208
M73 Q1 S109
G1 X111.836 Y129.789 E.01106
G1 X111.264 Y129.205 E.02563
G1 X111.034 Y128.78 E.01515
G1 X110.825 Y128.018 E.02477
G1 X110.848 Y90.772 E1.16782
G1 X111.041 Y90.169 E.01985
M204 S1000
G1 X111.39 Y90.294 F10800
M204 S800
G1 F1200
G1 X111.715 Y89.793 E.01872
G1 X112.098 Y89.438 E.01637
G1 X112.313 Y89.294 E.00811
G1 X112.945 Y89.067 E.02106
G1 X118.311 Y89.051 E.16825
G1 X118.705 Y89.151 E.01275
G1 X119.124 Y89.349 E.01453
G1 X119.755 Y89.951 E.02734
G1 X119.943 Y90.261 E.01137
G1 X120.1 Y90.7 E.01462
G1 X120.135 Y91.136 E.01371
G1 X134.535 Y109.468 E.73091
G1 X145.185 Y109.468 E.33392
G1 X145.861 Y109.66 E.02203
G1 X146.114 Y109.794 E.00898
G1 X146.801 Y110.49 E.03066
G1 X147.015 Y110.952 E.01596
G1 X147.114 Y111.43 E.01531
G1 X147.113 Y113.761 E.07309
G1 X146.948 Y115.913 E.06767
G1 X146.823 Y116.361 E.01458
G1 X146.596 Y116.788 E.01516
G1 X146.033 Y117.345 E.02483
G1 X146.5 Y117.797 E.02038
G1 X146.745 Y118.182 E.01431
G1 X146.938 Y118.789 E.01997
G1 X146.955 Y121.988 E.1003
G1 X146.746 Y122.703 E.02336
G1 X146.519 Y123.069 E.0135
G1 X146.038 Y123.549 E.02131
G1 X146.577 Y124.092 E.02399
G1 X146.767 Y124.434 E.01227
G1 X146.938 Y124.989 E.01821
G1 X146.945 Y128.054 E.0961
G1 X146.76 Y128.675 E.02032
G1 X146.631 Y128.918 E.00863
G1 X146.033 Y129.542 E.0271
G1 X145.69 Y129.732 E.01229
G1 X145.026 Y129.92 E.02164
G1 X113.131 Y129.92 E1.00005
G1 X112.315 Y129.663 E.02682
G1 X112.09 Y129.509 E.00855
G1 X111.58 Y128.997 E.02266
G1 X111.39 Y128.655 E.01227
G1 X111.202 Y127.991 E.02164
G1 X111.217 Y90.855 E1.16437
G1 X111.372 Y90.351 E.01653
M204 S1000
G1 X111.733 Y90.463 F10800
M204 S800
G1 F1200
G1 X111.988 Y90.054 E.01511
G1 X112.342 Y89.726 E.01513
G1 X112.5 Y89.622 E.00593
G1 X113.039 Y89.434 E.0179
G1 X118.245 Y89.423 E.16323
G1 X118.561 Y89.5 E.0102
G1 X118.934 Y89.676 E.01293
G1 X119.473 Y90.202 E.02361
G1 X119.594 Y90.404 E.00738
G1 X119.735 Y90.8 E.01318
G1 X119.765 Y91.275 E.01492
G1 X134.351 Y109.845 E.74038
G1 X145.157 Y109.845 E.33881
G1 X145.733 Y110.016 E.01884
G1 X145.909 Y110.111 E.00627
G1 X146.475 Y110.681 E.02519
G1 X146.651 Y111.054 E.01293
G1 X146.736 Y111.451 E.01273
G1 X146.736 Y113.754 E.07221
G1 X146.574 Y115.864 E.06635
G1 X146.467 Y116.235 E.01211
G1 X146.279 Y116.581 E.01235
G1 X145.795 Y117.047 E.02107
G1 X145.22 Y117.381 E.02085
G1 X145.651 Y117.552 E.01454
G1 X145.812 Y117.658 E.00604
G1 X146.195 Y118.02 E.01652
G1 X146.412 Y118.363 E.01273
G1 X146.57 Y118.872 E.01671
G1 X146.578 Y121.961 E.09685
G1 X146.412 Y122.526 E.01846
G1 X146.211 Y122.85 E.01195
G1 X145.846 Y123.207 E.01601
G1 X145.166 Y123.569 E.02415
G1 X145.652 Y123.753 E.01629
G1 X145.817 Y123.863 E.00622
G1 X146.264 Y124.304 E.01969
G1 X146.413 Y124.566 E.00945
G1 X146.57 Y125.072 E.01661
G1 X146.568 Y128.024 E.09256
G1 X146.407 Y128.543 E.01704
G1 X146.313 Y128.714 E.00612
G1 X145.821 Y129.229 E.02233
G1 X145.561 Y129.377 E.00938
G1 X144.998 Y129.543 E.0184
G1 X113.16 Y129.543 E.99826
G1 X112.501 Y129.334 E.02168
G1 X112.34 Y129.227 E.00606
G1 X111.894 Y128.786 E.01967
G1 X111.745 Y128.526 E.0094
G1 X111.579 Y127.963 E.0184
G1 X111.586 Y90.939 E1.16086
G1 X111.715 Y90.52 E.01375
M204 S1000
G1 X112.075 Y90.631 F10800
M204 S800
G1 F1200
G1 X112.095 Y90.568 E.00207
G1 X112.261 Y90.315 E.00949
G1 X112.586 Y90.015 E.01387
G1 X112.682 Y89.953 E.00358
G1 X113.13 Y89.801 E.01483
G1 X118.181 Y89.795 E.15837
G1 X118.419 Y89.85 E.00766
G1 X118.743 Y90.003 E.01123
G1 X119.165 Y90.419 E.01858
G1 X119.246 Y90.551 E.00486
G1 X119.37 Y90.899 E.01158
G1 X119.392 Y91.411 E.01607
G1 X134.168 Y110.222 E.75001
G1 X145.127 Y110.222 E.34361
G1 X145.599 Y110.369 E.0155
M73 P1 R108
G1 X145.7 Y110.426 E.00364
G1 X146.148 Y110.872 E.01982
G1 X146.301 Y111.195 E.01121
G1 X146.359 Y111.471 E.00884
G1 X146.359 Y113.747 E.07136
G1 X146.199 Y115.817 E.0651
G1 X146.126 Y116.074 E.00838
G1 X145.963 Y116.373 E.01068
G1 X145.551 Y116.759 E.0177
G1 X145.456 Y116.817 E.00349
G1 X144.973 Y116.964 E.01583
G1 X134.795 Y116.964 E.31912
G1 X134.795 Y117.724 E.02383
G1 X144.968 Y117.724 E.31897
G1 X145.474 Y117.887 E.01667
G1 X145.57 Y117.948 E.00357
G1 X145.894 Y118.248 E.01384
G1 X146.06 Y118.501 E.00949
G1 X146.201 Y118.956 E.01494
G1 X146.201 Y121.932 E.09331
G1 X146.06 Y122.387 E.01494
G1 X145.907 Y122.625 E.00887
G1 X145.607 Y122.914 E.01306
G1 X145.232 Y123.103 E.01317
G1 X144.953 Y123.164 E.00895
G1 X134.795 Y123.164 E.3185
G1 X134.795 Y123.924 E.02383
G1 X144.968 Y123.924 E.31897
G1 X145.474 Y124.087 E.01667
G1 X145.57 Y124.148 E.00357
G1 X145.953 Y124.519 E.01672
G1 X146.06 Y124.699 E.00657
G1 X146.201 Y125.156 E.015
G1 X146.192 Y127.991 E.08889
G1 X146.055 Y128.404 E.01364
G1 X145.997 Y128.508 E.00373
G1 X145.605 Y128.919 E.01781
G1 X145.426 Y129.025 E.00652
G1 X144.969 Y129.166 E.015
G1 X113.189 Y129.166 E.99644
