; generated by PrusaSlicer 2.6.1+MacOS-arm64 on 2023-11-01 at 15:38:35 UTC


;
;
; 

; external perimeters extrusion width = 0.45mm
; perimeters extrusion width = 0.45mm
; infill extrusion width = 0.45mm
; solid infill extrusion width = 0.45mm
; top infill extrusion width = 0.40mm
; first layer extrusion width = 0.42mm

M73 P0 R1
M73 Q0 S1
M201 X1000 Y1000 Z200 E5000 ; sets maximum accelerations, mm/sec^2
M203 X200 Y200 Z12 E120 ; sets maximum feedrates, mm / sec
M204 S1250 T1250 ; sets acceleration (S) and retract acceleration (R), mm/sec^2
M205 X8.00 Y8.00 Z0.40 E4.50 ; sets the jerk limits, mm/sec
M205 S0 T0 ; sets the minimum extruding and travel feed rate, mm/sec
;TYPE:Custom
M862.3 P "MK3S" ; printer model check
M862.1 P0.4 ; nozzle diameter check
M115 U3.13.1 ; tell printer latest fw version
G90 ; use absolute coordinates
M83 ; extruder relative mode
M104 S215 ; set extruder temp
M140 S60 ; set bed temp
M190 S60 ; wait for bed temp
M109 S215 ; wait for extruder temp
G28 W ; home all without mesh bed level
G80 ; mesh bed leveling

G1 Z0.2 F720
G1 Y-3 F1000 ; go outside print area
G92 E0
G1 X60 E9 F1000 ; intro line
G1 X100 E12.5 F1000 ; intro line

G92 E0
M221 S95

; Don't change E values below. Excessive value can damage the printer.
M907 E430 ; set extruder motor current
G21 ; set units to millimeters
G90 ; use absolute coordinates
M83 ; use relative distances for extrusion
M900 K0.05 ; Filament gcode LA 1.5
M900 K30 ; Filament gcode LA 1.0

M107
;LAYER_CHANGE
;Z:0.2
;HEIGHT:0.2
;BEFORE_LAYER_CHANGE
G92 E0.0
;0.2


M73 P3 R1
M73 Q3 S1
G1 E-.8 F2100
M73 P5 R1
M73 Q5 S1
G1 Z.4 F720
;AFTER_LAYER_CHANGE
;0.2
G1 X119.625 Y98.617 F10800
G1 Z.2 F720
M73 P6 R1
M73 Q6 S1
G1 E.8 F2100
M204 S800
;TYPE:Skirt/Brim
;WIDTH:0.42
G1 F1200
G1 X120.74 Y97.511 E.04924
G1 X122.356 Y97.085 E.0524
G1 X127.84 Y97.154 E.17196
M73 Q7 S1
G1 X129.355 Y97.566 E.04923
M73 P7 R1
G1 X130.532 Y98.753 E.05241
G1 X133.215 Y103.537 E.17198
G1 X133.616 Y105.055 E.04923
G1 X133.176 Y106.668 E.05242
G1 X130.375 Y111.383 E.17195
G1 X129.26 Y112.489 E.04924
M73 Q8 S1
G1 X127.644 Y112.915 E.0524
G1 X122.16 Y112.846 E.17196
G1 X120.645 Y112.434 E.04923
M73 P8 R1
G1 X119.468 Y111.247 E.05241
G1 X116.785 Y106.463 E.17198
G1 X116.384 Y104.945 E.04923
G1 X116.824 Y103.332 E.05242
G1 X119.594 Y98.668 E.17008
M204 S1000
M73 Q9 S1
G1 X119.919 Y98.861 F10800
M204 S800
M73 P9 R1
G1 F1200
G1 X119.949 Y98.809 E.00188
G1 X121.011 Y97.791 E.04613
G1 X122.351 Y97.462 E.04326
G1 X127.836 Y97.531 E.17199
G1 X129.248 Y97.941 E.0461
G1 X130.204 Y98.937 E.04329
G1 X132.887 Y103.721 E.17198
G1 X133.237 Y105.15 E.04613
M73 Q10 S1
G1 X132.852 Y106.475 E.04326
G1 X130.051 Y111.191 E.17198
G1 X128.989 Y112.209 E.04613
M73 P10 R1
G1 X127.649 Y112.538 E.04326
G1 X122.164 Y112.469 E.17199
G1 X120.752 Y112.059 E.0461
G1 X119.796 Y111.063 E.04329
G1 X117.113 Y106.279 E.17198
G1 X116.763 Y104.85 E.04613
M73 Q11 S1
G1 X117.148 Y103.525 E.04326
M73 P11 R1
G1 X119.888 Y98.913 E.1682
M204 S1000
G1 X120.212 Y99.105 F10800
M204 S800
G1 F1200
G1 X120.273 Y99.002 E.00375
G1 X121.278 Y98.078 E.04281
G1 X122.347 Y97.839 E.03435
G1 X127.831 Y97.908 E.17196
G1 X129.133 Y98.316 E.04278
M73 Q12 S1
G1 X129.875 Y99.122 E.03435
G1 X132.558 Y103.906 E.17198
G1 X132.855 Y105.237 E.04276
M73 P12 R1
G1 X132.528 Y106.282 E.03433
G1 X129.727 Y110.998 E.17198
G1 X128.722 Y111.922 E.04281
G1 X127.653 Y112.161 E.03435
G1 X122.169 Y112.092 E.17196
G1 X120.867 Y111.684 E.04278
M73 Q13 S1
G1 X120.125 Y110.878 E.03435
G1 X117.442 Y106.094 E.17198
G1 X117.145 Y104.763 E.04276
M73 P13 R1
G1 X117.472 Y103.718 E.03433
G1 X120.181 Y99.157 E.16633
M204 S1000
; printing object hexnut-border.stl id:0 copy 0
;WIPE_START
G1 F8640
G1 X120.273 Y99.002 E-.04162
G1 X121.278 Y98.078 E-.31523
G1 X122.347 Y97.839 E-.25293
G1 X123.171 Y97.849 E-.19022
;WIPE_END
G1 Z.6 F720
G1 X129.83 Y105.06 F10800
M73 Q14 S1
G1 Z.2 F720
G1 E.8 F2100
M204 S800
;TYPE:External perimeter
;WIDTH:0.415591
G1 F1200
M73 P14 R1
G1 X129.807 Y105.12 E.00199
;WIDTH:0.393263
G1 X129.793 Y105.147 E.00089
;WIDTH:0.390628
G1 X127.421 Y109.139 E.13425
;WIDTH:0.415591
G1 X127.363 Y109.213 E.00291
G1 X127.269 Y109.224 E.00293
;WIDTH:0.390628
G1 X122.626 Y109.166 E.13425
;WIDTH:0.415591
G1 X122.533 Y109.152 E.00291
G1 X122.477 Y109.077 E.0029
;WIDTH:0.390627
G1 X120.205 Y105.027 E.13426
;WIDTH:0.415591
G1 X120.17 Y104.94 E.00291
G1 X120.207 Y104.853 E.00293
;WIDTH:0.390628
G1 X122.579 Y100.861 E.13425
;WIDTH:0.416335
G1 X122.638 Y100.786 E.00296
M73 Q15 S1
G1 X123.281 Y100.78 E.01997
;WIDTH:0.396455
G1 X127.374 Y100.834 E.12033
;WIDTH:0.415739
G1 X127.467 Y100.847 E.00291
M73 P15 R1
G1 X127.523 Y100.923 E.00293
;WIDTH:0.390622
G1 X129.795 Y104.973 E.13426
;WIDTH:0.415591
G1 X129.807 Y105.004 E.00103
M204 S1000
G1 X130.231 Y105.065 F10800
M204 S800
G1 F1200
G1 X130.092 Y105.324 E.00911
;WIDTH:0.390628
G1 X127.72 Y109.316 E.13425
;WIDTH:0.415591
G1 X127.559 Y109.563 E.00914
G1 X127.265 Y109.572 E.00911
;WIDTH:0.390628
G1 X122.622 Y109.514 E.13425
;WIDTH:0.415591
G1 X122.328 Y109.498 E.00912
M73 Q16 S1
G1 X122.173 Y109.247 E.00914
;WIDTH:0.390627
G1 X119.902 Y105.197 E.13425
;WIDTH:0.415591
G1 X119.769 Y104.935 E.0091
M73 P16 R1
G1 X119.908 Y104.676 E.00911
;WIDTH:0.390628
G1 X122.28 Y100.684 E.13425
;WIDTH:0.416335
G1 X122.442 Y100.436 E.0092
G1 X122.729 Y100.425 E.00892
;WIDTH:0.396455
G1 X127.379 Y100.485 E.13671
;WIDTH:0.415739
G1 X127.671 Y100.502 E.00907
G1 X127.827 Y100.753 E.00916
;WIDTH:0.390622
G1 X130.098 Y104.803 E.13424
;WIDTH:0.415591
G1 X130.204 Y105.012 E.00726
M204 S1000
; stop printing object hexnut-border.stl id:0 copy 0
M106 S84.15
;LAYER_CHANGE
;Z:0.4
;HEIGHT:0.2
;BEFORE_LAYER_CHANGE
G92 E0.0
;0.4


;WIPE_START
M73 Q17 S1
G1 F8640
G1 X130.092 Y105.324 E-.07654
G1 X128.492 Y108.018 E-.72346
;WIPE_END
G1 Z.6 F720
;AFTER_LAYER_CHANGE
;0.4
M104 S210 ; set temperature
G1 X131.362 Y109.723 F10800
M73 P17 R1
G1 Z.4 F720
G1 E.8 F2100
;TYPE:Skirt/Brim
;WIDTH:0.42
G1 F1317
G1 X130.375 Y111.383 E.06055
G1 X129.26 Y112.489 E.04924
G1 X127.644 Y112.915 E.0524
G1 X122.16 Y112.846 E.17196
G1 X120.645 Y112.434 E.04923
G1 X119.468 Y111.247 E.05241
M73 Q18 S1
G1 X116.785 Y106.463 E.17198
G1 X116.384 Y104.945 E.04923
M73 P18 R1
G1 X116.824 Y103.332 E.05242
G1 X119.625 Y98.617 E.17195
G1 X120.74 Y97.511 E.04924
G1 X122.356 Y97.085 E.0524
G1 X127.84 Y97.154 E.17196
G1 X129.355 Y97.566 E.04923
M73 Q19 S1
G1 X130.532 Y98.753 E.05241
G1 X133.215 Y103.537 E.17198
G1 X133.616 Y105.055 E.04923
M73 P19 R1
G1 X133.176 Y106.668 E.05242
G1 X131.392 Y109.671 E.10952
G1 X131.068 Y109.478 F10800
G1 F1317
G1 X130.051 Y111.191 E.06246
G1 X128.989 Y112.209 E.04613
G1 X127.649 Y112.538 E.04326
G1 X122.164 Y112.469 E.17199
G1 X120.752 Y112.059 E.0461
M73 Q20 S1
G1 X119.796 Y111.063 E.04329
G1 X117.113 Y106.279 E.17198
M73 P20 R1
G1 X116.763 Y104.85 E.04613
G1 X117.148 Y103.525 E.04326
G1 X119.949 Y98.809 E.17198
G1 X121.011 Y97.791 E.04613
G1 X122.351 Y97.462 E.04326
G1 X127.836 Y97.531 E.17199
G1 X129.248 Y97.941 E.0461
M73 Q21 S1
G1 X130.204 Y98.937 E.04329
G1 X132.887 Y103.721 E.17198
M73 P21 R1
G1 X133.237 Y105.15 E.04613
G1 X132.852 Y106.475 E.04326
G1 X131.099 Y109.427 E.10765
G1 X130.774 Y109.234 F10800
G1 F1317
G1 X129.727 Y110.998 E.06432
G1 X128.722 Y111.922 E.04281
G1 X127.653 Y112.161 E.03435
G1 X122.169 Y112.092 E.17196
M73 Q22 S1
G1 X120.867 Y111.684 E.04278
M73 P22 R1
G1 X120.125 Y110.878 E.03435
G1 X117.442 Y106.094 E.17198
G1 X117.145 Y104.763 E.04276
G1 X117.472 Y103.718 E.03433
G1 X120.273 Y99.002 E.17198
G1 X121.278 Y98.078 E.04281
G1 X122.347 Y97.839 E.03435
G1 X127.831 Y97.908 E.17196
M73 Q23 S1
G1 X129.133 Y98.316 E.04278
M73 P23 R1
G1 X129.875 Y99.122 E.03435
G1 X132.558 Y103.906 E.17198
G1 X132.855 Y105.237 E.04276
G1 X132.528 Y106.282 E.03433
G1 X130.805 Y109.183 E.10579
; printing object hexnut-border.stl id:0 copy 0
;WIPE_START
G1 F8640
G1 X129.727 Y110.998 E-.48744
G1 X128.731 Y111.914 E-.31256
;WIPE_END
G1 Z.8 F720
G1 X129.833 Y105.06 F10800
M73 Q24 S1
G1 Z.4 F720
G1 E.8 F2100
M204 S800
;TYPE:External perimeter
;WIDTH:0.421842
G1 F1317
M73 P24 R1
G1 X129.81 Y105.121 E.00205
;WIDTH:0.399139
G1 X129.795 Y105.148 E.00091
;WIDTH:0.396458
G1 X127.423 Y109.14 E.13651
;WIDTH:0.421842
G1 X127.364 Y109.215 E.00301
G1 X127.269 Y109.227 E.00302
;WIDTH:0.39646
G1 X122.626 Y109.169 E.1365
;WIDTH:0.421842

G1 X122.531 Y109.155 E.00303
G1 X122.474 Y109.079 E.00299

;WIDTH:0.39646
G1 X120.203 Y105.029 E.1365
;WIDTH:0.421843
G1 X120.167 Y104.94 E.00302
G1 X120.205 Y104.852 E.00302
;WIDTH:0.39646
G1 X122.577 Y100.86 E.13651
;WIDTH:0.421842
G1 X122.636 Y100.785 E.00301
M73 Q25 S1
G1 X122.731 Y100.773 E.00302
;WIDTH:0.396459
G1 X127.374 Y100.831 E.1365
;WIDTH:0.421841
G1 X127.469 Y100.845 E.00303
M73 P25 R1
G1 X127.526 Y100.921 E.00299
;WIDTH:0.396459
G1 X129.797 Y104.971 E.1365
;WIDTH:0.421842

G1 X129.811 Y105.004 E.00113

M204 S1000
G1 X130.241 Y105.065 F10800
M204 S800
G1 F1317
G1 X130.099 Y105.329 E.00944
;WIDTH:0.396458
G1 X127.727 Y109.321 E.13651
;WIDTH:0.421842
G1 X127.564 Y109.571 E.0094
G1 X127.265 Y109.58 E.00943
;WIDTH:0.39646
G1 X122.622 Y109.522 E.1365
;WIDTH:0.421842
G1 X122.323 Y109.506 E.00943
G1 X122.166 Y109.252 E.00941
;WIDTH:0.39646
G1 X119.894 Y105.202 E.13651
;WIDTH:0.421843
G1 X119.759 Y104.935 E.00943
M73 Q26 S1
G1 X119.901 Y104.671 E.00944
;WIDTH:0.39646
G1 X122.273 Y100.679 E.13651
;WIDTH:0.421842
G1 X122.436 Y100.429 E.0094
M73 P26 R1
G1 X122.735 Y100.42 E.00943
;WIDTH:0.396459

G1 X123.132 Y100.425 E.01167
G1 X126.982 Y100.473 E.11319
G1 X127.378 Y100.478 E.01164

;WIDTH:0.421841
G1 X127.677 Y100.494 E.00943
G1 X127.834 Y100.748 E.00941
;WIDTH:0.396459
G1 X130.106 Y104.798 E.13651
;WIDTH:0.421842
G1 X130.214 Y105.012 E.00755
M204 S1000
; stop printing object hexnut-border.stl id:0 copy 0
M106 S170.85
;LAYER_CHANGE
;Z:0.6
;HEIGHT:0.2
;BEFORE_LAYER_CHANGE
G92 E0.0
;0.6


;WIPE_START
G1 F8640
G1 X130.099 Y105.329 E-.07786
G1 X128.501 Y108.018 E-.72214
;WIPE_END
G1 Z.8 F720
;AFTER_LAYER_CHANGE
;0.6
G1 X131.364 Y109.718 F10800
M73 Q27 S1
G1 Z.6 F720
G1 E.8 F2100
;TYPE:Skirt/Brim
;WIDTH:0.42
G1 F1318
G1 X130.375 Y111.383 E.06072
G1 X129.26 Y112.489 E.04924
M73 P27 R1
G1 X127.644 Y112.915 E.0524
G1 X122.16 Y112.846 E.17196
G1 X120.645 Y112.434 E.04923
G1 X119.468 Y111.247 E.05241
G1 X116.785 Y106.463 E.17198
G1 X116.384 Y104.945 E.04923
M73 Q28 S1
G1 X116.824 Y103.332 E.05242
G1 X119.625 Y98.617 E.17195
G1 X120.74 Y97.511 E.04924
M73 P28 R1
G1 X122.356 Y97.085 E.0524
G1 X127.84 Y97.154 E.17196
G1 X129.355 Y97.566 E.04923
G1 X130.532 Y98.753 E.05241
G1 X133.215 Y103.537 E.17198
G1 X133.616 Y105.055 E.04923
M73 Q29 S1
G1 X133.176 Y106.668 E.05242
G1 X131.395 Y109.667 E.10936
M73 P29 R1
G1 X131.071 Y109.474 F10800
G1 F1318
G1 X130.051 Y111.191 E.06262
G1 X128.989 Y112.209 E.04613
G1 X127.649 Y112.538 E.04326
G1 X122.164 Y112.469 E.17199
G1 X120.752 Y112.059 E.0461
G1 X119.796 Y111.063 E.04329
G1 X117.113 Y106.279 E.17198
G1 X116.763 Y104.85 E.04613
M73 Q30 S1
G1 X117.148 Y103.525 E.04326
M73 P30 R1
G1 X119.949 Y98.809 E.17198
G1 X121.011 Y97.791 E.04613
G1 X122.351 Y97.462 E.04326
G1 X127.836 Y97.531 E.17199
G1 X129.248 Y97.941 E.0461
G1 X130.204 Y98.937 E.04329
G1 X132.887 Y103.721 E.17198
M73 Q31 S1
G1 X133.237 Y105.15 E.04613
M73 P31 R1
G1 X132.852 Y106.475 E.04326
G1 X131.101 Y109.423 E.10751
G1 X130.777 Y109.23 F10800
G1 F1318
G1 X129.727 Y110.998 E.06447
G1 X128.722 Y111.922 E.04281
G1 X127.653 Y112.161 E.03435
G1 X122.169 Y112.092 E.17196
G1 X120.867 Y111.684 E.04278
G1 X120.125 Y110.878 E.03435
M73 Q32 S1
G1 X117.442 Y106.094 E.17198
G1 X117.145 Y104.763 E.04276
M73 P32 R1
G1 X117.472 Y103.718 E.03433
G1 X120.273 Y99.002 E.17198
G1 X121.278 Y98.078 E.04281
G1 X122.347 Y97.839 E.03435
G1 X127.831 Y97.908 E.17196
G1 X129.133 Y98.316 E.04278
G1 X129.875 Y99.122 E.03435
M73 Q33 S1
G1 X132.558 Y103.906 E.17198
G1 X132.855 Y105.237 E.04276
M73 P33 R1
G1 X132.528 Y106.282 E.03433
G1 X130.808 Y109.178 E.10561
; printing object hexnut-border.stl id:0 copy 0
;WIPE_START
G1 F8640
G1 X129.727 Y110.998 E-.48878
G1 X128.735 Y111.91 E-.31122
;WIPE_END
G1 Z1 F720
G1 X129.833 Y105.06 F10800
G1 Z.6 F720
G1 E.8 F2100
M204 S800
;TYPE:External perimeter
;WIDTH:0.421843
G1 F1318
G1 X129.81 Y105.121 E.00205
;WIDTH:0.39914

G1 X129.795 Y105.148 E.00091

;WIDTH:0.396459
G1 X127.423 Y109.14 E.13651
;WIDTH:0.421842
G1 X127.364 Y109.215 E.00301
M73 Q34 S1
G1 X127.269 Y109.227 E.00302
;WIDTH:0.39646
G1 X122.626 Y109.169 E.1365
;WIDTH:0.421843
G1 X122.531 Y109.155 E.00303
M73 P34 R1
G1 X122.474 Y109.079 E.00299
;WIDTH:0.396461
G1 X120.203 Y105.029 E.1365
;WIDTH:0.421843
G1 X120.167 Y104.94 E.00302
G1 X120.205 Y104.852 E.00302
;WIDTH:0.39646
G1 X122.577 Y100.86 E.13651
;WIDTH:0.421842
G1 X122.636 Y100.785 E.00301
G1 X122.731 Y100.773 E.00302
;WIDTH:0.396459
G1 X127.374 Y100.831 E.1365
;WIDTH:0.421842
G1 X127.469 Y100.845 E.00303
M73 Q35 S1
G1 X127.526 Y100.921 E.00299
;WIDTH:0.39646
G1 X129.797 Y104.971 E.1365
;WIDTH:0.421843
G1 X129.811 Y105.004 E.00113
M204 S1000
G1 X130.241 Y105.065 F10800
M204 S800
G1 F1318
M73 P35 R1
G1 X130.099 Y105.329 E.00944
;WIDTH:0.396459
G1 X127.727 Y109.321 E.13651
;WIDTH:0.421842
G1 X127.564 Y109.571 E.0094
G1 X127.265 Y109.58 E.00943
;WIDTH:0.39646
G1 X122.622 Y109.522 E.1365
;WIDTH:0.421843

G1 X122.323 Y109.506 E.00943
G1 X122.166 Y109.252 E.00941

;WIDTH:0.396461
G1 X119.894 Y105.202 E.13651
;WIDTH:0.421843
G1 X119.759 Y104.935 E.00943
G1 X119.901 Y104.671 E.00944
;WIDTH:0.39646
G1 X122.273 Y100.679 E.13651
;WIDTH:0.421842
G1 X122.436 Y100.429 E.0094
M73 Q36 S1
G1 X122.735 Y100.42 E.00943
;WIDTH:0.396459
G1 X127.378 Y100.478 E.1365
;WIDTH:0.421842
G1 X127.677 Y100.494 E.00943
M73 P36 R1
G1 X127.834 Y100.748 E.00941
;WIDTH:0.39646
G1 X130.106 Y104.798 E.13651
;WIDTH:0.421843
G1 X130.214 Y105.012 E.00755
M204 S1000
; stop printing object hexnut-border.stl id:0 copy 0
M106 S255
;LAYER_CHANGE
;Z:0.8
;HEIGHT:0.2
;BEFORE_LAYER_CHANGE
G92 E0.0
;0.8


;WIPE_START
G1 F8640
G1 X130.099 Y105.329 E-.07786
G1 X128.501 Y108.018 E-.72214
;WIPE_END
G1 Z1 F720
;AFTER_LAYER_CHANGE
;0.8
; printing object hexnut-border.stl id:0 copy 0
G1 X129.833 Y105.06 F10800
G1 Z.8 F720
G1 E.8 F2100
M204 S800
G1 F900
G1 X129.81 Y105.121 E.00205
;WIDTH:0.39914
G1 X129.795 Y105.148 E.00091
;WIDTH:0.396459
G1 X127.423 Y109.14 E.13651
;WIDTH:0.421842
G1 X127.364 Y109.215 E.00301
M73 P37 R1
M73 Q37 S1
G1 X127.269 Y109.227 E.00302
;WIDTH:0.39646
G1 X122.626 Y109.169 E.1365
;WIDTH:0.421843
G1 X122.531 Y109.155 E.00303
G1 X122.474 Y109.079 E.00299
;WIDTH:0.396461
G1 X120.203 Y105.029 E.1365
;WIDTH:0.421843
G1 X120.167 Y104.94 E.00302
G1 X120.205 Y104.852 E.00302
;WIDTH:0.39646
G1 X122.577 Y100.86 E.13651
;WIDTH:0.421842
G1 X122.636 Y100.785 E.00301
M73 Q38 S1
G1 X122.731 Y100.773 E.00302
;WIDTH:0.396459
G1 X127.374 Y100.831 E.1365
;WIDTH:0.421842

G1 X127.469 Y100.845 E.00303
M73 P38 R1
G1 X127.526 Y100.921 E.00299

;WIDTH:0.39646
G1 X129.797 Y104.971 E.1365
;WIDTH:0.421843
G1 X129.811 Y105.004 E.00113
M204 S1000
G1 X130.241 Y105.065 F10800
M204 S800
G1 F900
G1 X130.099 Y105.329 E.00944
;WIDTH:0.396459
G1 X127.727 Y109.321 E.13651
;WIDTH:0.421842

G1 X127.564 Y109.571 E.0094
M73 Q39 S1
G1 X127.265 Y109.58 E.00943

;WIDTH:0.39646

G1 X126.868 Y109.575 E.01167
G1 X123.018 Y109.527 E.11319
G1 X122.622 Y109.522 E.01164

;WIDTH:0.421843
M73 P39 R1
G1 X122.323 Y109.506 E.00943
G1 X122.166 Y109.252 E.00941
;WIDTH:0.396461
G1 X119.894 Y105.202 E.13651
;WIDTH:0.421843
G1 X119.759 Y104.935 E.00943
G1 X119.901 Y104.671 E.00944
;WIDTH:0.39646
G1 X122.273 Y100.679 E.13651
;WIDTH:0.421842
G1 X122.436 Y100.429 E.0094
M73 Q40 S1
G1 X122.735 Y100.42 E.00943
;WIDTH:0.396459
G1 X127.378 Y100.478 E.1365
;WIDTH:0.421842
G1 X127.677 Y100.494 E.00943
M73 P40 R1
G1 X127.834 Y100.748 E.00941
;WIDTH:0.39646
G1 X130.106 Y104.798 E.13651
;WIDTH:0.421843
G1 X130.214 Y105.012 E.00755
M204 S1000
; stop printing object hexnut-border.stl id:0 copy 0
;LAYER_CHANGE
;Z:1
;HEIGHT:0.2
;BEFORE_LAYER_CHANGE
G92 E0.0
;1


;WIPE_START
G1 F8640
G1 X130.099 Y105.329 E-.07786
