; generated by PrusaSlicer 2.6.1+MacOS-arm64 on 2023-11-01 at 16:34:18 UTC


;
;
; 

; external perimeters extrusion width = 0.45mm
; perimeters extrusion width = 0.45mm
; infill extrusion width = 0.45mm
; solid infill extrusion width = 0.45mm
; top infill extrusion width = 0.40mm
; first layer extrusion width = 0.42mm

M73 P0 R49
M73 Q0 S50
M201 X1000 Y1000 Z200 E5000 ; sets maximum accelerations, mm/sec^2
M203 X200 Y200 Z12 E120 ; sets maximum feedrates, mm / sec
M204 S1250 T1250 ; sets acceleration (S) and retract acceleration (R), mm/sec^2
M205 X8.00 Y8.00 Z0.40 E4.50 ; sets the jerk limits, mm/sec
M205 S0 T0 ; sets the minimum extruding and travel feed rate, mm/sec
;TYPE:Custom
M862.3 P "MK3S" ; printer model check
M862.1 P0.4 ; nozzle diameter check
M115 U3.13.1 ; tell printer latest fw version
G90 ; use absolute coordinates
M83 ; extruder relative mode
M104 S215 ; set extruder temp
M140 S60 ; set bed temp
M190 S60 ; wait for bed temp
M109 S215 ; wait for extruder temp
G28 W ; home all without mesh bed level
G80 ; mesh bed leveling

G1 Z0.2 F720
G1 Y-3 F1000 ; go outside print area
G92 E0
G1 X60 E9 F1000 ; intro line
G1 X100 E12.5 F1000 ; intro line

G92 E0
M221 S95

; Don't change E values below. Excessive value can damage the printer.
M907 E430 ; set extruder motor current
G21 ; set units to millimeters
G90 ; use absolute coordinates
M83 ; use relative distances for extrusion
M900 K0.05 ; Filament gcode LA 1.5
M900 K30 ; Filament gcode LA 1.0

M107
;LAYER_CHANGE
;Z:0.2
;HEIGHT:0.2
;BEFORE_LAYER_CHANGE
G92 E0.0
;0.2


G1 E-.8 F2100
G1 Z.4 F720
;AFTER_LAYER_CHANGE
;0.2
G1 X91.082 Y88.04 F10800
G1 Z.2 F720
G1 E.8 F2100
M204 S800
;TYPE:Skirt/Brim
;WIDTH:0.42
G1 F1200
G1 X91.688 Y87.413 E.02734
G1 X92.707 Y86.732 E.03843
G1 X93.823 Y86.317 E.03733
G1 X94.956 Y86.176 E.0358
G1 X152.356 Y85.123 E1.80004
G1 X156.8 Y85.123 E.13934
G1 X158.107 Y85.515 E.04278
G1 X158.741 Y86.128 E.02765
G1 X159.941 Y87.825 E.06517
G1 X160.377 Y89.197 E.04514
G1 X160.377 Y120.803 E.99098
G1 X159.941 Y122.175 E.04514
G1 X158.741 Y123.872 E.06517
G1 X157.667 Y124.714 E.04279
G1 X156.8 Y124.877 E.02766
G1 X152.356 Y124.877 E.13934
G1 X94.883 Y123.821 E1.80233
G1 X93.803 Y123.678 E.03416
M73 Q0 S49
G1 X92.707 Y123.268 E.03669
G1 X91.688 Y122.587 E.03843
G1 X90.816 Y121.652 E.04009
G1 X90.341 Y120.226 E.04713
G1 X90.341 Y89.774 E.9548
G1 X90.816 Y88.348 E.04713
G1 X91.04 Y88.083 E.01088
M204 S1000
; printing object phone-clamp-top.stl id:0 copy 0
;WIPE_START
G1 F8640
G1 X91.688 Y87.413 E-.21522
G1 X92.707 Y86.732 E-.283
G1 X93.823 Y86.317 E-.27493
G1 X93.938 Y86.303 E-.02685
;WIPE_END
G1 Z.6 F720
G1 X152.635 Y97.443 F10800
G1 Z.2 F720
G1 E.8 F2100
M204 S800
;TYPE:Perimeter
;WIDTH:0.419999
G1 F1200
G1 X152.613 Y97.529 E.00278
G1 X152.622 Y112.57 E.4716
G1 X152.734 Y112.821 E.00862
G1 X152.98 Y113.001 E.00956
G1 X153.179 Y113.037 E.00634
G1 X155.55 Y113.037 E.07434
G1 X155.774 Y112.991 E.00717
G1 X156.013 Y112.796 E.00967
G1 X156.913 Y111.511 E.04919
G1 X156.913 Y120.577 E.28426
G1 X156.393 Y121.313 E.02826
G1 X153.089 Y121.313 E.10359
G1 X153.087 Y120.709 E.01894
G1 X152.986 Y120.387 E.01058
G1 X152.749 Y120.192 E.00962
G1 X152.521 Y120.145 E.0073
G1 X95.097 Y120.145 E1.80049
G1 X94.819 Y120.122 E.00875
G1 X94.294 Y119.968 E.01715
G1 X93.887 Y119.675 E.01572
G1 X93.887 Y90.325 E.92025
G1 X94.228 Y90.073 E.01329
G1 X94.583 Y89.931 E.01199
G1 X95.034 Y89.855 E.01434
G1 X152.461 Y89.855 E1.80058
G1 X152.749 Y89.808 E.00915
G1 X152.986 Y89.613 E.00962
G1 X153.087 Y89.291 E.01058
G1 X153.089 Y88.687 E.01894
G1 X156.393 Y88.687 E.10359
G1 X156.913 Y89.423 E.02826
G1 X156.913 Y98.489 E.28426
G1 X156.013 Y97.204 E.04919
G1 X155.774 Y97.009 E.00967
G1 X155.55 Y96.963 E.00717
G1 X153.134 Y96.965 E.07575
G1 X152.882 Y97.047 E.00831
G1 X152.685 Y97.253 E.00894
G1 X152.65 Y97.385 E.00428
M204 S1000
G1 X152.99 Y97.529 F10800
M204 S800
;TYPE:External perimeter
G1 F1200
G1 X152.99 Y112.471 E.4685
G1 X153.03 Y112.588 E.00388
G1 X153.179 Y112.66 E.00519
G1 X155.55 Y112.66 E.07434
G1 X155.704 Y112.58 E.00544
G1 X156.838 Y110.96 E.062
G1 X157.29 Y110.96 E.01417
G1 X157.29 Y120.697 E.3053
G1 X156.588 Y121.69 E.03813
M73 P1 R49
M73 Q1 S49
G1 X152.713 Y121.69 E.1215
G1 X152.71 Y120.71 E.03073
G1 X152.639 Y120.563 E.00512
G1 X152.521 Y120.522 E.00392
G1 X95.097 Y120.522 E1.80049
G1 X94.615 Y120.48 E.01517
G1 X94.244 Y120.35 E.01233
G1 X93.85 Y120.137 E.01404
G1 X93.51 Y119.84 E.01415
G1 X93.51 Y90.16 E.93059
G1 X93.741 Y89.947 E.00985
G1 X94.132 Y89.689 E.01469
G1 X94.615 Y89.52 E.01604
G1 X95.014 Y89.478 E.01258
G1 X152.461 Y89.478 E1.80121
G1 X152.639 Y89.437 E.00573
G1 X152.71 Y89.29 E.00512
G1 X152.713 Y88.31 E.03073
G1 X156.588 Y88.31 E.1215
G1 X157.29 Y89.303 E.03813
G1 X157.29 Y99.34 E.3147
G1 X157.048 Y99.34 E.00759
G1 X155.704 Y97.42 E.07348
G1 X155.55 Y97.34 E.00544
G1 X153.179 Y97.34 E.07434
G1 X153.052 Y97.388 E.00426
G1 X153.014 Y97.474 E.00295
M204 S1000
G1 X152.604 Y97.632 F10800
;WIPE_START
G1 F8640
G1 X153.008 Y100.939 E-.8
;WIPE_END
G1 Z.6 F720
G1 X149.077 Y101.373 F10800
G1 Z.2 F720
G1 E.8 F2100
M204 S800
;TYPE:Perimeter
G1 F1200
G1 X149.087 Y108.566 E.22553
G1 X149.056 Y108.75 E.00585
G1 X148.973 Y108.907 E.00557
G1 X148.736 Y109.089 E.00937
G1 X148.521 Y109.132 E.00687
G1 X103.125 Y109.132 E1.42336
G1 X101.616 Y110.64 E.06689
G1 X101.392 Y110.778 E.00825
G1 X101.216 Y110.806 E.00559
G1 X96.279 Y110.806 E.1548
G1 X96.12 Y110.783 E.00504
G1 X95.939 Y110.693 E.00634
G1 X95.779 Y110.506 E.00772
G1 X95.713 Y110.24 E.00859
G1 X95.713 Y99.76 E.32859
G1 X95.779 Y99.494 E.00859
G1 X95.939 Y99.307 E.00772
G1 X96.12 Y99.217 E.00634
G1 X96.279 Y99.194 E.00504
G1 X101.216 Y99.194 E.1548
G1 X101.473 Y99.256 E.00829
G1 X101.616 Y99.36 E.00554
G1 X103.125 Y100.868 E.06689
G1 X148.521 Y100.868 E1.42336
G1 X148.736 Y100.911 E.00687
G1 X148.973 Y101.093 E.00937
G1 X149.056 Y101.25 E.00557
G1 X149.067 Y101.314 E.00204
M204 S1000
G1 X148.71 Y101.434 F10800
M204 S800
;TYPE:External perimeter
G1 F1200
G1 X148.71 Y108.566 E.22362
G1 X148.634 Y108.717 E.0053
G1 X148.521 Y108.754 E.00373
G1 X102.968 Y108.754 E1.42828
G1 X101.349 Y110.374 E.07181
G1 X101.216 Y110.429 E.00451
G1 X96.279 Y110.429 E.1548
G1 X96.165 Y110.391 E.00377
G1 X96.09 Y110.24 E.00529
G1 X96.09 Y99.76 E.32859
G1 X96.165 Y99.609 E.00529
G1 X96.279 Y99.571 E.00377
G1 X101.216 Y99.571 E.1548
G1 X101.349 Y99.626 E.00451
G1 X102.968 Y101.246 E.07181
G1 X148.521 Y101.246 E1.42828
G1 X148.672 Y101.32 E.00527
M73 P1 R48
G1 X148.691 Y101.377 E.00188
M204 S1000
G1 X149.096 Y101.538 F10800
;WIPE_START
G1 F8640
G1 X148.7 Y104.842 E-.8
;WIPE_END
G1 Z.6 F720
G1 X156.743 Y90.069 F10800
G1 Z.2 F720
G1 E.8 F2100
M204 S800
;TYPE:Solid infill
;WIDTH:0.421063
G1 F1200
G1 X155.701 Y89.026 E.04636
G1 X155.166 Y89.026 E.01682
G1 X156.574 Y90.434 E.06261
G1 X156.574 Y90.969 E.01682
G1 X154.631 Y89.026 E.0864
G1 X154.096 Y89.026 E.01682
G1 X156.574 Y91.504 E.11019
G1 X156.574 Y92.038 E.01679
G1 X153.562 Y89.026 E.13393
G1 X153.427 Y89.026 E.00424
G1 X153.426 Y89.315 E.00909
G1 X153.4 Y89.399 E.00276
G1 X156.574 Y92.573 E.14114
G1 X156.574 Y93.108 E.01682
G1 X153.269 Y89.804 E.14694
G1 X153.086 Y89.999 E.00841
G1 X152.989 Y90.058 E.00357
G1 X156.574 Y93.643 E.15941
G1 X156.574 Y94.177 E.01679
G1 X152.585 Y90.189 E.17736
G1 X152.056 Y90.195 E.01663
G1 X156.574 Y94.712 E.20088
G1 X156.574 Y95.247 E.01682
G1 X151.521 Y90.195 E.22467
G1 X150.987 Y90.195 E.01679
G1 X156.574 Y95.782 E.24844
G1 X156.574 Y96.316 E.01679
G1 X150.452 Y90.195 E.2722
G1 X149.917 Y90.195 E.01682
G1 X156.574 Y96.851 E.29599
G1 X156.574 Y97.386 E.01682
G1 X149.382 Y90.195 E.31978
G1 X148.847 Y90.195 E.01682
G1 X155.278 Y96.625 E.28594
G1 X154.745 Y96.627 E.01676
G1 X148.313 Y90.195 E.28601
G1 X147.778 Y90.195 E.01682
G1 X154.213 Y96.63 E.28614
G1 X153.68 Y96.632 E.01676
G1 X147.243 Y90.195 E.28623
G1 X146.708 Y90.195 E.01682
G1 X153.148 Y96.634 E.28634
G1 X153.028 Y96.635 E.00377
M73 P2 R48
M73 Q2 S49
G1 X152.86 Y96.681 E.00548
G1 X152.725 Y96.747 E.00472
G1 X146.174 Y90.195 E.29132
G1 X145.639 Y90.195 E.01682
G1 X152.446 Y97.002 E.30268
G1 X152.33 Y97.207 E.00741
G1 X152.297 Y97.388 E.00578
G1 X145.104 Y90.195 E.31985
G1 X144.569 Y90.195 E.01682
G1 X152.274 Y97.899 E.34259
G1 X152.274 Y98.434 E.01682
G1 X144.034 Y90.195 E.36638
G1 X143.5 Y90.195 E.01679
G1 X152.275 Y98.97 E.3902
G1 X152.275 Y99.505 E.01682
G1 X142.965 Y90.195 E.41399
G1 X142.43 Y90.195 E.01682
G1 X152.275 Y100.04 E.43777
G1 X152.276 Y100.575 E.01682
G1 X141.895 Y90.195 E.46159
G1 X141.361 Y90.195 E.01679
G1 X152.276 Y101.11 E.48535
G1 X152.277 Y101.646 E.01685
G1 X140.826 Y90.195 E.50919
G1 X140.291 Y90.195 E.01682
G1 X152.277 Y102.181 E.53298
G1 X152.278 Y102.716 E.01682
G1 X139.756 Y90.195 E.55679
G1 X139.221 Y90.195 E.01682
G1 X152.278 Y103.251 E.58058
G1 X152.278 Y103.786 E.01682
G1 X138.687 Y90.195 E.60435
G1 X138.152 Y90.195 E.01682
G1 X148.498 Y100.541 E.46005
G1 X148.674 Y100.541 E.00553
G1 X148.866 Y100.596 E.00628
G1 X149.063 Y100.707 E.00711
G1 X149.245 Y100.888 E.00807
G1 X149.379 Y101.139 E.00895
G1 X149.426 Y101.469 E.01048
G1 X152.279 Y104.322 E.12686
G1 X152.279 Y104.857 E.01682
G1 X149.426 Y102.003 E.12689
G1 X149.425 Y102.537 E.01679
G1 X152.28 Y105.392 E.12695
G1 X152.28 Y105.927 E.01682
G1 X149.424 Y103.071 E.127
G1 X149.423 Y103.605 E.01679
G1 X152.28 Y106.462 E.12704
G1 X152.281 Y106.997 E.01682
G1 X149.422 Y104.139 E.12711
G1 X149.421 Y104.673 E.01679
G1 X152.281 Y107.533 E.12717
G1 X152.282 Y108.068 E.01682
G1 X149.421 Y105.207 E.12722
G1 X149.42 Y105.741 E.01679
G1 X152.282 Y108.603 E.12726
G1 X152.282 Y109.138 E.01682
G1 X149.419 Y106.275 E.12731
G1 X149.418 Y106.809 E.01679
G1 X152.283 Y109.673 E.12737
G1 X152.283 Y110.209 E.01685
G1 X149.417 Y107.343 E.12744
G1 X149.416 Y107.876 E.01676
G1 X152.284 Y110.744 E.12753
G1 X152.284 Y111.279 E.01682
M73 Q2 S48
G1 X149.416 Y108.41 E.12755
G1 X149.415 Y108.716 E.00962
G1 X149.363 Y108.892 E.00577
G1 X152.454 Y111.984 E.13747
M204 S1000
;WIPE_START
G1 F8640
G1 X150.005 Y109.534 E-.8
;WIPE_END
G1 Z.6 F720
G1 X156.325 Y112.646 F10800
G1 Z.2 F720
G1 E.8 F2100
M204 S800
G1 F1200
G1 X156.574 Y112.895 E.01107
G1 X156.574 Y113.429 E.01679
G1 X156.209 Y113.065 E.01621
G1 X155.914 Y113.304 E.01194
G1 X156.574 Y113.964 E.02935
G1 X156.574 Y114.499 E.01682
G1 X155.451 Y113.376 E.04994
G1 X154.914 Y113.374 E.01688
G1 X156.574 Y115.034 E.07381
G1 X156.574 Y115.568 E.01679
G1 X154.377 Y113.372 E.09767
G1 X153.84 Y113.37 E.01688
G1 X156.574 Y116.103 E.12155
G1 X156.574 Y116.638 E.01682
G1 X153.303 Y113.368 E.14543
G1 X153.039 Y113.367 E.0083
G1 X152.861 Y113.32 E.00579
G1 X152.705 Y113.243 E.00547
G1 X152.568 Y113.141 E.00537
G1 X152.386 Y112.913 E.00917
G1 X152.285 Y112.629 E.00948
G1 X152.285 Y112.349 E.0088
G1 X149.146 Y109.21 E.13958
G1 X149.063 Y109.293 E.00369
G1 X148.818 Y109.418 E.00865
G1 X156.574 Y117.173 E.34486
G1 X156.574 Y117.707 E.01679
G1 X148.337 Y109.471 E.36625
G1 X147.802 Y109.471 E.01682
G1 X156.574 Y118.242 E.39004
G1 X156.574 Y118.777 E.01682
G1 X147.267 Y109.471 E.41383
G1 X146.733 Y109.471 E.01679
G1 X156.574 Y119.312 E.4376
G1 X156.574 Y119.847 E.01682
G1 X146.198 Y109.471 E.46139
G1 X145.663 Y109.471 E.01682
G1 X156.574 Y120.381 E.48515
G1 X156.574 Y120.469 E.00277
G1 X156.388 Y120.731 E.0101
G1 X145.128 Y109.471 E.5007
G1 X144.594 Y109.471 E.01679
G1 X156.096 Y120.974 E.51148
G1 X155.561 Y120.974 E.01682
G1 X144.059 Y109.471 E.51148
G1 X143.524 Y109.471 E.01682
G1 X155.027 Y120.974 E.5115
G1 X154.492 Y120.974 E.01682
G1 X142.989 Y109.471 E.5115
G1 X142.454 Y109.471 E.01682
G1 X154.127 Y121.143 E.51904
M204 S1000
;WIPE_START
G1 F8640
G1 X151.677 Y118.693 E-.8
;WIPE_END
G1 Z.6 F720
G1 X152.424 Y119.975 F10800
G1 Z.2 F720
G1 E.8 F2100
M204 S800
G1 F1200
G1 X141.92 Y109.471 E.46708
G1 X141.385 Y109.471 E.01682
G1 X151.719 Y119.805 E.45952
G1 X151.185 Y119.805 E.01679
G1 X140.85 Y109.471 E.45954
G1 X140.315 Y109.471 E.01682
M73 P3 R48
M73 Q3 S48
G1 X150.65 Y119.805 E.45954
G1 X150.115 Y119.805 E.01682
G1 X139.781 Y109.471 E.45952
G1 X139.246 Y109.471 E.01682
G1 X149.58 Y119.805 E.45952
G1 X149.045 Y119.805 E.01682
G1 X138.711 Y109.471 E.45952
G1 X138.176 Y109.471 E.01682
G1 X148.511 Y119.805 E.45954
G1 X147.976 Y119.805 E.01682
G1 X137.642 Y109.471 E.45952
G1 X137.107 Y109.471 E.01682
G1 X147.441 Y119.805 E.45952
G1 X146.906 Y119.805 E.01682
G1 X136.572 Y109.471 E.45952
G1 X136.037 Y109.471 E.01682
G1 X146.372 Y119.805 E.45954
G1 X145.837 Y119.805 E.01682
G1 X135.502 Y109.471 E.45954
G1 X134.968 Y109.471 E.01679
G1 X145.302 Y119.805 E.45952
G1 X144.767 Y119.805 E.01682
G1 X134.433 Y109.471 E.45952
G1 X133.898 Y109.471 E.01682
G1 X144.232 Y119.805 E.45952
G1 X143.698 Y119.805 E.01679
G1 X133.363 Y109.471 E.45954
G1 X132.829 Y109.471 E.01679
G1 X143.163 Y119.805 E.45952
G1 X142.628 Y119.805 E.01682
G1 X132.294 Y109.471 E.45952
G1 X131.759 Y109.471 E.01682
G1 X142.093 Y119.805 E.45952
G1 X141.559 Y119.805 E.01679
G1 X131.224 Y109.471 E.45954
G1 X130.689 Y109.471 E.01682
G1 X141.024 Y119.805 E.45954
G1 X140.489 Y119.805 E.01682
G1 X130.155 Y109.471 E.45952
G1 X129.62 Y109.471 E.01682
G1 X139.954 Y119.805 E.45952
G1 X139.419 Y119.805 E.01682
G1 X129.085 Y109.471 E.45952
G1 X128.55 Y109.471 E.01682
G1 X138.885 Y119.805 E.45954
G1 X138.35 Y119.805 E.01682
G1 X128.016 Y109.471 E.45952
G1 X127.481 Y109.471 E.01682
G1 X137.815 Y119.805 E.45952
G1 X137.28 Y119.805 E.01682
G1 X126.946 Y109.471 E.45952
G1 X126.411 Y109.471 E.01682
G1 X136.746 Y119.805 E.45954
G1 X136.211 Y119.805 E.01682
M73 P3 R47
G1 X125.876 Y109.471 E.45954
G1 X125.342 Y109.471 E.01679
G1 X135.676 Y119.805 E.45952
G1 X135.141 Y119.805 E.01682
G1 X124.807 Y109.471 E.45952
G1 X124.272 Y109.471 E.01682
G1 X134.606 Y119.805 E.45952
G1 X134.072 Y119.805 E.01679
G1 X123.737 Y109.471 E.45954
G1 X123.203 Y109.471 E.01679
G1 X133.537 Y119.805 E.45952
G1 X133.002 Y119.805 E.01682
G1 X122.668 Y109.471 E.45952
G1 X122.133 Y109.471 E.01682
G1 X132.467 Y119.805 E.45952
G1 X131.933 Y119.805 E.01679
G1 X121.598 Y109.471 E.45954
G1 X121.063 Y109.471 E.01682
G1 X131.398 Y119.805 E.45954
G1 X130.863 Y119.805 E.01682
G1 X120.529 Y109.471 E.45952
G1 X119.994 Y109.471 E.01682
G1 X130.328 Y119.805 E.45952
G1 X129.794 Y119.805 E.01679
M73 P4 R47
G1 X119.459 Y109.471 E.45954
M73 Q4 S48
G1 X118.924 Y109.471 E.01682
G1 X129.259 Y119.805 E.45954
G1 X128.724 Y119.805 E.01682
G1 X118.39 Y109.471 E.45952
G1 X117.855 Y109.471 E.01682
G1 X128.189 Y119.805 E.45952
G1 X127.654 Y119.805 E.01682
G1 X117.32 Y109.471 E.45952
G1 X116.785 Y109.471 E.01682
G1 X127.12 Y119.805 E.45954
G1 X126.585 Y119.805 E.01682
G1 X116.251 Y109.471 E.45952
G1 X115.716 Y109.471 E.01682
G1 X126.05 Y119.805 E.45952
G1 X125.515 Y119.805 E.01682
G1 X115.181 Y109.471 E.45952
G1 X114.646 Y109.471 E.01682
G1 X124.981 Y119.805 E.45954
G1 X124.446 Y119.805 E.01682
G1 X114.111 Y109.471 E.45954
G1 X113.577 Y109.471 E.01679
G1 X123.911 Y119.805 E.45952
G1 X123.376 Y119.805 E.01682
G1 X113.042 Y109.471 E.45952
G1 X112.507 Y109.471 E.01682
G1 X122.841 Y119.805 E.45952
G1 X122.307 Y119.805 E.01679
G1 X111.972 Y109.471 E.45954
G1 X111.438 Y109.471 E.01679
G1 X121.772 Y119.805 E.45952
G1 X121.237 Y119.805 E.01682
G1 X110.903 Y109.471 E.45952
G1 X110.368 Y109.471 E.01682
G1 X120.702 Y119.805 E.45952
G1 X120.168 Y119.805 E.01679
G1 X109.833 Y109.471 E.45954
G1 X109.298 Y109.471 E.01682
G1 X119.633 Y119.805 E.45954
M73 Q4 S47
G1 X119.098 Y119.805 E.01682
G1 X108.764 Y109.471 E.45952
G1 X108.229 Y109.471 E.01682
G1 X118.563 Y119.805 E.45952
G1 X118.028 Y119.805 E.01682
G1 X107.694 Y109.471 E.45952
G1 X107.159 Y109.471 E.01682
G1 X117.494 Y119.805 E.45954
G1 X116.959 Y119.805 E.01682
G1 X106.625 Y109.471 E.45952
G1 X106.09 Y109.471 E.01682
G1 X116.424 Y119.805 E.45952
G1 X115.889 Y119.805 E.01682
G1 X105.555 Y109.471 E.45952
G1 X105.02 Y109.471 E.01682
G1 X115.355 Y119.805 E.45954
G1 X114.82 Y119.805 E.01682
G1 X104.485 Y109.471 E.45954
G1 X103.951 Y109.471 E.01679
G1 X114.285 Y119.805 E.45952
G1 X113.75 Y119.805 E.01682
G1 X103.416 Y109.471 E.45952
G1 X103.265 Y109.471 E.00475
G1 X103.073 Y109.663 E.00854
