; generated by PrusaSlicer 2.6.1+MacOS-arm64 on 2023-11-01 at 15:28:44 UTC


;
;
; 

; external perimeters extrusion width = 0.45mm
; perimeters extrusion width = 0.45mm
; infill extrusion width = 0.45mm
; solid infill extrusion width = 0.45mm
; top infill extrusion width = 0.40mm
; first layer extrusion width = 0.42mm

M73 P0 R4
M73 Q0 S4
M201 X1000 Y1000 Z200 E5000 ; sets maximum accelerations, mm/sec^2
M203 X200 Y200 Z12 E120 ; sets maximum feedrates, mm / sec
M204 S1250 T1250 ; sets acceleration (S) and retract acceleration (R), mm/sec^2
M205 X8.00 Y8.00 Z0.40 E4.50 ; sets the jerk limits, mm/sec
M205 S0 T0 ; sets the minimum extruding and travel feed rate, mm/sec
;TYPE:Custom
M862.3 P "MK3S" ; printer model check
M862.1 P0.4 ; nozzle diameter check
M115 U3.13.1 ; tell printer latest fw version
G90 ; use absolute coordinates
M83 ; extruder relative mode
M104 S215 ; set extruder temp
M140 S60 ; set bed temp
M190 S60 ; wait for bed temp
M109 S215 ; wait for extruder temp
G28 W ; home all without mesh bed level
G80 ; mesh bed leveling

G1 Z0.2 F720
G1 Y-3 F1000 ; go outside print area
G92 E0
G1 X60 E9 F1000 ; intro line
G1 X100 E12.5 F1000 ; intro line

G92 E0
M221 S95

; Don't change E values below. Excessive value can damage the printer.
M907 E430 ; set extruder motor current
G21 ; set units to millimeters
G90 ; use absolute coordinates
M83 ; use relative distances for extrusion
M900 K0.05 ; Filament gcode LA 1.5
M900 K30 ; Filament gcode LA 1.0

M107
;LAYER_CHANGE
;Z:0.2
;HEIGHT:0.2
;BEFORE_LAYER_CHANGE
G92 E0.0
;0.2


M73 P1 R4
M73 Q1 S4
G1 E-.8 F2100
M73 P2 R4
M73 Q2 S4
G1 Z.4 F720
;AFTER_LAYER_CHANGE
;0.2
G1 X117.097 Y97.097 F10800
G1 Z.2 F720
G1 E.8 F2100
M204 S800
;TYPE:Skirt/Brim
;WIDTH:0.42
G1 F1200
G1 X118.677 Y95.784 E.06441
G1 X119.778 Y95.118 E.04035
G1 X120.841 Y94.625 E.03674
G1 X122.922 Y94.017 E.06798
G1 X124.967 Y93.823 E.06441
G1 X126.252 Y93.892 E.04035
G1 X127.409 Y94.084 E.03677
M73 Q3 S4
G1 X129.471 Y94.754 E.06798
G1 X131.229 Y95.717 E.06285
G1 X132.167 Y96.42 E.03675
G1 X133.14 Y97.337 E.04192
G1 X134.377 Y98.913 E.06282
M73 P3 R4
G1 X135.376 Y100.837 E.06797
G1 X135.953 Y102.757 E.06286
G1 X136.127 Y103.916 E.03675
G1 X136.177 Y105.252 E.04192
G1 X135.953 Y107.243 E.06282
G1 X135.314 Y109.315 E.06799
G1 X134.377 Y111.087 E.06285
G1 X133.688 Y112.036 E.03677
G1 X132.786 Y113.022 E.0419
G1 X131.229 Y114.283 E.06282
G1 X129.319 Y115.311 E.06801
G1 X127.409 Y115.916 E.06282
G1 X126.252 Y116.108 E.03677
G1 X124.917 Y116.178 E.04192
G1 X122.923 Y115.983 E.06282
G1 X120.841 Y115.375 E.06801
G1 X119.056 Y114.466 E.06281
G1 X117.968 Y113.688 E.04194
G1 X117.097 Y112.903 E.03676
G1 X115.72 Y111.229 E.06796
G1 X115.118 Y110.222 E.03679
G1 X114.661 Y109.238 E.03402
G1 X114.296 Y108.216 E.03403
G1 X114.018 Y107.077 E.03676
G1 X113.824 Y104.918 E.06797
G1 X114.018 Y102.923 E.06285
G1 X114.296 Y101.784 E.03676
M73 Q4 S4
G1 X114.757 Y100.529 E.04192
G1 X115.72 Y98.771 E.06285
G1 X117.059 Y97.143 E.06609
M204 S1000
G1 X117.348 Y97.381 F10800
M204 S800
M73 P4 R4
G1 F1200
G1 X118.843 Y96.127 E.06118
G1 X119.821 Y95.522 E.03606
G1 X120.99 Y94.972 E.04051
G1 X122.984 Y94.389 E.06514
G1 X124.962 Y94.2 E.0623
G1 X126.202 Y94.266 E.03893
G1 X127.336 Y94.454 E.03604
G1 X129.312 Y95.096 E.06514
G1 X131.011 Y96.025 E.06071
G1 X131.932 Y96.715 E.03608
G1 X132.871 Y97.601 E.04048
G1 X134.066 Y99.125 E.06072
G1 X135.023 Y100.97 E.06517
G1 X135.582 Y102.824 E.06072
G1 X135.753 Y103.961 E.03605
G1 X135.8 Y105.252 E.04051
G1 X135.582 Y107.176 E.06071
G1 X134.969 Y109.162 E.06517
G1 X134.066 Y110.875 E.06072
G1 X133.39 Y111.805 E.03605
G1 X132.517 Y112.758 E.04052
G1 X131.011 Y113.975 E.06071
G1 X129.182 Y114.96 E.06513
G1 X127.336 Y115.546 E.06073
G1 X126.202 Y115.734 E.03604
G1 X124.911 Y115.801 E.04053
G1 X122.984 Y115.611 E.06071
G1 X120.99 Y115.028 E.06514
G1 X119.263 Y114.151 E.06073
M73 Q5 S4
G1 X118.323 Y113.489 E.03605
G1 X117.357 Y112.631 E.04051
G1 X116.038 Y111.026 E.06514
G1 X115.448 Y110.039 E.03605
M73 P5 R4
G1 X115.01 Y109.095 E.03263
G1 X114.66 Y108.116 E.0326
G1 X114.387 Y106.999 E.03605
G1 X114.201 Y104.929 E.06516
G1 X114.387 Y103.001 E.06073
G1 X114.702 Y101.748 E.04051
G1 X115.106 Y100.672 E.03604
G1 X116.038 Y98.974 E.06073
G1 X117.31 Y97.427 E.0628
M204 S1000
; printing object robotClamp_pad.stl id:0 copy 0
;WIPE_START
G1 F8640
G1 X118.843 Y96.127 E-.46411
G1 X119.821 Y95.522 E-.26554
G1 X120.097 Y95.392 E-.07035
;WIPE_END
G1 Z.6 F720
G1 X118.226 Y108.522 F10800
G1 Z.2 F720
G1 E.8 F2100
M204 S800
;TYPE:Perimeter
;WIDTH:0.419999
G1 F1200
G1 X117.775 Y107.459 E.03621
G1 X117.583 Y106.813 E.02113
G1 X117.42 Y105.912 E.02871
G1 X117.38 Y105.246 E.02092
G1 X117.382 Y104.509 E.02311
G1 X117.488 Y103.637 E.02754
G1 X117.704 Y102.749 E.02865
G1 X118.025 Y101.894 E.02863
G1 X118.446 Y101.083 E.02865
G1 X118.961 Y100.328 E.02866
G1 X119.562 Y99.641 E.02862
G1 X120.057 Y99.194 E.02091
G1 X120.634 Y98.736 E.0231
G1 X121.383 Y98.275 E.02758
G1 X122.212 Y97.891 E.02865
G1 X123.081 Y97.609 E.02865
G1 X123.976 Y97.433 E.0286
G1 X124.93 Y97.365 E.02999
G1 X125.8 Y97.405 E.02731
G1 X126.701 Y97.555 E.02864
G1 X127.578 Y97.811 E.02865
G1 X128.418 Y98.17 E.02864
G1 X129.209 Y98.627 E.02864
G1 X129.94 Y99.174 E.02863
G1 X130.6 Y99.806 E.02865
M73 Q6 S4
G1 X131.18 Y100.511 E.02862
G1 X131.672 Y101.281 E.02865
G1 X132.068 Y102.104 E.02864
G1 X132.363 Y102.968 E.02863
G1 X132.553 Y103.862 E.02866
G1 X132.635 Y104.772 E.02865
G1 X132.608 Y105.685 E.02864
G1 X132.509 Y106.344 E.02089
M73 P6 R4
G1 X132.354 Y107.064 E.02309
G1 X132.068 Y107.896 E.02758
G1 X131.672 Y108.719 E.02864
G1 X131.18 Y109.489 E.02865
G1 X130.6 Y110.194 E.02862
G1 X129.94 Y110.826 E.02865
G1 X129.209 Y111.373 E.02863
G1 X128.418 Y111.83 E.02864
G1 X127.578 Y112.189 E.02864
G1 X126.701 Y112.445 E.02865
G1 X125.8 Y112.595 E.02864
G1 X124.888 Y112.636 E.02862
G1 X123.977 Y112.568 E.02864
G1 X123.081 Y112.391 E.02864
G1 X122.212 Y112.109 E.02865
G1 X121.383 Y111.725 E.02865
G1 X120.606 Y111.245 E.02864
G1 X119.893 Y110.676 E.0286
G1 X119.224 Y109.991 E.03002
G1 X118.692 Y109.302 E.02729
G1 X118.257 Y108.574 E.02659
M204 S1000
G1 X117.889 Y108.693 F10800
M204 S800
;TYPE:External perimeter
G1 F1200
G1 X117.42 Y107.586 E.0377
G1 X117.216 Y106.901 E.02241
G1 X117.045 Y105.957 E.03008
G1 X116.987 Y104.998 E.03012
G1 X117.005 Y104.48 E.01625
G1 X117.116 Y103.569 E.02877
G1 X117.343 Y102.638 E.03005
G1 X117.68 Y101.74 E.03007
G1 X118.122 Y100.889 E.03007
G1 X118.662 Y100.097 E.03006
G1 X119.292 Y99.375 E.03004
G1 X120.007 Y98.732 E.03015
G1 X120.423 Y98.424 E.01623
G1 X121.204 Y97.942 E.02878
G1 X122.074 Y97.539 E.03006
G1 X122.986 Y97.243 E.03006
G1 X123.926 Y97.058 E.03004
G1 X124.926 Y96.987 E.03143
G1 X125.839 Y97.029 E.02866
G1 X126.785 Y97.186 E.03007
G1 X127.705 Y97.455 E.03005
G1 X128.587 Y97.832 E.03007
G1 X129.417 Y98.311 E.03005
G1 X130.184 Y98.886 E.03006
G1 X130.877 Y99.549 E.03007
G1 X131.486 Y100.289 E.03005
G1 X132.002 Y101.097 E.03006
G1 X132.418 Y101.961 E.03007
G1 X132.728 Y102.868 E.03005
M73 Q7 S4
G1 X132.927 Y103.806 E.03006
G1 X133.013 Y104.76 E.03003
G1 X132.984 Y105.718 E.03005
G1 X132.841 Y106.669 E.03015
G1 X132.716 Y107.171 E.01622
G1 X132.418 Y108.039 E.02877
G1 X132.002 Y108.903 E.03007
G1 X131.486 Y109.711 E.03006
M73 P7 R4
G1 X130.877 Y110.451 E.03005
G1 X130.184 Y111.114 E.03007
G1 X129.417 Y111.689 E.03006
G1 X128.587 Y112.168 E.03005
G1 X127.705 Y112.545 E.03007
G1 X126.785 Y112.814 E.03005
G1 X125.84 Y112.971 E.03004
G1 X124.882 Y113.014 E.03007
G1 X123.926 Y112.942 E.03006
G1 X122.986 Y112.757 E.03004
G1 X122.074 Y112.461 E.03006
G1 X121.204 Y112.058 E.03006
G1 X120.389 Y111.554 E.03005
G1 X119.639 Y110.956 E.03008
G1 X118.938 Y110.239 E.03144
G1 X118.38 Y109.515 E.02866
G1 X117.92 Y108.745 E.02812
M204 S1000
G1 X118.109 Y108.359 F10800
;WIPE_START
G1 F8640
G1 X117.42 Y107.586 E-.29146
G1 X117.216 Y106.901 E-.16503
G1 X117.045 Y105.957 E-.22152
G1 X117.013 Y105.43 E-.12199
;WIPE_END
G1 Z.6 F720
G1 X129.027 Y98.717 F10800
G1 Z.2 F720
G1 E.8 F2100
M204 S800
;TYPE:Solid infill
;WIDTH:0.426401
G1 F1200
G1 X130.371 Y100.061 E.06061
G1 X130.905 Y100.711 E.02682
G1 X131.375 Y101.447 E.02785
G1 X131.525 Y101.757 E.01098
G1 X128.223 Y98.455 E.1489
G1 X127.463 Y98.131 E.02634
G1 X127.311 Y98.087 E.00505
G1 X131.907 Y102.682 E.20723
G1 X132.036 Y103.059 E.01271
G1 X132.115 Y103.433 E.01219
G1 X126.557 Y97.875 E.25063
G1 X125.907 Y97.767 E.02101
M73 P8 R4
M73 Q8 S4
G1 X132.233 Y104.093 E.28527
G1 X132.287 Y104.689 E.01908
G1 X125.321 Y97.722 E.31415
G1 X124.935 Y97.705 E.01232
G1 X124.772 Y97.716 E.00521
G1 X132.282 Y105.226 E.33866
G1 X132.256 Y105.743 E.01651
G1 X124.266 Y97.752 E.36033
G1 X124.021 Y97.77 E.00783
G1 X123.787 Y97.816 E.0076
G1 X132.185 Y106.214 E.3787
G1 X132.102 Y106.673 E.01487
M73 P9 R4
M73 Q9 S4
G1 X123.334 Y97.905 E.39539
G1 X123.166 Y97.938 E.00546
G1 X122.908 Y98.022 E.00865
G1 X131.984 Y107.097 E.40925
G1 X131.845 Y107.501 E.01362
G1 X122.499 Y98.155 E.42145
G1 X122.113 Y98.311 E.01328
G1 X131.694 Y107.892 E.43205
G1 X131.517 Y108.258 E.01296
M73 P10 R3
M73 Q10 S4
G1 X121.742 Y98.483 E.4408
G1 X121.388 Y98.671 E.01278
M73 Q10 S3
G1 X131.334 Y108.617 E.44851
G1 X131.123 Y108.948 E.01252
G1 X121.052 Y98.877 E.45415
G1 X120.724 Y99.092 E.01251
M73 Q11 S3
G1 X130.911 Y109.279 E.45938
G1 X130.668 Y109.578 E.01229
M73 P11 R3
G1 X120.417 Y99.327 E.46226
G1 X120.132 Y99.584 E.01224
G1 X130.423 Y109.875 E.46407
G1 X130.155 Y110.15 E.01224
G1 X119.846 Y99.841 E.46488
G1 X119.589 Y100.125 E.01221
M73 P12 R3
M73 Q12 S3
G1 X129.878 Y110.415 E.464
G1 X129.587 Y110.666 E.01225
G1 X119.336 Y100.415 E.46226
G1 X119.102 Y100.723 E.01233
G1 X129.277 Y110.898 E.45884
G1 X128.961 Y111.125 E.01241
M73 Q13 S3
G1 X118.882 Y101.046 E.45451
G1 X118.738 Y101.257 E.00815
M73 P13 R3
G1 X118.674 Y101.38 E.00442
G1 X128.617 Y111.323 E.44837
G1 X128.273 Y111.522 E.01267
G1 X118.489 Y101.737 E.44123
G1 X118.31 Y102.101 E.01293
G1 X127.894 Y111.685 E.43218
G1 X127.514 Y111.847 E.01317
M73 P14 R3
M73 Q14 S3
G1 X118.162 Y102.495 E.42172
G1 X118.018 Y102.894 E.01353
G1 X127.1 Y111.975 E.40953
G1 X126.68 Y112.098 E.01395
G1 X117.912 Y103.33 E.39539
G1 X117.813 Y103.773 E.01447
G1 X126.221 Y112.181 E.37915
G1 X125.755 Y112.257 E.01506
M73 P15 R3
M73 Q15 S3
G1 X117.754 Y104.257 E.36078
G1 X117.712 Y104.757 E.016
G1 X125.236 Y112.281 E.33929
G1 X124.893 Y112.296 E.01095
G1 X124.694 Y112.281 E.00636
G1 X117.724 Y105.311 E.31431
G1 X117.761 Y105.89 E.0185
G1 X124.108 Y112.237 E.28621
G1 X123.445 Y112.117 E.02148
G1 X117.881 Y106.553 E.25091
G1 X117.914 Y106.734 E.00587
M73 P16 R3
M73 Q16 S3
G1 X118.081 Y107.295 E.01866
G1 X122.695 Y111.909 E.20807
G1 X122.336 Y111.792 E.01204
G1 X121.777 Y111.533 E.01964
G1 X118.469 Y108.225 E.14917
G1 X118.53 Y108.368 E.00496
G1 X118.973 Y109.111 E.02758
G1 X119.48 Y109.768 E.02646
G1 X120.974 Y111.273 E.06762
M204 S1000
; stop printing object robotClamp_pad.stl id:0 copy 0
M106 S84.15
;LAYER_CHANGE
;Z:0.4
;HEIGHT:0.2
;BEFORE_LAYER_CHANGE
G92 E0.0
;0.4


;WIPE_START
G1 F8640
G1 X119.48 Y109.768 E-.48966
G1 X118.973 Y109.111 E-.19162
G1 X118.71 Y108.669 E-.11872
;WIPE_END
G1 Z.6 F720
;AFTER_LAYER_CHANGE
;0.4
M104 S210 ; set temperature
G1 X115.38 Y110.659 F10800
G1 Z.4 F720
G1 E.8 F2100
;TYPE:Skirt/Brim
;WIDTH:0.42
G1 F3000
G1 X115.118 Y110.222 E.01598
G1 X114.661 Y109.238 E.03402
G1 X114.296 Y108.216 E.03403
G1 X114.018 Y107.077 E.03676
G1 X113.824 Y104.918 E.06797
G1 X114.018 Y102.923 E.06285
G1 X114.296 Y101.784 E.03676
G1 X114.757 Y100.529 E.04192
G1 X115.72 Y98.771 E.06285
G1 X117.097 Y97.097 E.06796
G1 X118.677 Y95.784 E.06441
G1 X119.778 Y95.118 E.04035
G1 X120.841 Y94.625 E.03674
G1 X122.922 Y94.017 E.06798
G1 X124.967 Y93.823 E.06441
G1 X126.252 Y93.892 E.04035
G1 X127.409 Y94.084 E.03677
G1 X129.471 Y94.754 E.06798
G1 X131.229 Y95.717 E.06285
G1 X132.167 Y96.42 E.03675
G1 X133.14 Y97.337 E.04192
G1 X134.377 Y98.913 E.06282
G1 X135.376 Y100.837 E.06797
G1 X135.953 Y102.757 E.06286
G1 X136.127 Y103.916 E.03675
G1 X136.177 Y105.252 E.04192
G1 X135.953 Y107.243 E.06282
G1 X135.314 Y109.315 E.06799
G1 X134.377 Y111.087 E.06285
G1 X133.688 Y112.036 E.03677
G1 X132.786 Y113.022 E.0419
G1 X131.229 Y114.283 E.06282
G1 X129.319 Y115.311 E.06801
G1 X127.409 Y115.916 E.06282
G1 X126.252 Y116.108 E.03677
M73 Q17 S3
G1 X124.917 Y116.178 E.04192
G1 X122.923 Y115.983 E.06282
G1 X120.841 Y115.375 E.06801
G1 X119.056 Y114.466 E.06281
G1 X117.968 Y113.688 E.04194
G1 X117.097 Y112.903 E.03676
G1 X115.72 Y111.229 E.06796
G1 X115.41 Y110.711 E.01893
M73 P17 R3
G1 X115.734 Y110.517 F10800
G1 F3000
G1 X115.448 Y110.039 E.01747
G1 X115.01 Y109.095 E.03263
G1 X114.66 Y108.116 E.0326
G1 X114.387 Y106.999 E.03605
G1 X114.201 Y104.929 E.06516
G1 X114.387 Y103.001 E.06073
G1 X114.702 Y101.748 E.04051
G1 X115.106 Y100.672 E.03604
G1 X116.038 Y98.974 E.06073
G1 X117.357 Y97.369 E.06514
G1 X118.843 Y96.127 E.06072
G1 X119.821 Y95.522 E.03606
G1 X120.99 Y94.972 E.04051
G1 X122.984 Y94.389 E.06514
G1 X124.962 Y94.2 E.0623
G1 X126.202 Y94.266 E.03893
G1 X127.336 Y94.454 E.03604
G1 X129.312 Y95.096 E.06514
G1 X131.011 Y96.025 E.06071
G1 X131.932 Y96.715 E.03608
G1 X132.871 Y97.601 E.04048
G1 X134.066 Y99.125 E.06072
G1 X135.023 Y100.97 E.06517
G1 X135.582 Y102.824 E.06072
G1 X135.753 Y103.961 E.03605
G1 X135.8 Y105.252 E.04051
G1 X135.582 Y107.176 E.06071
G1 X134.969 Y109.162 E.06517
G1 X134.066 Y110.875 E.06072
G1 X133.39 Y111.805 E.03605
G1 X132.517 Y112.758 E.04052
G1 X131.011 Y113.975 E.06071
G1 X129.182 Y114.96 E.06513
G1 X127.336 Y115.546 E.06073
G1 X126.202 Y115.734 E.03604
G1 X124.911 Y115.801 E.04053
G1 X122.984 Y115.611 E.06071
G1 X120.99 Y115.028 E.06514
G1 X119.263 Y114.151 E.06073
G1 X118.323 Y113.489 E.03605
G1 X117.357 Y112.631 E.04051
G1 X116.038 Y111.026 E.06514
G1 X115.765 Y110.569 E.01669
; printing object robotClamp_pad.stl id:0 copy 0
;WIPE_START
G1 F8640
G1 X115.448 Y110.039 E-.1426
G1 X115.01 Y109.095 E-.24029
G1 X114.66 Y108.116 E-.24007
G1 X114.478 Y107.371 E-.17704
;WIPE_END
G1 Z.8 F720
G1 X125.823 Y97.262 F10800
G1 Z.4 F720
G1 E.8 F2100
M204 S800
;TYPE:Perimeter
;WIDTH:0.449999
G1 F2700
G1 X126.09 Y97.287 E.00908
G1 X126.736 Y97.403 E.02222
G1 X127.415 Y97.594 E.02388
G1 X128.065 Y97.834 E.02345
G1 X128.695 Y98.142 E.02374
G1 X129.295 Y98.496 E.02358
G1 X129.859 Y98.911 E.0237
G1 X130.387 Y99.368 E.02364
G1 X130.868 Y99.876 E.02368
G1 X131.306 Y100.42 E.02364
G1 X131.689 Y101.005 E.02367
G1 X132.023 Y101.619 E.02366
G1 X132.295 Y102.263 E.02366
G1 X132.514 Y102.927 E.02367
G1 X132.666 Y103.61 E.02368
G1 X132.763 Y104.301 E.02362
G1 X132.791 Y104.999 E.02365
G1 X132.763 Y105.699 E.02371
G1 X132.666 Y106.392 E.02369
G1 X132.514 Y107.073 E.02362
G1 X132.294 Y107.739 E.02374
G1 X132.023 Y108.381 E.02359
G1 X131.686 Y108.998 E.0238
G1 X131.306 Y109.58 E.02353
G1 X130.851 Y110.144 E.02453
G1 X130.39 Y110.629 E.02265
M73 Q18 S3
G1 X129.934 Y111.029 E.02053
G1 X129.06 Y111.649 E.03627
G1 X128.491 Y111.967 E.02206
G1 X127.938 Y112.215 E.02051
G1 X127.18 Y112.482 E.0272
G1 X126.549 Y112.634 E.02197
G1 X126.038 Y112.72 E.01754
G1 X125.352 Y112.785 E.02332
G1 X124.648 Y112.781 E.02383
G1 X123.956 Y112.722 E.02351
G1 X123.243 Y112.588 E.02456
G1 X122.598 Y112.412 E.02263
G1 X122.03 Y112.2 E.02052
G1 X121.302 Y111.858 E.02723
G1 X120.747 Y111.524 E.02193
G1 X120.322 Y111.227 E.01755
G1 X119.788 Y110.791 E.02333
G1 X119.29 Y110.296 E.02377
G1 X118.837 Y109.767 E.02357
M73 P18 R3
G1 X118.436 Y109.19 E.02378
G1 X118.085 Y108.59 E.02353
G1 X117.785 Y107.93 E.02454
G1 X117.557 Y107.301 E.02265
G1 X117.404 Y106.715 E.0205
G1 X117.24 Y105.655 E.03631
G1 X117.209 Y105.004 E.02206
G1 X117.236 Y104.399 E.0205
G1 X117.336 Y103.605 E.02709
G1 X117.468 Y103.022 E.02023
G1 X117.709 Y102.255 E.02721
G1 X117.965 Y101.659 E.02196
G1 X118.212 Y101.184 E.01812
G1 X118.561 Y100.614 E.02262
G1 X118.924 Y100.129 E.02051
G1 X119.65 Y99.34 E.03629
G1 X120.14 Y98.91 E.02207
G1 X120.63 Y98.553 E.02052
G1 X121.316 Y98.134 E.02721
G1 X121.901 Y97.855 E.02194
G1 X122.384 Y97.664 E.01758
G1 X123.041 Y97.458 E.02331
