; generated by PrusaSlicer 2.6.1+MacOS-arm64 on 2023-11-27 at 19:41:49 UTC


;
;
; 

; external perimeters extrusion width = 0.45mm
; perimeters extrusion width = 0.45mm
; infill extrusion width = 0.45mm
; solid infill extrusion width = 0.45mm
; top infill extrusion width = 0.40mm
; first layer extrusion width = 0.42mm

M73 P0 R53
M73 Q0 S54
M201 X1000 Y1000 Z200 E5000 ; sets maximum accelerations, mm/sec^2
M203 X200 Y200 Z12 E120 ; sets maximum feedrates, mm / sec
M204 S1250 T1250 ; sets acceleration (S) and retract acceleration (R), mm/sec^2
M205 X8.00 Y8.00 Z0.40 E4.50 ; sets the jerk limits, mm/sec
M205 S0 T0 ; sets the minimum extruding and travel feed rate, mm/sec
;TYPE:Custom
M862.3 P "MK3S" ; printer model check
M862.1 P0.4 ; nozzle diameter check
M115 U3.12.2 ; tell printer latest fw version
G90 ; use absolute coordinates
M83 ; extruder relative mode
M104 S215 ; set extruder temp
M140 S60 ; set bed temp
M190 S60 ; wait for bed temp
M109 S215 ; wait for extruder temp
G28 W ; home all without mesh bed level
G80 ; mesh bed leveling

G1 Z0.2 F720
G1 Y-3 F1000 ; go outside print area
G92 E0
G1 X60 E9 F1000 ; intro line
G1 X100 E12.5 F1000 ; intro line

G92 E0
M221 S95

; Don't change E values below. Excessive value can damage the printer.
M907 E430 ; set extruder motor current
G21 ; set units to millimeters
G90 ; use absolute coordinates
M83 ; use relative distances for extrusion
M900 K0.05 ; Filament gcode LA 1.5
M900 K30 ; Filament gcode LA 1.0
M107
;LAYER_CHANGE
;Z:0.2
;HEIGHT:0.2
;BEFORE_LAYER_CHANGE
G92 E0.0
;0.2


M73 Q0 S53
G1 E-.8 F2100
G1 Z.4 F720
;AFTER_LAYER_CHANGE
;0.2
G1 X96.588 Y89.218 F9600
G1 Z.2 F720
G1 E.8 F2100
M204 S800
;TYPE:Skirt/Brim
;WIDTH:0.42
G1 F900
G1 X99.666 Y85.886 E.14223
G1 X101.413 Y85.121 E.0598
G1 X105.24 Y85.122 E.11999
G1 X106.05 Y85.151 E.02541
G1 X163.482 Y90.906 E1.80976
G1 X164.505 Y91.065 E.03246
G1 X165.416 Y91.408 E.03052
G1 X166.39 Y92.024 E.03613
G1 X167.203 Y92.822 E.03572
G1 X167.739 Y94.326 E.05006
G1 X167.745 Y115.672 E.66929
G1 X167.252 Y117.121 E.04799
G1 X166.502 Y117.884 E.03355
G1 X165.57 Y118.507 E.03515
G1 X164.76 Y118.855 E.02764
G1 X163.451 Y119.096 E.04173
G1 X106.05 Y124.862 E1.80883
G1 X101.358 Y124.857 E.14711
G1 X99.668 Y124.095 E.05813
G1 X87.289 Y110.714 E.57155
G1 X86.657 Y109.1 E.05435
G1 X86.657 Y100.9 E.25711
G1 X87.287 Y99.287 E.0543
G1 X96.548 Y89.262 E.42792
M204 S1000
; printing object Fantabulous Gogo-2.stl id:0 copy 0
;WIPE_START
G1 F7680
G1 X98.638 Y87 E-.8
;WIPE_END
G1 Z.6 F720
G1 X101.683 Y102.24 F9600
G1 Z.2 F720
G1 E.8 F2100
M204 S800
;TYPE:Perimeter
;WIDTH:0.502921
G1 F900
G1 X101.675 Y102.235 E.00036
;WIDTH:0.544382
G1 X101.534 Y102.151 E.00684
G1 X91.757 Y102.151 E.40767
G1 X91.403 Y102.13 E.01479
;WIDTH:0.537098
G1 X91.403 Y101.669 E.01894
;WIDTH:0.544382
G1 X91.757 Y101.649 E.01478
G1 X101.534 Y101.649 E.40767
G1 X101.675 Y101.565 E.00684
;WIDTH:0.502921
G1 X101.816 Y101.481 E.00628
;WIDTH:0.46146
G1 X101.958 Y101.396 E.00576
;WIDTH:0.419999
G1 X102.051 Y101.25 E.00543
G1 X102.1 Y101.021 E.00734
G1 X102.1 Y88.69 E.38663
G1 X105.122 Y88.687 E.09475
G1 X105.134 Y94.104 E.16985
G1 X105.267 Y94.381 E.00963
G1 X105.402 Y94.492 E.00548
G1 X105.691 Y94.572 E.0094
G1 X164.164 Y94.572 E1.83338
G1 X164.299 Y94.662 E.00509
G1 X164.299 Y94.766 E.00326
G1 X164.3 Y101.57 E.21333
G1 X164.271 Y101.613 E.00163
G1 X162.501 Y101.613 E.0555
G1 X162.501 Y100.06 E.04869
G1 X162.434 Y99.793 E.00863
G1 X162.274 Y99.607 E.00769
G1 X162.093 Y99.517 E.00634
G1 X161.935 Y99.494 E.00501
G1 X156.592 Y99.494 E.16753
G1 X156.304 Y99.573 E.00936
G1 X156.115 Y99.755 E.00823
G1 X156.026 Y100.06 E.00996
G1 X156.026 Y101.313 E.03929
G1 X105.691 Y101.313 E1.57822
G1 X105.541 Y101.333 E.00474
M73 P1 R53
M73 Q1 S53
G1 X105.276 Y101.495 E.00974
G1 X105.172 Y101.655 E.00598
G1 X105.125 Y101.879 E.00718
G1 X105.137 Y108.236 E.19932
G1 X105.276 Y108.505 E.00949
G1 X105.408 Y108.611 E.00531
G1 X105.691 Y108.687 E.00919
G1 X156.026 Y108.687 E1.57822
G1 X156.026 Y109.94 E.03929
G1 X156.115 Y110.245 E.00996
G1 X156.304 Y110.427 E.00823
G1 X156.592 Y110.506 E.00936
G1 X161.835 Y110.506 E.16439
G1 X162.093 Y110.483 E.00812
G1 X162.274 Y110.393 E.00634
G1 X162.434 Y110.207 E.00769
G1 X162.501 Y109.94 E.00863
G1 X162.501 Y108.387 E.04869
G1 X164.288 Y108.392 E.05603
G1 X164.301 Y115.353 E.21826
G1 X164.186 Y115.428 E.0043
G1 X105.691 Y115.428 E1.83407
G1 X105.538 Y115.449 E.00484
G1 X105.268 Y115.619 E.01
G1 X105.165 Y115.787 E.00618
G1 X105.125 Y115.994 E.00661
G1 X105.122 Y121.313 E.16677
G1 X102.102 Y121.311 E.09469
G1 X102.1 Y109.748 E.36255
G1 X102.088 Y108.864 E.02772
G1 X101.958 Y108.604 E.00911
;WIDTH:0.462578
G1 X101.835 Y108.52 E.0052
;WIDTH:0.505157
G1 X101.712 Y108.436 E.00572
;WIDTH:0.547736
G1 X101.589 Y108.351 E.00628
G1 X101.534 Y108.351 E.00231
;WIDTH:0.544382
G1 X91.781 Y108.351 E.40667
G1 X91.406 Y108.328 E.01567
;WIDTH:0.542393
G1 X91.406 Y107.886 E.01836
;WIDTH:0.544382
G1 X91.765 Y107.849 E.01505
G1 X101.534 Y107.849 E.40734
;WIDTH:0.547736
G1 X101.589 Y107.849 E.00231
M73 P1 R52
G1 X101.712 Y107.764 E.00628
;WIDTH:0.505157
G1 X101.835 Y107.68 E.00572
;WIDTH:0.462578
G1 X101.958 Y107.596 E.0052
;WIDTH:0.419999
G1 X102.051 Y107.45 E.00543
G1 X102.1 Y107.221 E.00734
G1 X102.1 Y102.779 E.13928
G1 X102.051 Y102.55 E.00734
G1 X101.958 Y102.404 E.00543
;WIDTH:0.46146
G1 X101.816 Y102.319 E.00576
;WIDTH:0.502921
G1 X101.734 Y102.27 E.00365
M204 S1000
G1 X101.534 Y102.59 F9600
M204 S800
;TYPE:External perimeter
;WIDTH:0.419999
G1 F900
G1 X91.732 Y102.59 E.30733
G1 X90.967 Y102.535 E.02405
G1 X90.967 Y101.263 E.03988
G1 X91.725 Y101.21 E.02382
G1 X101.534 Y101.21 E.30755
G1 X101.675 Y101.146 E.00486
G1 X101.722 Y101.021 E.00419
G1 X101.723 Y88.314 E.39842
G1 X105.499 Y88.31 E.11839
G1 X105.503 Y94.006 E.17859
G1 X105.55 Y94.131 E.00419
G1 X105.691 Y94.195 E.00486
G1 X164.279 Y94.195 E1.83698
G1 X164.676 Y94.462 E.015
G1 X164.677 Y101.787 E.22967
G1 X164.391 Y101.99 E.011
G1 X162.123 Y101.99 E.07111
G1 X162.123 Y100.06 E.06051
G1 X162.048 Y99.909 E.00529
G1 X161.935 Y99.871 E.00374
G1 X156.592 Y99.871 E.16753
G1 X156.459 Y99.926 E.00451
G1 X156.404 Y100.06 E.00454
G1 X156.404 Y101.69 E.05111
G1 X105.691 Y101.69 E1.59007
G1 X105.553 Y101.751 E.00473
G1 X105.503 Y101.879 E.00431
G1 X105.503 Y108.1 E.19505
G1 X105.553 Y108.249 E.00493
G1 X105.691 Y108.31 E.00473
G1 X156.404 Y108.31 E1.59007
G1 X156.404 Y109.94 E.05111
G1 X156.459 Y110.074 E.00454
G1 X156.592 Y110.129 E.00451
G1 X161.835 Y110.129 E.16439
G1 X162.048 Y110.091 E.00678
G1 X162.123 Y109.94 E.00529
G1 X162.123 Y108.01 E.06051
G1 X164.401 Y108.01 E.07142
G1 X164.665 Y108.197 E.01014
G1 X164.678 Y115.543 E.23033
G1 X164.265 Y115.805 E.01534
G1 X105.691 Y115.805 E1.83654
G1 X105.55 Y115.869 E.00486
M73 P2 R52
M73 Q2 S52
G1 X105.503 Y115.994 E.00419
G1 X105.499 Y121.69 E.17859
G1 X101.725 Y121.687 E.11833
G1 X101.722 Y108.979 E.39845
G1 X101.675 Y108.854 E.00419
G1 X101.534 Y108.79 E.00486
G1 X91.725 Y108.79 E.30755
G1 X90.967 Y108.737 E.02382
G1 X90.967 Y107.469 E.03976
G1 X91.737 Y107.41 E.02421
G1 X101.534 Y107.41 E.30718
G1 X101.675 Y107.346 E.00486
G1 X101.722 Y107.221 E.00419
G1 X101.722 Y102.779 E.13928
G1 X101.706 Y102.702 E.00247
G1 X101.584 Y102.623 E.00456
M204 S1000
G1 X101.43 Y102.204 F9600
;WIPE_START
G1 F7680
G1 X98.504 Y102.613 E-.8
;WIPE_END
G1 Z.6 F720
G1 X164.126 Y95.507 F9600
G1 Z.2 F720
G1 E.8 F2100
M204 S800
;TYPE:Solid infill
;WIDTH:0.421454
G1 F900
G1 X163.53 Y94.911 E.02653
G1 X162.995 Y94.911 E.01684
G1 X163.957 Y95.873 E.04282
G1 X163.957 Y96.409 E.01687
G1 X162.459 Y94.911 E.06668
G1 X161.924 Y94.911 E.01684
G1 X163.958 Y96.945 E.09054
G1 X163.958 Y97.48 E.01684
G1 X161.389 Y94.911 E.11435
G1 X160.853 Y94.911 E.01687
G1 X163.958 Y98.016 E.13821
G1 X163.959 Y98.552 E.01687
G1 X160.318 Y94.911 E.16207
G1 X159.783 Y94.911 E.01684
G1 X163.959 Y99.088 E.18591
G1 X163.96 Y99.623 E.01684
G1 X159.247 Y94.911 E.20977
G1 X158.712 Y94.911 E.01684
G1 X163.96 Y100.159 E.2336
G1 X163.96 Y100.695 E.01687
G1 X158.177 Y94.911 E.25744
G1 X157.641 Y94.911 E.01687
G1 X161.885 Y99.155 E.18891
G1 X162.192 Y99.19 E.00973
G1 X162.482 Y99.335 E.01021
G1 X162.738 Y99.634 E.01239
G1 X162.84 Y100.041 E.01321
G1 X162.84 Y100.11 E.00217
G1 X163.961 Y101.23 E.04988
G1 X163.961 Y101.274 E.00138
G1 X163.469 Y101.274 E.01549
G1 X162.84 Y100.645 E.028
G1 X162.84 Y101.18 E.01684
G1 X163.103 Y101.443 E.01171
M204 S1000
;WIPE_START
G1 F7680
G1 X162.84 Y101.18 E-.09662
G1 X162.84 Y100.645 E-.13897
G1 X163.469 Y101.274 E-.23107
G1 X163.961 Y101.274 E-.1278
G1 X163.961 Y101.23 E-.01143
G1 X163.432 Y100.702 E-.19411
;WIPE_END
G1 Z.6 F720
G1 X161.519 Y99.324 F9600
G1 Z.2 F720
G1 E.8 F2100
M204 S800
G1 F900
G1 X157.106 Y94.911 E.19643
G1 X156.571 Y94.911 E.01684
G1 X160.814 Y99.155 E.18889
G1 X160.279 Y99.155 E.01684
G1 X156.035 Y94.911 E.18891
G1 X155.5 Y94.911 E.01684
G1 X159.744 Y99.155 E.18891
G1 X159.208 Y99.155 E.01687
G1 X154.965 Y94.911 E.18889
G1 X154.429 Y94.911 E.01687
G1 X158.673 Y99.155 E.18891
G1 X158.138 Y99.155 E.01684
G1 X153.894 Y94.911 E.18891
G1 X153.359 Y94.911 E.01684
G1 X157.602 Y99.155 E.18889
G1 X157.067 Y99.155 E.01684
G1 X152.823 Y94.911 E.18891
G1 X152.288 Y94.911 E.01684
G1 X156.538 Y99.161 E.18918
G1 X156.349 Y99.187 E.006
G1 X156.125 Y99.284 E.00768
G1 X151.753 Y94.911 E.19463
G1 X151.217 Y94.911 E.01687
G1 X155.851 Y99.544 E.20625
G1 X155.736 Y99.762 E.00776
G1 X155.706 Y99.935 E.00553
G1 X150.682 Y94.911 E.22363
G1 X150.147 Y94.911 E.01684
G1 X155.687 Y100.451 E.2466
G1 X155.687 Y100.974 E.01646
G1 X155.674 Y100.974 E.00041
G1 X149.611 Y94.911 E.26988
G1 X149.076 Y94.911 E.01684
G1 X155.139 Y100.974 E.26988
G1 X154.603 Y100.974 E.01687
G1 X148.541 Y94.911 E.26986
G1 X148.005 Y94.911 E.01687
G1 X154.068 Y100.974 E.26988
G1 X153.533 Y100.974 E.01684
G1 X147.47 Y94.911 E.26988
G1 X146.935 Y94.911 E.01684
G1 X152.997 Y100.974 E.26986
G1 X152.462 Y100.974 E.01684
G1 X146.399 Y94.911 E.26988
G1 X145.864 Y94.911 E.01684
G1 X151.927 Y100.974 E.26988
G1 X151.391 Y100.974 E.01687
G1 X145.328 Y94.911 E.26988
G1 X144.793 Y94.911 E.01684
G1 X150.856 Y100.974 E.26988
G1 X150.321 Y100.974 E.01684
G1 X144.258 Y94.911 E.26988
G1 X143.722 Y94.911 E.01687
G1 X149.785 Y100.974 E.26988
G1 X149.25 Y100.974 E.01684
G1 X143.187 Y94.911 E.26988
G1 X142.652 Y94.911 E.01684
G1 X148.715 Y100.974 E.26988
G1 X148.179 Y100.974 E.01687
G1 X142.116 Y94.911 E.26988
G1 X141.581 Y94.911 E.01684
G1 X147.644 Y100.974 E.26988
G1 X147.109 Y100.974 E.01684
G1 X141.046 Y94.911 E.26988
G1 X140.51 Y94.911 E.01687
G1 X146.573 Y100.974 E.26988
G1 X146.038 Y100.974 E.01684
G1 X139.975 Y94.911 E.26988
G1 X139.44 Y94.911 E.01684
G1 X145.503 Y100.974 E.26988
G1 X144.967 Y100.974 E.01687
G1 X138.904 Y94.911 E.26988
G1 X138.369 Y94.911 E.01684
G1 X144.432 Y100.974 E.26988
G1 X143.897 Y100.974 E.01684
G1 X137.834 Y94.911 E.26988
G1 X137.298 Y94.911 E.01687
G1 X143.361 Y100.974 E.26988
G1 X142.826 Y100.974 E.01684
G1 X136.763 Y94.911 E.26988
G1 X136.228 Y94.911 E.01684
M73 P3 R52
M73 Q3 S52
G1 X142.291 Y100.974 E.26988
G1 X141.755 Y100.974 E.01687
G1 X135.692 Y94.911 E.26988
G1 X135.157 Y94.911 E.01684
G1 X141.22 Y100.974 E.26988
G1 X140.685 Y100.974 E.01684
G1 X134.622 Y94.911 E.26988
G1 X134.086 Y94.911 E.01687
G1 X140.149 Y100.974 E.26988
G1 X139.614 Y100.974 E.01684
G1 X133.551 Y94.91 E.2699
G1 X133.016 Y94.91 E.01684
G1 X139.079 Y100.974 E.2699
G1 X138.543 Y100.974 E.01687
G1 X132.48 Y94.91 E.2699
G1 X131.945 Y94.91 E.01684
G1 X138.008 Y100.974 E.2699
G1 X137.473 Y100.974 E.01684
G1 X131.41 Y94.91 E.2699
G1 X130.874 Y94.91 E.01687
G1 X136.937 Y100.974 E.2699
G1 X136.402 Y100.974 E.01684
G1 X130.339 Y94.91 E.2699
G1 X129.804 Y94.91 E.01684
G1 X135.867 Y100.974 E.2699
G1 X135.331 Y100.974 E.01687
M73 P3 R51
G1 X129.268 Y94.91 E.2699
G1 X128.733 Y94.91 E.01684
G1 X134.796 Y100.974 E.2699
G1 X134.261 Y100.974 E.01684
G1 X128.198 Y94.91 E.2699
G1 X127.662 Y94.91 E.01687
G1 X133.725 Y100.974 E.2699
G1 X133.19 Y100.974 E.01684
G1 X127.127 Y94.91 E.2699
G1 X126.592 Y94.91 E.01684
G1 X132.655 Y100.974 E.2699
G1 X132.12 Y100.974 E.01684
G1 X126.056 Y94.91 E.26993
G1 X125.521 Y94.91 E.01684
G1 X131.584 Y100.974 E.2699
G1 X131.049 Y100.974 E.01684
G1 X124.986 Y94.91 E.2699
G1 X124.45 Y94.91 E.01687
G1 X130.514 Y100.974 E.26993
G1 X129.978 Y100.974 E.01687
G1 X123.915 Y94.91 E.2699
G1 X123.38 Y94.91 E.01684
G1 X129.443 Y100.974 E.2699
G1 X128.908 Y100.974 E.01684
G1 X122.844 Y94.91 E.26993
G1 X122.309 Y94.91 E.01684
G1 X128.372 Y100.974 E.2699
G1 X127.837 Y100.974 E.01684
G1 X121.774 Y94.91 E.2699
G1 X121.238 Y94.91 E.01687
G1 X127.302 Y100.974 E.26993
G1 X126.766 Y100.974 E.01687
G1 X120.703 Y94.91 E.2699
G1 X120.168 Y94.91 E.01684
G1 X126.231 Y100.974 E.2699
G1 X125.696 Y100.974 E.01684
G1 X119.632 Y94.91 E.26993
G1 X119.097 Y94.91 E.01684
G1 X125.16 Y100.974 E.2699
G1 X124.625 Y100.974 E.01684
G1 X118.562 Y94.91 E.2699
G1 X118.026 Y94.91 E.01687
G1 X124.09 Y100.974 E.26993
G1 X123.554 Y100.974 E.01687
G1 X117.491 Y94.91 E.2699
G1 X116.956 Y94.91 E.01684
G1 X123.019 Y100.974 E.2699
G1 X122.484 Y100.974 E.01684
G1 X116.42 Y94.91 E.26993
G1 X115.885 Y94.91 E.01684
G1 X121.948 Y100.974 E.2699
G1 X121.413 Y100.974 E.01684
G1 X115.35 Y94.91 E.2699
G1 X114.814 Y94.91 E.01687
G1 X120.878 Y100.974 E.26993
G1 X120.342 Y100.974 E.01687
G1 X114.279 Y94.91 E.2699
G1 X113.743 Y94.91 E.01687
G1 X119.807 Y100.974 E.26993
G1 X119.272 Y100.974 E.01684
M73 Q3 S51
G1 X113.208 Y94.91 E.26993
G1 X112.673 Y94.91 E.01684
G1 X118.736 Y100.974 E.2699
G1 X118.201 Y100.974 E.01684
G1 X112.137 Y94.91 E.26993
G1 X111.602 Y94.91 E.01684
G1 X117.666 Y100.974 E.26993
G1 X117.13 Y100.974 E.01687
G1 X111.067 Y94.91 E.2699
G1 X110.531 Y94.91 E.01687
G1 X116.595 Y100.974 E.26993
G1 X116.06 Y100.974 E.01684
G1 X109.996 Y94.91 E.26993
G1 X109.461 Y94.91 E.01684
G1 X115.524 Y100.974 E.2699
G1 X114.989 Y100.974 E.01684
G1 X108.925 Y94.91 E.26993
G1 X108.39 Y94.91 E.01684
G1 X114.454 Y100.974 E.26993
G1 X113.918 Y100.974 E.01687
M73 P4 R51
M73 Q4 S51
G1 X107.855 Y94.91 E.2699
G1 X107.319 Y94.91 E.01687
G1 X113.383 Y100.974 E.26993
G1 X112.848 Y100.974 E.01684
G1 X106.784 Y94.91 E.26993
G1 X106.249 Y94.91 E.01684
G1 X112.482 Y101.143 E.27745
M204 S1000
;WIPE_START
G1 F7680
G1 X110.304 Y98.965 E-.8
;WIPE_END
G1 Z.6 F720
G1 X104.953 Y89.332 F9600
G1 Z.2 F720
G1 E.8 F2100
M204 S800
G1 F900
G1 X104.648 Y89.027 E.01358
G1 X104.114 Y89.028 E.01681
G1 X104.784 Y89.697 E.0298
G1 X104.784 Y90.233 E.01687
G1 X103.579 Y89.028 E.05364
G1 X103.044 Y89.029 E.01684
G1 X104.786 Y90.77 E.07752
G1 X104.788 Y91.307 E.0169
G1 X102.509 Y89.029 E.10142
G1 X102.439 Y89.029 E.0022
G1 X102.439 Y89.494 E.01464
G1 X104.789 Y91.845 E.10463
G1 X104.791 Y92.382 E.0169
G1 X102.439 Y90.029 E.10472
G1 X102.439 Y90.565 E.01687
G1 X104.793 Y92.919 E.10478
G1 X104.795 Y93.456 E.0169
G1 X102.439 Y91.1 E.10487
G1 X102.439 Y91.635 E.01684
G1 X104.797 Y93.993 E.10496
G1 X104.797 Y94.157 E.00516
G1 X104.85 Y94.343 E.00609
G1 X105.011 Y94.606 E.00971
G1 X105.226 Y94.784 E.00879
G1 X105.444 Y94.878 E.00747
G1 X105.713 Y94.91 E.00853
G1 X111.777 Y100.974 E.26993
G1 X111.242 Y100.974 E.01684
G1 X102.439 Y92.171 E.39185
G1 X102.439 Y92.706 E.01684
G1 X110.706 Y100.974 E.36801
G1 X110.171 Y100.974 E.01684
G1 X102.439 Y93.241 E.34419
G1 X102.439 Y93.777 E.01687
G1 X109.636 Y100.974 E.32036
G1 X109.1 Y100.974 E.01687
G1 X102.439 Y94.312 E.29652
G1 X102.439 Y94.847 E.01684
G1 X108.565 Y100.974 E.27271
G1 X108.03 Y100.974 E.01684
G1 X102.439 Y95.383 E.24887
G1 X102.439 Y95.918 E.01684
G1 X107.494 Y100.974 E.22503
G1 X106.959 Y100.974 E.01684
G1 X102.439 Y96.453 E.20122
G1 X102.439 Y96.989 E.01687
G1 X106.424 Y100.974 E.17738
G1 X105.888 Y100.974 E.01687
G1 X102.439 Y97.524 E.15355
G1 X102.439 Y98.059 E.01684
G1 X105.404 Y101.024 E.13198
G1 X105.235 Y101.095 E.00577
G1 X105.071 Y101.227 E.00663
G1 X102.439 Y98.595 E.11716
G1 X102.439 Y99.13 E.01684
G1 X104.852 Y101.543 E.10741
G1 X104.791 Y101.771 E.00743
G1 X104.791 Y102.017 E.00774
G1 X102.439 Y99.665 E.10469
G1 X102.439 Y100.201 E.01687
G1 X104.791 Y102.552 E.10467
